; generated by PrusaSlicer 2.5.0+win64 on 2022-10-03 at 18:46:50 UTC


;
;
; 

; external perimeters extrusion width = 0.45mm
; perimeters extrusion width = 0.45mm
; infill extrusion width = 0.45mm
; solid infill extrusion width = 0.45mm
; top infill extrusion width = 0.40mm
; first layer extrusion width = 0.42mm

M73 P0 R143
M73 Q0 S148
M201 X1000 Y1000 Z200 E5000 ; sets maximum accelerations, mm/sec^2
M203 X200 Y200 Z12 E120 ; sets maximum feedrates, mm / sec
M204 P1250 R1250 T1250 ; sets acceleration (P, T) and retract acceleration (R), mm/sec^2
M205 X8.00 Y8.00 Z0.40 E4.50 ; sets the jerk limits, mm/sec
M205 S0 T0 ; sets the minimum extruding and travel feed rate, mm/sec
M107
;TYPE:Custom
M862.3 P "MK3S" ; printer model check
M862.1 P0.4 ; nozzle diameter check
M115 U3.11.0 ; tell printer latest fw version
G90 ; use absolute coordinates
M83 ; extruder relative mode
M104 S215 ; set extruder temp
M140 S60 ; set bed temp
M190 S60 ; wait for bed temp
M109 S215 ; wait for extruder temp
G28 W ; home all without mesh bed level
G80 ; mesh bed leveling

G1 Z0.2 F720
G1 Y-3 F1000 ; go outside print area
G92 E0
G1 X60 E9 F1000 ; intro line
G1 X100 E12.5 F1000 ; intro line

G92 E0
M221 S95

; Don't change E values below. Excessive value can damage the printer.

M907 E538 ; set extruder motor current
G21 ; set units to millimeters
G90 ; use absolute coordinates
M83 ; use relative distances for extrusion
M900 K0.05 ; Filament gcode LA 1.5
M900 K30 ; Filament gcode LA 1.0
M107
;LAYER_CHANGE
;Z:0.2
;HEIGHT:0.2
;BEFORE_LAYER_CHANGE
G92 E0.0
;0.2


G1 E-.8 F2100
G1 Z.4 F720
;AFTER_LAYER_CHANGE
;0.2
G1 X73.015 Y40.693 F10800
G1 Z.2 F720
M73 P0 R142
G1 E.8 F2100
M204 S800
;TYPE:Skirt/Brim
;WIDTH:0.42
G1 F1200
G1 X74.06 Y39.817 E.04278
G1 X75 Y39.623 E.03008
G1 X175 Y39.623 E3.13543
G1 X176.307 Y40.015 E.04278
G1 X177.183 Y41.06 E.04278
G1 X177.377 Y42 E.03008
G1 X177.377 Y88 E1.4423
G1 X176.902 Y89.426 E.04714
G1 X116.902 Y169.426 E3.13543
G1 X115.804 Y170.237 E.04278
G1 X115 Y170.377 E.02559
G1 X75 Y170.377 E1.25417
G1 X73.693 Y169.985 E.04278
G1 X72.817 Y168.94 E.04278
G1 X72.623 Y168 E.03008
G1 X72.623 Y42 E3.95064
G1 X72.997 Y40.75 E.0409
M204 S1000
; printing object bok_dol_X4.stl id:0 copy 0
;WIPE_START
G1 F8640
G1 X74.06 Y39.817 E-.32671
G1 X75 Y39.623 E-.22155
G1 X75.917 Y39.623 E-.21174
;WIPE_END
G1 E-.04 F2100
G1 Z.6 F720
G1 X75.787 Y167.213 F10800
G1 Z.2 F720
G1 E.8 F2100
M204 S800
;TYPE:Perimeter
;WIDTH:0.419999
G1 F1200
G1 X75.787 Y42.787 E3.90128
G1 X174.213 Y42.787 E3.08607
G1 X174.213 Y87.738 E1.40939
G1 X114.606 Y167.213 E3.11486
G1 X75.847 Y167.213 E1.21527
M204 S1000
G1 X75.41 Y167.59 F10800
M204 S800
;TYPE:External perimeter
G1 F1200
G1 X75.41 Y42.41 E3.92492
G1 X174.59 Y42.41 E3.10971
M73 Q0 S147
G1 X174.59 Y87.863 E1.42516
G1 X114.795 Y167.59 E3.12471
G1 X75.47 Y167.59 E1.23301
M204 S1000
M73 P0 R141
G1 X75.527 Y167.208 F10800
;WIPE_START
G1 F8640
G1 X75.468 Y164.299 E-.76
;WIPE_END
G1 E-.04 F2100
G1 Z.6 F720
G1 X166.133 Y61.12 F10800
G1 Z.2 F720
G1 E.8 F2100
M204 S800
;TYPE:Perimeter
G1 F1200
G1 X165.543 Y61.456 E.0213
G1 X164.829 Y61.693 E.02359
G1 X164.059 Y61.784 E.02432
G1 X163.328 Y61.725 E.023
G1 X162.617 Y61.523 E.02314
G1 X161.966 Y61.192 E.02291
G1 X161.391 Y60.743 E.02288
G1 X160.912 Y60.189 E.02297
G1 X160.544 Y59.543 E.0233
G1 X160.308 Y58.832 E.02351
G1 X160.216 Y58.062 E.02431
G1 X160.275 Y57.328 E.02309
G1 X160.476 Y56.62 E.02307
G1 X160.806 Y55.969 E.02289
G1 X161.261 Y55.388 E.02313
G1 X161.814 Y54.91 E.0229
G1 X162.459 Y54.543 E.02329
G1 X163.171 Y54.307 E.02351
G1 X163.886 Y54.219 E.02258
G1 X164.666 Y54.275 E.02452
G1 X165.383 Y54.477 E.02334
G1 X166.034 Y54.808 E.02291
G1 X166.609 Y55.257 E.02288
G1 X167.089 Y55.813 E.02305
G1 X167.456 Y56.457 E.02322
G1 X167.692 Y57.168 E.0235
G1 X167.787 Y57.997 E.02615
G1 X167.725 Y58.672 E.02127
G1 X167.524 Y59.38 E.02307
G1 X167.194 Y60.031 E.02289
G1 X166.739 Y60.612 E.02313
G1 X166.185 Y61.09 E.02293
M204 S1000
;WIPE_START
G1 F8640
G1 X165.543 Y61.456 E-.17069
G1 X164.829 Y61.693 E-.1737
G1 X164.059 Y61.784 E-.17912
G1 X163.328 Y61.725 E-.16936
G1 X163.048 Y61.645 E-.06714
;WIPE_END
G1 E-.04 F2100
G1 Z.6 F720
G1 X165.161 Y61.19 F10800
G1 Z.2 F720
G1 E.8 F2100
M204 S800
;TYPE:External perimeter
G1 F1200
G1 X164.716 Y61.333 E.01468
G1 X164.02 Y61.409 E.02194
G1 X163.364 Y61.349 E.02065
G1 X162.726 Y61.162 E.02086
G1 X162.142 Y60.859 E.02062
G1 X161.628 Y60.449 E.02061
G1 X161.201 Y59.946 E.02069
G1 X160.874 Y59.361 E.021
G1 X160.667 Y58.718 E.02118
G1 X160.591 Y58.023 E.02194
G1 X160.651 Y57.364 E.02074
G1 X160.837 Y56.728 E.02078
G1 X161.14 Y56.144 E.02062
G1 X161.555 Y55.625 E.02085
G1 X162.056 Y55.199 E.02062
G1 X162.641 Y54.873 E.021
G1 X163.285 Y54.667 E.02119
G1 X163.926 Y54.594 E.02026
G1 X164.634 Y54.65 E.02226
G1 X165.274 Y54.838 E.02092
G1 X165.858 Y55.141 E.02062
G1 X166.372 Y55.551 E.02061
G1 X166.801 Y56.056 E.02077
G1 X167.126 Y56.639 E.02093
G1 X167.333 Y57.282 E.02118
G1 X167.41 Y57.997 E.02255
G1 X167.349 Y58.636 E.02013
G1 X167.163 Y59.272 E.02078
G1 X166.86 Y59.856 E.02062
G1 X166.445 Y60.375 E.02085
G1 X165.944 Y60.801 E.02062
G1 X165.361 Y61.126 E.02092
G1 X165.218 Y61.172 E.0047
M204 S1000
G1 X165.096 Y61.585 F10800
;WIPE_START
G1 F8640
G1 X164.716 Y61.333 E-.12194
G1 X164.02 Y61.409 E-.16159
G1 X163.364 Y61.349 E-.15209
G1 X162.726 Y61.162 E-.1536
G1 X162.142 Y60.859 E-.15185
G1 X162.078 Y60.807 E-.01893
;WIPE_END
G1 E-.04 F2100
G1 Z.6 F720
G1 X165.436 Y74.504 F10800
G1 Z.2 F720
G1 E.8 F2100
M204 S800
;TYPE:Perimeter
G1 F1200
G1 X166.034 Y74.808 E.02101
G1 X166.609 Y75.257 E.02288
G1 X167.088 Y75.811 E.02297
G1 X167.456 Y76.457 E.0233
G1 X167.692 Y77.168 E.02351
G1 X167.787 Y77.997 E.02615
G1 X167.725 Y78.672 E.02127
G1 X167.524 Y79.38 E.02307
G1 X167.194 Y80.031 E.02289
G1 X166.739 Y80.612 E.02313
G1 X166.186 Y81.09 E.0229
G1 X165.541 Y81.457 E.02329
G1 X164.829 Y81.693 E.02351
G1 X164.059 Y81.784 E.02431
G1 X163.328 Y81.725 E.023
G1 X162.617 Y81.523 E.02314
G1 X161.964 Y81.191 E.02299
G1 X161.389 Y80.741 E.02289
G1 X160.85 Y80.098 E.02632
G1 X160.544 Y79.543 E.01985
G1 X160.308 Y78.832 E.02351
G1 X160.216 Y78.062 E.02431
G1 X160.275 Y77.328 E.02309
G1 X160.476 Y76.62 E.02307
G1 X160.806 Y75.969 E.02289
G1 X161.257 Y75.392 E.02297
G1 X161.813 Y74.911 E.02306
G1 X162.459 Y74.543 E.0233
G1 X163.171 Y74.307 E.02351
G1 X163.886 Y74.219 E.02258
G1 X164.666 Y74.275 E.02452
G1 X165.383 Y74.477 E.02336
M204 S1000
;WIPE_START
G1 F8640
G1 X166.034 Y74.808 E-.16858
G1 X166.609 Y75.257 E-.1685
G1 X167.088 Y75.811 E-.16913
G1 X167.456 Y76.457 E-.1716
G1 X167.568 Y76.795 E-.08218
;WIPE_END
G1 E-.04 F2100
G1 Z.6 F720
G1 X164.391 Y74.631 F10800
G1 Z.2 F720
G1 E.8 F2100
M204 S800
;TYPE:External perimeter
G1 F1200
G1 X164.634 Y74.65 E.00763
G1 X165.274 Y74.838 E.02092
G1 X165.858 Y75.141 E.02062
G1 X166.372 Y75.551 E.02061
G1 X166.799 Y76.054 E.02069
G1 X167.126 Y76.639 E.021
G1 X167.333 Y77.282 E.02118
G1 X167.41 Y77.997 E.02255
G1 X167.349 Y78.636 E.02013
G1 X167.163 Y79.272 E.02078
G1 X166.86 Y79.856 E.02062
G1 X166.445 Y80.375 E.02085
G1 X165.944 Y80.801 E.02062
G1 X165.359 Y81.127 E.021
G1 X164.715 Y81.333 E.02118
G1 X164.02 Y81.409 E.02194
G1 X163.364 Y81.349 E.02065
G1 X162.726 Y81.162 E.02086
G1 X162.14 Y80.857 E.0207
G1 X161.626 Y80.447 E.02062
G1 X161.201 Y79.946 E.02061
G1 X160.874 Y79.361 E.021
G1 X160.667 Y78.718 E.02118
G1 X160.591 Y78.023 E.02194
G1 X160.651 Y77.364 E.02074
G1 X160.837 Y76.728 E.02078
G1 X161.14 Y76.144 E.02062
G1 X161.551 Y75.628 E.02069
G1 X162.056 Y75.199 E.02077
G1 X162.641 Y74.873 E.02101
G1 X163.285 Y74.667 E.02119
G1 X163.926 Y74.594 E.02026
G1 X164.332 Y74.626 E.01274
M204 S1000
G1 X164.522 Y74.425 F10800
;WIPE_START
G1 F8640
G1 X164.634 Y74.65 E-.07006
G1 X165.274 Y74.838 E-.15409
G1 X165.858 Y75.141 E-.15185
G1 X166.372 Y75.551 E-.15179
G1 X166.799 Y76.054 E-.15237
G1 X166.968 Y76.356 E-.07984
;WIPE_END
G1 E-.04 F2100
G1 Z.6 F720
G1 X130.88 Y80.133 F10800
G1 Z.2 F720
G1 E.8 F2100
M204 S800
;TYPE:Perimeter
G1 F1200
G1 X130.544 Y79.543 E.0213
G1 X130.307 Y78.829 E.02359
G1 X130.216 Y78.062 E.02423
G1 X130.275 Y77.328 E.02308
G1 X130.476 Y76.62 E.02307
G1 X130.809 Y75.964 E.02306
G1 X131.261 Y75.387 E.02298
G1 X131.814 Y74.91 E.02289
G1 X132.457 Y74.544 E.02321
G1 X133.171 Y74.307 E.02359
G1 X133.886 Y74.219 E.02258
G1 X134.666 Y74.275 E.02452
G1 X135.378 Y74.475 E.02318
G1 X136.031 Y74.806 E.02297
G1 X136.608 Y75.257 E.02297
G1 X137.089 Y75.813 E.02306
G1 X137.457 Y76.459 E.02331
G1 X137.693 Y77.171 E.02351
G1 X137.784 Y77.938 E.02422
G1 X137.725 Y78.672 E.02308
G1 X137.525 Y79.378 E.02299
G1 X137.194 Y80.031 E.02297
G1 X136.666 Y80.687 E.0264
G1 X136.187 Y81.089 E.01963
G1 X135.541 Y81.457 E.02331
G1 X134.829 Y81.693 E.02351
G1 X134.059 Y81.784 E.02431
G1 X133.22 Y81.704 E.02641
G1 X132.622 Y81.525 E.01956
G1 X132.018 Y81.219 E.02124
G1 X131.387 Y80.739 E.02486
G1 X130.91 Y80.185 E.02292
M204 S1000
G1 X130.847 Y79.277 F10800
M204 S800
;TYPE:External perimeter
G1 F1200
G1 X130.667 Y78.716 E.0185
G1 X130.591 Y78.023 E.02186
G1 X130.651 Y77.364 E.02074
G1 X130.837 Y76.728 E.02078
G1 X131.143 Y76.14 E.02077
G1 X131.555 Y75.624 E.02069
G1 X132.056 Y75.199 E.02061
G1 X132.639 Y74.874 E.02092
G1 X133.284 Y74.667 E.02126
G1 X133.926 Y74.594 E.02026
G1 X134.634 Y74.65 E.02226
G1 X135.27 Y74.836 E.02077
G1 X135.856 Y75.14 E.02069
G1 X136.372 Y75.551 E.02069
G1 X136.801 Y76.056 E.02077
G1 X137.127 Y76.641 E.02101
G1 X137.333 Y77.285 E.02119
G1 X137.409 Y77.977 E.02185
G1 X137.349 Y78.638 E.02081
G1 X137.164 Y79.27 E.02064
G1 X136.86 Y79.856 E.02069
G1 X136.449 Y80.372 E.02069
G1 X135.944 Y80.801 E.02077
G1 X135.359 Y81.127 E.02101
G1 X134.715 Y81.333 E.02119
G1 X134.02 Y81.409 E.02194
G1 X133.364 Y81.349 E.02065
G1 X132.796 Y81.184 E.01854
G1 X132.194 Y80.886 E.02107
G1 X131.624 Y80.445 E.02256
G1 X131.199 Y79.944 E.02062
G1 X130.866 Y79.335 E.02178
M204 S1000
G1 X130.45 Y79.229 F10800
;WIPE_START
G1 F8640
G1 X130.667 Y78.716 E-.15012
G1 X130.591 Y78.023 E-.16096
G1 X130.651 Y77.364 E-.15271
G1 X130.837 Y76.728 E-.15305
G1 X131.123 Y76.178 E-.14316
;WIPE_END
G1 E-.04 F2100
G1 Z.6 F720
G1 X131.308 Y55.347 F10800
G1 Z.2 F720
G1 E.8 F2100
M204 S800
;TYPE:Perimeter
G1 F1200
G1 X131.814 Y54.91 E.02097
G1 X132.457 Y54.544 E.02321
G1 X133.171 Y54.307 E.02359
G1 X133.886 Y54.219 E.02258
G1 X134.666 Y54.275 E.02452
G1 X135.383 Y54.477 E.02334
G1 X136.034 Y54.808 E.02291
G1 X136.609 Y55.257 E.02288
G1 X137.089 Y55.813 E.02305
G1 X137.457 Y56.459 E.02331
G1 X137.693 Y57.171 E.02351
G1 X137.784 Y57.938 E.02422
G1 X137.725 Y58.672 E.02308
G1 X137.525 Y59.378 E.02299
G1 X137.194 Y60.031 E.02297
G1 X136.739 Y60.612 E.02314
G1 X136.186 Y61.09 E.0229
G1 X135.543 Y61.456 E.02321
G1 X134.829 Y61.693 E.02359
G1 X134.059 Y61.784 E.02432
G1 X133.328 Y61.725 E.023
G1 X132.622 Y61.525 E.02298
G1 X131.964 Y61.191 E.02314
G1 X131.387 Y60.739 E.02299
G1 X130.91 Y60.186 E.02289
G1 X130.543 Y59.541 E.02329
G1 X130.307 Y58.829 E.02351
G1 X130.216 Y58.062 E.02422
G1 X130.275 Y57.328 E.02308
G1 X130.477 Y56.617 E.02315
G1 X130.808 Y55.966 E.02291
G1 X131.262 Y55.387 E.02309
M204 S1000
G1 X131.839 Y55.384 F10800
M204 S800
;TYPE:External perimeter
G1 F1200
G1 X132.056 Y55.199 E.00894
G1 X132.639 Y54.874 E.02092
G1 X133.284 Y54.667 E.02126
G1 X133.926 Y54.594 E.02026
G1 X134.634 Y54.65 E.02226
G1 X135.274 Y54.838 E.02092
G1 X135.858 Y55.141 E.02062
G1 X136.372 Y55.551 E.02061
G1 X136.801 Y56.056 E.02077
G1 X137.127 Y56.641 E.02101
G1 X137.333 Y57.285 E.02119
G1 X137.409 Y57.977 E.02185
G1 X137.349 Y58.636 E.02074
G1 X137.164 Y59.27 E.0207
G1 X136.86 Y59.856 E.02069
G1 X136.445 Y60.375 E.02085
G1 X135.944 Y60.801 E.02062
G1 X135.361 Y61.126 E.02092
G1 X134.716 Y61.333 E.02126
G1 X134.02 Y61.409 E.02194
G1 X133.364 Y61.349 E.02065
G1 X132.73 Y61.164 E.0207
G1 X132.14 Y60.857 E.02085
G1 X131.624 Y60.445 E.0207
G1 X131.199 Y59.944 E.02062
G1 X130.873 Y59.359 E.021
G1 X130.667 Y58.715 E.02118
G1 X130.591 Y58.023 E.02185
G1 X130.651 Y57.364 E.02074
G1 X130.838 Y56.726 E.02086
G1 X131.141 Y56.142 E.02062
G1 X131.555 Y55.624 E.02077
G1 X131.793 Y55.422 E.0098
M204 S1000
G1 X131.776 Y55.105 F10800
;WIPE_START
G1 F8640
G1 X132.056 Y55.199 E-.07968
G1 X132.639 Y54.874 E-.15408
G1 X133.284 Y54.667 E-.15658
G1 X133.926 Y54.594 E-.14919
G1 X134.634 Y54.65 E-.1639
G1 X134.869 Y54.719 E-.05658
;WIPE_END
G1 E-.04 F2100
G1 Z.6 F720
G1 X100.221 Y57.999 F10800
G1 Z.2 F720
G1 E.8 F2100
M204 S800
;TYPE:Perimeter
G1 F1200
G1 X100.275 Y57.328 E.02113
G1 X100.475 Y56.622 E.02299
G1 X100.808 Y55.967 E.02306
G1 X101.257 Y55.391 E.02289
G1 X101.811 Y54.912 E.02297
G1 X102.457 Y54.544 E.0233
G1 X103.168 Y54.308 E.02351
G1 X103.886 Y54.219 E.02267
G1 X104.666 Y54.275 E.02453
G1 X105.378 Y54.475 E.02318
G1 X106.036 Y54.809 E.02314
G1 X106.612 Y55.261 E.02299
G1 X107.09 Y55.814 E.02289
G1 X107.457 Y56.459 E.02329
G1 X107.693 Y57.171 E.02351
G1 X107.784 Y57.938 E.02422
G1 X107.725 Y58.672 E.02308
G1 X107.524 Y59.38 E.02307
G1 X107.191 Y60.036 E.02306
G1 X106.74 Y60.611 E.0229
G1 X106.189 Y61.088 E.02288
G1 X105.543 Y61.456 E.0233
G1 X104.832 Y61.692 E.02351
G1 X104.059 Y61.784 E.0244
G1 X103.328 Y61.725 E.023
G1 X102.62 Y61.524 E.02306
G1 X101.969 Y61.194 E.02289
G1 X101.392 Y60.743 E.02297
G1 X100.911 Y60.187 E.02306
G1 X100.543 Y59.541 E.0233
G1 X100.307 Y58.829 E.02351
G1 X100.216 Y58.059 E.0243
M204 S1000
G1 X100.6 Y57.917 F10800
M204 S800
;TYPE:External perimeter
G1 F1200
G1 X100.651 Y57.364 E.01742
G1 X100.836 Y56.73 E.0207
G1 X101.141 Y56.142 E.02077
G1 X101.551 Y55.628 E.02062
G1 X102.054 Y55.201 E.02069
G1 X102.639 Y54.874 E.021
G1 X103.282 Y54.667 E.02118
G1 X103.926 Y54.594 E.02034
G1 X104.634 Y54.65 E.02226
G1 X105.27 Y54.836 E.02077
G1 X105.86 Y55.143 E.02085
G1 X106.376 Y55.555 E.0207
G1 X106.801 Y56.056 E.02062
G1 X107.127 Y56.641 E.021
G1 X107.333 Y57.285 E.02118
G1 X107.409 Y57.977 E.02185
G1 X107.349 Y58.636 E.02074
G1 X107.163 Y59.272 E.02078
G1 X106.857 Y59.86 E.02077
G1 X106.447 Y60.374 E.02062
G1 X105.946 Y60.799 E.02061
G1 X105.361 Y61.126 E.021
M73 P1 R141
G1 X104.718 Y61.333 E.02118
G1 X104.02 Y61.409 E.02202
G1 X103.364 Y61.349 E.02065
G1 X102.728 Y61.163 E.02078
G1 X102.144 Y60.86 E.02062
G1 X101.628 Y60.449 E.02069
G1 X101.199 Y59.944 E.02077
G1 X100.873 Y59.359 E.02101
G1 X100.667 Y58.715 E.02119
G1 X100.595 Y57.977 E.02326
M204 S1000
G1 X100.254 Y57.718 F10800
;WIPE_START
G1 F8640
G1 X100.651 Y57.364 E-.14214
G1 X100.836 Y56.73 E-.15247
G1 X101.141 Y56.142 E-.15296
G1 X101.551 Y55.628 E-.15182
G1 X102.054 Y55.201 E-.15237
G1 X102.085 Y55.183 E-.00823
;WIPE_END
G1 E-.04 F2100
G1 Z.6 F720
G1 X107.779 Y78.001 F10800
G1 Z.2 F720
G1 E.8 F2100
M204 S800
;TYPE:Perimeter
G1 F1200
G1 X107.725 Y78.672 E.02113
G1 X107.525 Y79.378 E.02299
G1 X107.194 Y80.031 E.02297
G1 X106.743 Y80.608 E.02297
G1 X106.189 Y81.088 E.02297
G1 X105.543 Y81.456 E.0233
G1 X104.829 Y81.693 E.02359
G1 X104.059 Y81.784 E.02432
G1 X103.328 Y81.725 E.023
G1 X102.622 Y81.525 E.02298
G1 X101.969 Y81.194 E.02297
G1 X101.392 Y80.743 E.02297
G1 X100.912 Y80.189 E.02297
G1 X100.544 Y79.543 E.0233
G1 X100.308 Y78.832 E.02351
G1 X100.216 Y78.062 E.02431
G1 X100.28 Y77.291 E.02424
G1 X100.475 Y76.622 E.02184
G1 X100.806 Y75.969 E.02297
G1 X101.257 Y75.392 E.02297
G1 X101.811 Y74.912 E.02297
G1 X102.459 Y74.543 E.02338
G1 X103.171 Y74.307 E.02352
G1 X103.886 Y74.219 E.02258
G1 X104.666 Y74.275 E.02452
G1 X105.378 Y74.475 E.02318
G1 X106.031 Y74.806 E.02297
G1 X106.608 Y75.257 E.02297
G1 X107.088 Y75.811 E.02297
G1 X107.456 Y76.457 E.0233
G1 X107.692 Y77.168 E.0235
G1 X107.784 Y77.941 E.02439
M204 S1000
G1 X107.401 Y78.072 F10800
M204 S800
;TYPE:External perimeter
G1 F1200
G1 X107.349 Y78.636 E.01777
G1 X107.164 Y79.27 E.0207
G1 X106.86 Y79.856 E.02069
G1 X106.449 Y80.372 E.02069
G1 X105.946 Y80.799 E.02069
M73 Q1 S147
G1 X105.361 Y81.126 E.021
G1 X104.716 Y81.333 E.02126
G1 X104.02 Y81.409 E.02194
G1 X103.364 Y81.349 E.02065
G1 X102.73 Y81.164 E.0207
G1 X102.144 Y80.86 E.02069
G1 X101.628 Y80.449 E.02069
G1 X101.201 Y79.946 E.02069
G1 X100.874 Y79.361 E.021
