; generated by PrusaSlicer 2.5.0+win64 on 2022-10-03 at 18:47:37 UTC


;
;
; 

; external perimeters extrusion width = 0.45mm
; perimeters extrusion width = 0.45mm
; infill extrusion width = 0.45mm
; solid infill extrusion width = 0.45mm
; top infill extrusion width = 0.40mm
; first layer extrusion width = 0.42mm

M73 P0 R142
M73 Q0 S148
M201 X1000 Y1000 Z200 E5000 ; sets maximum accelerations, mm/sec^2
M203 X200 Y200 Z12 E120 ; sets maximum feedrates, mm / sec
M204 P1250 R1250 T1250 ; sets acceleration (P, T) and retract acceleration (R), mm/sec^2
M205 X8.00 Y8.00 Z0.40 E4.50 ; sets the jerk limits, mm/sec
M205 S0 T0 ; sets the minimum extruding and travel feed rate, mm/sec
M107
;TYPE:Custom
M862.3 P "MK3S" ; printer model check
M862.1 P0.4 ; nozzle diameter check
M115 U3.11.0 ; tell printer latest fw version
G90 ; use absolute coordinates
M83 ; extruder relative mode
M104 S215 ; set extruder temp
M140 S60 ; set bed temp
M190 S60 ; wait for bed temp
M109 S215 ; wait for extruder temp
G28 W ; home all without mesh bed level
G80 ; mesh bed leveling

G1 Z0.2 F720
G1 Y-3 F1000 ; go outside print area
G92 E0
G1 X60 E9 F1000 ; intro line
G1 X100 E12.5 F1000 ; intro line

G92 E0
M221 S95

; Don't change E values below. Excessive value can damage the printer.

M907 E538 ; set extruder motor current
G21 ; set units to millimeters
G90 ; use absolute coordinates
M83 ; use relative distances for extrusion
M900 K0.05 ; Filament gcode LA 1.5
M900 K30 ; Filament gcode LA 1.0
M107
;LAYER_CHANGE
;Z:0.2
;HEIGHT:0.2
;BEFORE_LAYER_CHANGE
G92 E0.0
;0.2


G1 E-.8 F2100
G1 Z.4 F720
;AFTER_LAYER_CHANGE
;0.2
G1 X73.015 Y40.693 F10800
G1 Z.2 F720
G1 E.8 F2100
M204 S800
;TYPE:Skirt/Brim
;WIDTH:0.42
G1 F1200
G1 X74.06 Y39.817 E.04278
G1 X75 Y39.623 E.03008
G1 X175 Y39.623 E3.13543
G1 X176.307 Y40.015 E.04278
G1 X177.183 Y41.06 E.04278
G1 X177.377 Y42 E.03008
G1 X177.377 Y88 E1.4423
G1 X176.902 Y89.426 E.04714
G1 X116.902 Y169.426 E3.13543
G1 X115.804 Y170.237 E.04278
M73 Q0 S147
G1 X115 Y170.377 E.02559
G1 X75 Y170.377 E1.25417
G1 X73.693 Y169.985 E.04278
G1 X72.817 Y168.94 E.04278
G1 X72.623 Y168 E.03008
G1 X72.623 Y42 E3.95064
G1 X72.997 Y40.75 E.0409
M204 S1000
; printing object bok_gora_X4.stl id:0 copy 0
;WIPE_START
G1 F8640
G1 X74.06 Y39.817 E-.32671
G1 X75 Y39.623 E-.22155
G1 X75.917 Y39.623 E-.21174
;WIPE_END
G1 E-.04 F2100
G1 Z.6 F720
G1 X75.787 Y167.213 F10800
G1 Z.2 F720
G1 E.8 F2100
M204 S800
;TYPE:Perimeter
;WIDTH:0.419999
G1 F1200
G1 X75.787 Y42.787 E3.90128
G1 X174.213 Y42.787 E3.08607
G1 X174.213 Y87.738 E1.40939
M73 P0 R141
G1 X114.606 Y167.213 E3.11486
G1 X75.847 Y167.213 E1.21527
M204 S1000
G1 X75.41 Y167.59 F10800
M204 S800
;TYPE:External perimeter
G1 F1200
G1 X75.41 Y42.41 E3.92492
G1 X174.59 Y42.41 E3.10971
G1 X174.59 Y87.863 E1.42516
G1 X114.795 Y167.59 E3.12471
G1 X75.47 Y167.59 E1.23301
M204 S1000
G1 X75.527 Y167.208 F10800
;WIPE_START
G1 F8640
G1 X75.468 Y164.299 E-.76
;WIPE_END
G1 E-.04 F2100
G1 Z.6 F720
G1 X167.785 Y57.957 F10800
G1 Z.2 F720
G1 E.8 F2100
M204 S800
;TYPE:Perimeter
G1 F1200
G1 X167.725 Y58.672 E.0225
G1 X167.523 Y59.383 E.02315
G1 X167.191 Y60.036 E.02299
G1 X166.741 Y60.611 E.02289
G1 X166.189 Y61.088 E.02288
G1 X165.543 Y61.456 E.0233
G1 X164.832 Y61.692 E.02351
G1 X164.059 Y61.784 E.0244
G1 X163.328 Y61.725 E.023
G1 X162.617 Y61.523 E.02314
G1 X161.966 Y61.192 E.02291
G1 X161.392 Y60.743 E.02288
G1 X160.912 Y60.189 E.02297
G1 X160.544 Y59.543 E.0233
G1 X160.308 Y58.832 E.02351
G1 X160.216 Y58.062 E.02431
G1 X160.275 Y57.328 E.02309
G1 X160.475 Y56.622 E.02299
G1 X160.806 Y55.969 E.02297
G1 X161.257 Y55.392 E.02297
G1 X161.811 Y54.912 E.02297
G1 X162.457 Y54.544 E.0233
G1 X163.168 Y54.308 E.02351
G1 X163.886 Y54.219 E.02267
G1 X164.666 Y54.275 E.02453
G1 X165.383 Y54.477 E.02334
G1 X166.034 Y54.808 E.02291
G1 X166.608 Y55.257 E.02288
G1 X167.089 Y55.813 E.02305
G1 X167.456 Y56.457 E.02322
G1 X167.692 Y57.168 E.0235
G1 X167.779 Y57.897 E.02302
M204 S1000
G1 X167.403 Y58.068 F10800
M204 S800
;TYPE:External perimeter
G1 F1200
G1 X167.349 Y58.636 E.0179
G1 X167.162 Y59.274 E.02086
G1 X166.857 Y59.86 E.0207
G1 X166.447 Y60.374 E.02062
G1 X165.946 Y60.799 E.02061
G1 X165.361 Y61.126 E.021
G1 X164.718 Y61.333 E.02118
G1 X164.02 Y61.409 E.02202
G1 X163.364 Y61.349 E.02065
G1 X162.726 Y61.162 E.02086
G1 X162.142 Y60.859 E.02062
G1 X161.628 Y60.449 E.02061
G1 X161.201 Y59.946 E.02069
G1 X160.874 Y59.361 E.021
G1 X160.667 Y58.718 E.02118
G1 X160.591 Y58.023 E.02193
G1 X160.651 Y57.364 E.02074
G1 X160.836 Y56.73 E.0207
G1 X161.14 Y56.144 E.02069
G1 X161.551 Y55.628 E.02069
G1 X162.054 Y55.201 E.02069
G1 X162.639 Y54.874 E.021
G1 X163.282 Y54.667 E.02118
G1 X163.926 Y54.594 E.02034
G1 X164.634 Y54.65 E.02226
G1 X165.274 Y54.838 E.02092
G1 X165.858 Y55.141 E.02062
G1 X166.372 Y55.551 E.02061
G1 X166.801 Y56.056 E.02077
G1 X167.126 Y56.639 E.02093
G1 X167.333 Y57.282 E.02118
G1 X167.409 Y58.008 E.02289
M204 S1000
G1 X167.75 Y58.267 F10800
;WIPE_START
G1 F8640
G1 X167.349 Y58.636 E-.1457
G1 X167.162 Y59.274 E-.15361
G1 X166.857 Y59.86 E-.15242
G1 X166.447 Y60.374 E-.15182
G1 X165.946 Y60.799 E-.15178
G1 X165.928 Y60.809 E-.00467
;WIPE_END
G1 E-.04 F2100
G1 Z.6 F720
G1 X167.12 Y75.867 F10800
G1 Z.2 F720
G1 E.8 F2100
M204 S800
;TYPE:Perimeter
G1 F1200
G1 X167.456 Y76.457 E.02129
G1 X167.692 Y77.168 E.0235
G1 X167.787 Y77.997 E.02615
G1 X167.725 Y78.672 E.02127
G1 X167.525 Y79.378 E.02298
G1 X167.194 Y80.031 E.02297
G1 X166.741 Y80.61 E.02306
G1 X166.189 Y81.088 E.02289
G1 X165.543 Y81.456 E.0233
G1 X164.832 Y81.692 E.02351
G1 X164.059 Y81.784 E.0244
G1 X163.328 Y81.725 E.023
G1 X162.617 Y81.523 E.02314
G1 X161.966 Y81.192 E.02291
G1 X161.391 Y80.743 E.02288
G1 X160.85 Y80.098 E.02641
G1 X160.544 Y79.543 E.01985
G1 X160.308 Y78.832 E.02351
G1 X160.216 Y78.062 E.02431
G1 X160.275 Y77.328 E.02309
G1 X160.475 Y76.622 E.02298
G1 X160.806 Y75.969 E.02297
G1 X161.257 Y75.392 E.02297
G1 X161.813 Y74.911 E.02306
G1 X162.459 Y74.543 E.0233
G1 X163.171 Y74.307 E.02351
G1 X163.886 Y74.219 E.02258
G1 X164.666 Y74.275 E.02452
G1 X165.383 Y74.477 E.02334
G1 X166.034 Y74.808 E.02291
G1 X166.608 Y75.257 E.02288
G1 X167.09 Y75.815 E.0231
M204 S1000
G1 X166.941 Y76.307 F10800
M204 S800
;TYPE:External perimeter
G1 F1200
G1 X167.126 Y76.639 E.01191
G1 X167.333 Y77.282 E.02118
G1 X167.41 Y77.997 E.02255
G1 X167.349 Y78.636 E.02013
G1 X167.164 Y79.27 E.0207
G1 X166.86 Y79.856 E.02069
G1 X166.447 Y80.374 E.02077
G1 X165.946 Y80.799 E.02061
G1 X165.361 Y81.126 E.021
G1 X164.718 Y81.333 E.02118
G1 X164.02 Y81.409 E.02202
G1 X163.364 Y81.349 E.02065
G1 X162.726 Y81.162 E.02086
G1 X162.142 Y80.859 E.02062
G1 X161.628 Y80.449 E.02061
G1 X161.201 Y79.946 E.02069
G1 X160.874 Y79.361 E.021
G1 X160.667 Y78.718 E.02118
G1 X160.591 Y78.023 E.02193
G1 X160.651 Y77.364 E.02074
G1 X160.836 Y76.73 E.0207
G1 X161.14 Y76.144 E.02069
G1 X161.551 Y75.628 E.02069
G1 X162.056 Y75.199 E.02077
G1 X162.641 Y74.873 E.02101
G1 X163.285 Y74.667 E.02118
G1 X163.926 Y74.594 E.02026
G1 X164.634 Y74.65 E.02226
G1 X165.274 Y74.838 E.02092
G1 X165.858 Y75.141 E.02062
G1 X166.372 Y75.551 E.02061
G1 X166.801 Y76.056 E.02077
G1 X166.912 Y76.255 E.00714
M204 S1000
G1 X167.32 Y76.296 F10800
;WIPE_START
G1 F8640
G1 X167.126 Y76.639 E-.10155
G1 X167.333 Y77.282 E-.15598
G1 X167.41 Y77.997 E-.16604
G1 X167.349 Y78.636 E-.14826
G1 X167.164 Y79.27 E-.15247
G1 X167.093 Y79.407 E-.0357
;WIPE_END
G1 E-.04 F2100
G1 Z.6 F720
G1 X131.967 Y81.182 F10800
G1 Z.2 F720
G1 E.8 F2100
M204 S800
;TYPE:Perimeter
G1 F1200
G1 X131.392 Y80.743 E.02269
G1 X130.912 Y80.189 E.02297
G1 X130.543 Y79.541 E.02338
G1 X130.307 Y78.829 E.02352
G1 X130.216 Y78.062 E.02422
G1 X130.275 Y77.328 E.02308
G1 X130.475 Y76.622 E.02298
G1 X130.808 Y75.967 E.02306
M73 Q0 S146
G1 X131.257 Y75.391 E.02289
G1 X131.811 Y74.912 E.02297
G1 X132.459 Y74.543 E.02338
G1 X133.171 Y74.307 E.02352
G1 X133.886 Y74.219 E.02258
G1 X134.666 Y74.275 E.02452
G1 X135.378 Y74.475 E.02318
G1 X136.031 Y74.806 E.02297
G1 X136.608 Y75.257 E.02297
G1 X137.089 Y75.813 E.02306
G1 X137.457 Y76.459 E.02331
G1 X137.693 Y77.171 E.02351
G1 X137.784 Y77.938 E.02422
G1 X137.725 Y78.672 E.02308
G1 X137.525 Y79.378 E.02298
G1 X137.194 Y80.031 E.02297
G1 X136.662 Y80.691 E.02656
G1 X136.186 Y81.09 E.01948
G1 X135.541 Y81.457 E.02329
G1 X134.829 Y81.693 E.02351
G1 X134.059 Y81.784 E.02431
G1 X133.22 Y81.704 E.02642
G1 X132.62 Y81.524 E.01964
G1 X132.015 Y81.218 E.02127
M204 S1000
G1 X132.258 Y80.918 F10800
M204 S800
;TYPE:External perimeter
G1 F1200
G1 X132.187 Y80.882 E.00251
G1 X131.628 Y80.449 E.02216
G1 X131.201 Y79.946 E.02069
G1 X130.873 Y79.359 E.02108
G1 X130.667 Y78.715 E.02119
G1 X130.591 Y78.023 E.02185
G1 X130.651 Y77.364 E.02074
G1 X130.836 Y76.73 E.0207
G1 X131.141 Y76.142 E.02077
G1 X131.551 Y75.628 E.02062
G1 X132.054 Y75.201 E.02069
G1 X132.641 Y74.873 E.02108
G1 X133.285 Y74.667 E.02119
G1 X133.926 Y74.594 E.02026
G1 X134.634 Y74.65 E.02226
G1 X135.27 Y74.836 E.02077
G1 X135.856 Y75.14 E.02069
G1 X136.372 Y75.551 E.02069
G1 X136.801 Y76.056 E.02077
G1 X137.127 Y76.641 E.02101
G1 X137.333 Y77.285 E.02118
G1 X137.409 Y77.977 E.02185
G1 X137.349 Y78.636 E.02074
G1 X137.164 Y79.27 E.0207
G1 X136.86 Y79.856 E.02069
G1 X136.445 Y80.375 E.02085
G1 X135.944 Y80.801 E.02062
G1 X135.359 Y81.127 E.021
G1 X134.715 Y81.333 E.02118
G1 X134.02 Y81.409 E.02194
G1 X133.364 Y81.349 E.02065
G1 X132.805 Y81.186 E.01825
G1 X132.312 Y80.944 E.01721
M204 S1000
G1 X132.193 Y80.964 F10800
;WIPE_START
G1 F8640
G1 X132.187 Y80.882 E-.03235
G1 X131.628 Y80.449 E-.16321
G1 X131.201 Y79.946 E-.15239
G1 X130.873 Y79.359 E-.15526
G1 X130.667 Y78.715 E-.15602
G1 X130.619 Y78.282 E-.10078
;WIPE_END
G1 E-.04 F2100
G1 Z.6 F720
G1 X130.22 Y58.006 F10800
G1 Z.2 F720
G1 E.8 F2100
M204 S800
;TYPE:Perimeter
G1 F1200
G1 X130.275 Y57.328 E.02135
G1 X130.476 Y56.62 E.02307
G1 X130.806 Y55.969 E.02289
G1 X131.257 Y55.392 E.02297
G1 X131.813 Y54.911 E.02306
G1 X132.457 Y54.544 E.02322
G1 X133.171 Y54.307 E.02359
G1 X133.886 Y54.219 E.02259
G1 X134.666 Y54.275 E.02452
G1 X135.38 Y54.476 E.02326
G1 X136.031 Y54.806 E.02289
G1 X136.608 Y55.257 E.02297
G1 X137.089 Y55.813 E.02306
G1 X137.456 Y56.457 E.02322
G1 X137.693 Y57.171 E.02359
G1 X137.784 Y57.938 E.02423
G1 X137.725 Y58.672 E.02308
G1 X137.525 Y59.378 E.02298
G1 X137.194 Y60.031 E.02297
G1 X136.743 Y60.608 E.02297
G1 X136.187 Y61.089 E.02306
G1 X135.541 Y61.457 E.02331
G1 X134.829 Y61.693 E.02351
G1 X134.059 Y61.784 E.02431
G1 X133.328 Y61.725 E.023
G1 X132.622 Y61.525 E.02298
G1 X131.969 Y61.194 E.02297
G1 X131.392 Y60.743 E.02297
G1 X130.911 Y60.187 E.02306
G1 X130.564 Y59.579 E.02192
G1 X130.34 Y58.932 E.02147
G1 X130.241 Y58.3 E.02008
G1 X130.224 Y58.066 E.00734
M204 S1000
G1 X130.593 Y58.009 F10800
M204 S800
;TYPE:External perimeter
G1 F1200
G1 X130.651 Y57.364 E.02031
G1 X130.837 Y56.728 E.02078
G1 X131.14 Y56.144 E.02062
G1 X131.551 Y55.628 E.02069
G1 X132.056 Y55.199 E.02077
G1 X132.639 Y54.874 E.02093
G1 X133.284 Y54.667 E.02126
G1 X133.926 Y54.594 E.02026
G1 X134.634 Y54.65 E.02226
G1 X135.272 Y54.837 E.02085
G1 X135.856 Y55.14 E.02062
G1 X136.372 Y55.551 E.02069
G1 X136.801 Y56.056 E.02077
G1 X137.126 Y56.639 E.02093
G1 X137.333 Y57.284 E.02126
G1 X137.409 Y57.977 E.02186
G1 X137.349 Y58.636 E.02074
G1 X137.164 Y59.27 E.0207
G1 X136.86 Y59.856 E.02069
G1 X136.449 Y60.372 E.02069
G1 X135.944 Y60.801 E.02077
G1 X135.359 Y61.127 E.02101
G1 X134.715 Y61.333 E.02118
G1 X134.02 Y61.409 E.02194
G1 X133.364 Y61.349 E.02065
G1 X132.73 Y61.164 E.0207
G1 X132.144 Y60.86 E.02069
G1 X131.628 Y60.449 E.02069
G1 X131.199 Y59.944 E.02077
G1 X130.894 Y59.397 E.01962
G1 X130.699 Y58.819 E.01914
G1 X130.598 Y58.069 E.02374
M204 S1000
G1 X130.244 Y57.813 F10800
;WIPE_START
G1 F8640
G1 X130.651 Y57.364 E-.1632
G1 X130.837 Y56.728 E-.15304
G1 X131.14 Y56.144 E-.15182
G1 X131.551 Y55.628 E-.15238
G1 X132.012 Y55.237 E-.13955
;WIPE_END
G1 E-.04 F2100
G1 Z.6 F720
G1 X108.777 Y66.973 F10800
G1 Z.2 F720
G1 E.8 F2100
M204 S800
;TYPE:Perimeter
G1 F1200
G1 X108.716 Y67.717 E.02342
G1 X108.5 Y68.44 E.02367
G1 X108.15 Y69.098 E.02335
G1 X107.688 Y69.664 E.02292
G1 X107.123 Y70.134 E.02304
G1 X106.485 Y70.481 E.02278
G1 X105.78 Y70.704 E.02317
G1 X105.051 Y70.785 E.02299
G1 X104.28 Y70.716 E.02427
G1 X103.559 Y70.5 E.02359
G1 X102.904 Y70.152 E.02326
G1 X102.338 Y69.691 E.02291
G1 X101.869 Y69.127 E.02297
G1 X101.477 Y68.383 E.0264
G1 X101.296 Y67.78 E.01972
G1 X101.22 Y67.104 E.02133
G1 X101.275 Y66.375 E.02294
G1 X101.449 Y65.721 E.02123
G1 X101.544 Y65.457 E.00878
G1 X101.848 Y64.904 E.01978
G1 X102.313 Y64.334 E.02307
G1 X102.877 Y63.866 E.02298
G1 X103.519 Y63.517 E.02289
G1 X104.22 Y63.296 E.02306
G1 X104.919 Y63.216 E.02205
G1 X105.717 Y63.284 E.02512
G1 X106.441 Y63.5 E.02368
G1 X107.096 Y63.848 E.02326
G1 X107.666 Y64.313 E.02307
G1 X108.134 Y64.877 E.02298
G1 X108.525 Y65.622 E.02639
G1 X108.704 Y66.22 E.01956
G1 X108.781 Y66.913 E.02185
M204 S1000
G1 X108.388 Y67.156 F10800
M204 S800
;TYPE:External perimeter
G1 F1200
G1 X108.335 Y67.71 E.01746
G1 X108.14 Y68.327 E.02028
G1 X107.82 Y68.916 E.02102
G1 X107.4 Y69.422 E.02062
G1 X106.886 Y69.84 E.02077
G1 X106.309 Y70.147 E.0205
G1 X105.672 Y70.342 E.0209
G1 X105.015 Y70.409 E.02071
G1 X104.319 Y70.341 E.02192
G1 X103.673 Y70.14 E.02121
G1 X103.086 Y69.821 E.02094
G1 X102.58 Y69.402 E.02062
G1 X102.163 Y68.89 E.02069
G1 X101.852 Y68.308 E.02069
G1 X101.651 Y67.636 E.022
G1 X101.591 Y67.013 E.01962
G1 X101.65 Y66.414 E.01889
G1 X101.874 Y65.639 E.0253
G1 X102.179 Y65.086 E.01978
G1 X102.602 Y64.577 E.02078
G1 X103.114 Y64.16 E.0207
G1 X103.694 Y63.851 E.02061
G1 X104.328 Y63.658 E.02078
G1 X104.956 Y63.591 E.01981
G1 X105.68 Y63.659 E.02279
G1 X106.327 Y63.86 E.02124
G1 X106.914 Y64.179 E.02094
G1 X107.423 Y64.602 E.02078
G1 X107.84 Y65.114 E.02069
G1 X108.15 Y65.696 E.02069
G1 X108.316 Y66.238 E.01776
G1 X108.406 Y66.95 E.02252
G1 X108.393 Y67.096 E.00458
M204 S1000
G1 X108.726 Y67.368 F10800
;WIPE_START
G1 F8640
G1 X108.335 Y67.71 E-.14243
G1 X108.14 Y68.327 E-.14935
G1 X107.82 Y68.916 E-.15478
G1 X107.4 Y69.422 E-.15189
G1 X106.886 Y69.84 E-.15293
G1 X106.853 Y69.858 E-.00863
;WIPE_END
M73 P1 R141
G1 E-.04 F2100
G1 Z.6 F720
G1 X88.111 Y69.146 F10800
G1 Z.2 F720
G1 E.8 F2100
M204 S800
;TYPE:Perimeter
G1 F1200
G1 X87.687 Y69.666 E.02107
G1 X87.125 Y70.132 E.02289
G1 X86.479 Y70.484 E.02304
G1 X85.78 Y70.704 E.02299
G1 X85.051 Y70.785 E.02299
G1 X84.283 Y70.716 E.02419
G1 X83.562 Y70.501 E.02358
G1 X82.905 Y70.152 E.02335
G1 X82.338 Y69.691 E.02291
G1 X81.869 Y69.127 E.02297
G1 X81.516 Y68.479 E.02314
G1 X81.296 Y67.78 E.023
G1 X81.215 Y67.051 E.02299
G1 X81.284 Y66.28 E.02427
G1 X81.5 Y65.559 E.02359
G1 X81.91 Y64.814 E.02668
G1 X82.309 Y64.338 E.01948
G1 X82.875 Y63.868 E.02305
G1 X83.516 Y63.518 E.02289
G1 X84.22 Y63.296 E.02314
G1 X84.919 Y63.216 E.02206
G1 X85.717 Y63.284 E.02512
G1 X86.441 Y63.5 E.02368
G1 X87.096 Y63.848 E.02326
G1 X87.662 Y64.309 E.02291
G1 X88.131 Y64.873 E.02297
G1 X88.524 Y65.62 E.02648
G1 X88.704 Y66.22 E.01964
G1 X88.779 Y66.892 E.02119
G1 X88.725 Y67.626 E.0231
G1 X88.55 Y68.284 E.02133
G1 X88.456 Y68.543 E.00865
G1 X88.149 Y69.099 E.01991
M204 S1000
G1 X87.652 Y69.118 F10800
M204 S800
;TYPE:External perimeter
G1 F1200
G1 X87.398 Y69.423 E.01245
G1 X86.888 Y69.839 E.02061
G1 X86.304 Y70.15 E.02077
G1 X85.672 Y70.342 E.02071
G1 X85.015 Y70.409 E.02071
G1 X84.322 Y70.341 E.02184
G1 X83.675 Y70.141 E.02121
G1 X83.086 Y69.821 E.02102
G1 X82.58 Y69.402 E.02062
G1 X82.163 Y68.89 E.02069
G1 X81.85 Y68.304 E.02085
G1 X81.658 Y67.672 E.02071
G1 X81.591 Y67.015 E.0207
G1 X81.659 Y66.319 E.02192
G1 X81.86 Y65.673 E.02121
G1 X82.199 Y65.056 E.02208
G1 X82.598 Y64.58 E.01948
G1 X83.112 Y64.161 E.02077
G1 X83.692 Y63.852 E.02062
G1 X84.328 Y63.658 E.02086
G1 X84.956 Y63.591 E.01981
G1 X85.68 Y63.659 E.02279
G1 X86.327 Y63.86 E.02124
M73 Q1 S146
G1 X86.914 Y64.179 E.02094
G1 X87.42 Y64.598 E.02062
G1 X87.837 Y65.11 E.02069
G1 X88.149 Y65.694 E.02077
G1 X88.349 Y66.364 E.02192
G1 X88.409 Y66.984 E.01953
G1 X88.35 Y67.587 E.01901
G1 X88.126 Y68.361 E.02526
