; generated by PrusaSlicer 2.5.0+win64 on 2022-10-03 at 18:57:22 UTC


;
;
; 

; external perimeters extrusion width = 0.45mm
; perimeters extrusion width = 0.45mm
; infill extrusion width = 0.45mm
; solid infill extrusion width = 0.45mm
; top infill extrusion width = 0.40mm
; first layer extrusion width = 0.42mm

M73 P0 R183
M73 Q0 S191
M201 X1000 Y1000 Z200 E5000 ; sets maximum accelerations, mm/sec^2
M203 X200 Y200 Z12 E120 ; sets maximum feedrates, mm / sec
M204 P1250 R1250 T1250 ; sets acceleration (P, T) and retract acceleration (R), mm/sec^2
M205 X8.00 Y8.00 Z0.40 E4.50 ; sets the jerk limits, mm/sec
M205 S0 T0 ; sets the minimum extruding and travel feed rate, mm/sec
M107
;TYPE:Custom
M862.3 P "MK3S" ; printer model check
M862.1 P0.4 ; nozzle diameter check
M115 U3.11.0 ; tell printer latest fw version
G90 ; use absolute coordinates
M83 ; extruder relative mode
M104 S215 ; set extruder temp
M140 S60 ; set bed temp
M190 S60 ; wait for bed temp
M109 S215 ; wait for extruder temp
G28 W ; home all without mesh bed level
G80 ; mesh bed leveling

G1 Z0.2 F720
G1 Y-3 F1000 ; go outside print area
G92 E0
G1 X60 E9 F1000 ; intro line
G1 X100 E12.5 F1000 ; intro line

G92 E0
M221 S95

; Don't change E values below. Excessive value can damage the printer.

M907 E538 ; set extruder motor current
G21 ; set units to millimeters
G90 ; use absolute coordinates
M83 ; use relative distances for extrusion
M900 K0.05 ; Filament gcode LA 1.5
M900 K30 ; Filament gcode LA 1.0
M107
;LAYER_CHANGE
;Z:0.2
;HEIGHT:0.2
;BEFORE_LAYER_CHANGE
G92 E0.0
;0.2


M73 P0 R182
G1 E-.8 F2100
G1 Z.4 F720
;AFTER_LAYER_CHANGE
;0.2
G1 X70.015 Y40.693 F10800
G1 Z.2 F720
G1 E.8 F2100
M204 S800
;TYPE:Skirt/Brim
;WIDTH:0.42
G1 F1200
G1 X71.06 Y39.817 E.04278
G1 X72 Y39.623 E.03008
G1 X98 Y39.623 E.81521
G1 X99.307 Y40.015 E.04278
G1 X99.856 Y40.515 E.0233
G1 X179.856 Y140.515 E4.01531
G1 X180.377 Y142 E.04934
G1 X180.377 Y168 E.81521
G1 X179.985 Y169.307 E.04278
G1 X178.94 Y170.183 E.04278
G1 X178 Y170.377 E.03008
G1 X72 Y170.377 E3.32356
G1 X70.693 Y169.985 E.04278
G1 X69.817 Y168.94 E.04278
G1 X69.623 Y168 E.03008
G1 X69.623 Y42 E3.95064
G1 X69.997 Y40.75 E.0409
M204 S1000
; printing object dol_lewy_przod_x1.stl id:0 copy 0
;WIPE_START
G1 F8640
G1 X71.06 Y39.817 E-.32671
G1 X72 Y39.623 E-.22155
G1 X72.917 Y39.623 E-.21174
;WIPE_END
G1 E-.04 F2100
G1 Z.6 F720
G1 X177.213 Y167.213 F10800
G1 Z.2 F720
G1 E.8 F2100
M204 S800
;TYPE:Perimeter
;WIDTH:0.419999
G1 F1200
G1 X72.787 Y167.213 E3.27419
G1 X72.787 Y42.787 E3.90128
M73 Q0 S190
G1 X97.622 Y42.787 E.77867
G1 X177.213 Y142.276 E3.99478
G1 X177.213 Y167.153 E.77999
M204 S1000
G1 X177.59 Y167.59 F10800
M204 S800
;TYPE:External perimeter
G1 F1200
G1 X72.41 Y167.59 E3.29784
G1 X72.41 Y42.41 E3.92492
G1 X97.803 Y42.41 E.79618
G1 X177.59 Y142.144 E4.00461
M73 P0 R181
G1 X177.59 Y167.53 E.79596
M204 S1000
G1 X177.212 Y167.459 F10800
;WIPE_START
G1 F8640
G1 X174.299 Y167.532 E-.76
;WIPE_END
G1 E-.04 F2100
G1 Z.6 F720
G1 X166.28 Y148.29 F10800
G1 Z.2 F720
G1 E.8 F2100
M204 S800
;TYPE:Perimeter
G1 F1200
G1 X166.921 Y148.216 E.02023
G1 X167.717 Y148.284 E.02506
G1 X168.441 Y148.5 E.02367
G1 X169.098 Y148.85 E.02334
G1 X169.664 Y149.312 E.02292
G1 X170.131 Y149.873 E.02288
G1 X170.482 Y150.516 E.02297
G1 X170.704 Y151.22 E.02315
G1 X170.785 Y151.949 E.023
G1 X170.716 Y152.72 E.02427
G1 X170.5 Y153.441 E.02359
G1 X170.152 Y154.096 E.02325
G1 X169.687 Y154.666 E.02307
G1 X169.125 Y155.132 E.0229
G1 X168.484 Y155.482 E.02288
G1 X167.78 Y155.704 E.02314
G1 X167.051 Y155.785 E.023
G1 X166.283 Y155.716 E.02419
G1 X165.562 Y155.501 E.02358
G1 X164.905 Y155.152 E.02335
G1 X164.334 Y154.687 E.02308
G1 X163.866 Y154.123 E.02298
G1 X163.516 Y153.479 E.02297
G1 X163.296 Y152.78 E.02298
G1 X163.224 Y152.143 E.02008
G1 X163.271 Y151.414 E.02293
G1 X163.308 Y151.168 E.00778
G1 X163.5 Y150.559 E.02002
G1 X163.848 Y149.904 E.02326
G1 X164.309 Y149.338 E.02291
G1 X164.873 Y148.869 E.02297
G1 X165.516 Y148.518 E.02297
G1 X166.22 Y148.296 E.02316
M204 S1000
G1 X166.155 Y148.71 F10800
M204 S800
;TYPE:External perimeter
G1 F1200
G1 X166.328 Y148.658 E.00566
G1 X166.958 Y148.591 E.01987
G1 X167.68 Y148.659 E.02273
G1 X168.327 Y148.86 E.02124
G1 X168.916 Y149.18 E.02101
G1 X169.422 Y149.6 E.02062
G1 X169.837 Y150.11 E.02061
G1 X170.148 Y150.692 E.02069
G1 X170.342 Y151.328 E.02086
G1 X170.409 Y151.985 E.02071
G1 X170.341 Y152.681 E.02192
G1 X170.14 Y153.327 E.02121
G1 X169.821 Y153.914 E.02094
G1 X169.398 Y154.423 E.02078
G1 X168.888 Y154.839 E.02062
G1 X168.308 Y155.148 E.02061
G1 X167.672 Y155.342 E.02086
G1 X167.015 Y155.409 E.02071
G1 X166.322 Y155.341 E.02184
G1 X165.675 Y155.141 E.02121
G1 X165.086 Y154.822 E.02102
G1 X164.577 Y154.398 E.02078
G1 X164.16 Y153.886 E.0207
G1 X163.85 Y153.304 E.02069
G1 X163.658 Y152.672 E.0207
G1 X163.599 Y152.107 E.0178
G1 X163.646 Y151.453 E.02057
G1 X163.784 Y150.912 E.0175
G1 X163.874 Y150.639 E.00902
G1 X164.179 Y150.086 E.01978
G1 X164.598 Y149.58 E.02062
G1 X165.11 Y149.163 E.02069
G1 X165.692 Y148.852 E.02069
G1 X166.098 Y148.728 E.01332
M204 S1000
G1 X166.189 Y148.533 F10800
;WIPE_START
G1 F8640
G1 X166.328 Y148.658 E-.05555
G1 X166.958 Y148.591 E-.14632
G1 X167.68 Y148.659 E-.16739
G1 X168.327 Y148.86 E-.15641
G1 X168.916 Y149.18 E-.15476
G1 X169.181 Y149.4 E-.07958
;WIPE_END
G1 E-.04 F2100
G1 Z.6 F720
G1 X133.424 Y150.799 F10800
G1 Z.2 F720
G1 E.8 F2100
M204 S800
;TYPE:Perimeter
G1 F1200
G1 X133.499 Y150.562 E.00779
G1 X133.848 Y149.905 E.02334
G1 X134.309 Y149.338 E.02291
G1 X134.873 Y148.869 E.02297
G1 X135.516 Y148.518 E.02297
G1 X136.22 Y148.296 E.02315
G1 X136.921 Y148.216 E.02212
G1 X137.715 Y148.284 E.02498
G1 X138.44 Y148.5 E.02375
G1 X139.096 Y148.848 E.02326
G1 X139.662 Y149.309 E.02291
G1 X140.132 Y149.875 E.02305
G1 X140.521 Y150.609 E.02605
G1 X140.704 Y151.22 E.01999
G1 X140.776 Y151.855 E.02004
G1 X140.729 Y152.59 E.0231
G1 X140.692 Y152.832 E.00765
G1 X140.5 Y153.441 E.02002
G1 X140.152 Y154.096 E.02326
G1 X139.687 Y154.666 E.02307
G1 X139.125 Y155.132 E.0229
G1 X138.484 Y155.482 E.02288
G1 X137.78 Y155.704 E.02314
G1 X137.051 Y155.785 E.023
G1 X136.283 Y155.716 E.02419
G1 X135.562 Y155.501 E.02358
G1 X134.907 Y155.153 E.02326
G1 X134.336 Y154.689 E.02308
G1 X133.866 Y154.123 E.02306
G1 X133.517 Y153.481 E.0229
G1 X133.296 Y152.78 E.02306
G1 X133.225 Y152.146 E.02
G1 X133.271 Y151.409 E.02314
G1 X133.307 Y151.171 E.00756
G1 X133.406 Y150.856 E.01035
M204 S1000
G1 X133.812 Y150.828 F10800
M204 S800
;TYPE:External perimeter
G1 F1200
G1 X133.873 Y150.641 E.00615
G1 X134.178 Y150.086 E.01986
G1 X134.598 Y149.58 E.02062
G1 X135.11 Y149.163 E.02069
G1 X135.692 Y148.852 E.02069
G1 X136.328 Y148.658 E.02086
G1 X136.958 Y148.591 E.01987
G1 X137.677 Y148.659 E.02265
G1 X138.327 Y148.86 E.02131
G1 X138.914 Y149.179 E.02094
G1 X139.42 Y149.598 E.02062
G1 X139.839 Y150.112 E.02077
G1 X140.162 Y150.724 E.02172
G1 X140.342 Y151.328 E.01976
G1 X140.4 Y151.891 E.01776
G1 X140.354 Y152.551 E.02075
G1 X140.14 Y153.327 E.02523
G1 X139.821 Y153.914 E.02094
G1 X139.398 Y154.423 E.02078
G1 X138.888 Y154.839 E.02062
G1 X138.308 Y155.148 E.02061
G1 X137.672 Y155.342 E.02086
G1 X137.015 Y155.409 E.02071
G1 X136.322 Y155.341 E.02184
G1 X135.675 Y155.141 E.02121
G1 X135.088 Y154.823 E.02094
G1 X134.578 Y154.4 E.02078
G1 X134.16 Y153.886 E.02077
G1 X133.851 Y153.306 E.02062
G1 X133.658 Y152.672 E.02078
G1 X133.6 Y152.11 E.01772
G1 X133.646 Y151.448 E.02079
G1 X133.793 Y150.885 E.01827
M204 S1000
G1 X133.674 Y150.688 F10800
;WIPE_START
G1 F8640
G1 X133.873 Y150.641 E-.05918
G1 X134.178 Y150.086 E-.14622
G1 X134.598 Y149.58 E-.15187
G1 X135.11 Y149.163 E-.15238
G1 X135.692 Y148.852 E-.15239
G1 X136.097 Y148.728 E-.09797
;WIPE_END
G1 E-.04 F2100
G1 Z.6 F720
G1 X105.579 Y148.498 F10800
G1 Z.2 F720
G1 E.8 F2100
M204 S800
;TYPE:Perimeter
G1 F1200
G1 X106.22 Y148.296 E.02106
G1 X106.921 Y148.216 E.02211
G1 X107.715 Y148.284 E.02498
G1 X108.44 Y148.5 E.02375
G1 X109.096 Y148.848 E.02326
G1 X109.662 Y149.309 E.02291
G1 X110.132 Y149.875 E.02305
G1 X110.484 Y150.521 E.02307
G1 X110.704 Y151.22 E.02299
G1 X110.776 Y151.857 E.0201
G1 X110.73 Y152.587 E.02294
G1 X110.693 Y152.829 E.00766
G1 X110.5 Y153.44 E.0201
G1 X110.152 Y154.096 E.02326
G1 X109.687 Y154.666 E.02307
G1 X109.123 Y155.134 E.02298
G1 X108.479 Y155.484 E.02297
G1 X107.78 Y155.704 E.02298
G1 X107.051 Y155.785 E.02299
G1 X106.283 Y155.716 E.02419
G1 X105.56 Y155.5 E.02366
G1 X104.904 Y155.152 E.02326
G1 X104.334 Y154.687 E.02308
G1 X103.866 Y154.123 E.02298
G1 X103.517 Y153.482 E.02289
G1 X103.296 Y152.78 E.02307
G1 X103.215 Y152.054 E.02291
G1 X103.284 Y151.283 E.02427
G1 X103.499 Y150.562 E.02358
G1 X103.848 Y149.905 E.02335
G1 X104.313 Y149.334 E.02308
G1 X104.877 Y148.866 E.02298
G1 X105.522 Y148.516 E.02301
M204 S1000
G1 X105.778 Y148.825 F10800
M204 S800
;TYPE:External perimeter
G1 F1200
G1 X106.328 Y148.658 E.01803
G1 X106.958 Y148.591 E.01986
G1 X107.677 Y148.659 E.02265
G1 X108.327 Y148.86 E.02131
G1 X108.914 Y149.179 E.02094
G1 X109.42 Y149.598 E.02062
G1 X109.839 Y150.112 E.02077
G1 X110.15 Y150.696 E.02078
G1 X110.342 Y151.328 E.0207
G1 X110.4 Y151.893 E.01782
G1 X110.354 Y152.548 E.02059
G1 X110.14 Y153.327 E.02532
G1 X109.821 Y153.914 E.02094
G1 X109.398 Y154.423 E.02078
G1 X108.886 Y154.84 E.0207
G1 X108.304 Y155.15 E.02069
G1 X107.672 Y155.342 E.0207
G1 X107.015 Y155.409 E.02071
G1 X106.322 Y155.341 E.02184
G1 X105.673 Y155.14 E.02129
G1 X105.086 Y154.822 E.02094
G1 X104.577 Y154.398 E.02078
G1 X104.16 Y153.886 E.02069
G1 X103.851 Y153.306 E.02061
G1 X103.658 Y152.672 E.02078
G1 X103.591 Y152.017 E.02063
G1 X103.659 Y151.322 E.02192
G1 X103.859 Y150.675 E.02121
G1 X104.178 Y150.086 E.02102
G1 X104.602 Y149.577 E.02078
G1 X105.114 Y149.16 E.0207
G1 X105.721 Y148.842 E.02147
M204 S1000
G1 X105.833 Y148.429 F10800
;WIPE_START
G1 F8640
G1 X106.328 Y148.658 E-.14664
G1 X106.958 Y148.591 E-.14628
G1 X107.677 Y148.659 E-.16681
G1 X108.327 Y148.86 E-.15697
G1 X108.872 Y149.156 E-.14331
;WIPE_END
G1 E-.04 F2100
G1 Z.6 F720
G1 X89.421 Y116.502 F10800
G1 Z.2 F720
G1 E.8 F2100
M204 S800
;TYPE:Perimeter
G1 F1200
G1 X88.78 Y116.704 E.02106
G1 X88.051 Y116.785 E.02299
G1 X87.283 Y116.716 E.02419
G1 X86.56 Y116.5 E.02366
G1 X85.907 Y116.153 E.02318
G1 X85.338 Y115.691 E.02299
G1 X84.867 Y115.123 E.02314
G1 X84.518 Y114.484 E.02282
G1 X84.296 Y113.78 E.02314
G1 X84.215 Y113.051 E.023
G1 X84.284 Y112.28 E.02427
G1 X84.5 Y111.559 E.02359
G1 X84.848 Y110.904 E.02326
G1 X85.309 Y110.338 E.02291
G1 X85.877 Y109.867 E.02313
G1 X86.521 Y109.516 E.02299
G1 X87.22 Y109.296 E.02298
G1 X87.887 Y109.22 E.02103
G1 X88.646 Y109.277 E.02389
G1 X89.214 Y109.429 E.01842
G1 X89.543 Y109.544 E.01093
G1 X90.096 Y109.848 E.01978
G1 X90.664 Y110.311 E.02299
G1 X91.134 Y110.877 E.02306
G1 X91.484 Y111.521 E.02298
G1 X91.704 Y112.22 E.02298
G1 X91.785 Y112.949 E.02299
G1 X91.716 Y113.717 E.02419
G1 X91.501 Y114.438 E.02358
G1 X91.152 Y115.095 E.02335
G1 X90.691 Y115.662 E.02291
G1 X90.123 Y116.133 E.02313
G1 X89.478 Y116.484 E.02302
M204 S1000
G1 X89.535 Y116.027 F10800
M204 S800
;TYPE:External perimeter
G1 F1200
G1 X89.304 Y116.15 E.0082
G1 X88.672 Y116.342 E.0207
G1 X88.015 Y116.409 E.0207
G1 X87.322 Y116.341 E.02184
G1 X86.673 Y116.14 E.02129
G1 X86.088 Y115.823 E.02086
G1 X85.58 Y115.402 E.0207
G1 X85.16 Y114.886 E.02085
G1 X84.852 Y114.308 E.02054
G1 X84.658 Y113.672 E.02085
G1 X84.591 Y113.015 E.02071
G1 X84.659 Y112.319 E.02192
G1 X84.86 Y111.673 E.02121
G1 X85.179 Y111.086 E.02094
G1 X85.598 Y110.58 E.02062
G1 X86.114 Y110.16 E.02085
G1 X86.696 Y109.85 E.0207
G1 X87.328 Y109.658 E.0207
G1 X87.924 Y109.595 E.01879
G1 X88.609 Y109.652 E.02156
G1 X89.361 Y109.874 E.02458
G1 X89.914 Y110.179 E.01978
G1 X90.422 Y110.6 E.0207
G1 X90.84 Y111.114 E.02077
G1 X91.15 Y111.696 E.02069
G1 X91.342 Y112.328 E.0207
G1 X91.409 Y112.985 E.0207
G1 X91.341 Y113.678 E.02184
G1 X91.141 Y114.325 E.02121
G1 X90.822 Y114.914 E.02102
G1 X90.402 Y115.42 E.02062
G1 X89.886 Y115.84 E.02085
G1 X89.588 Y115.999 E.01061
M204 S1000
G1 X89.536 Y116.289 F10800
;WIPE_START
G1 F8640
G1 X89.304 Y116.15 E-.07426
G1 X88.672 Y116.342 E-.15247
G1 X88.015 Y116.409 E-.15248
G1 X87.322 Y116.341 E-.16084
G1 X86.673 Y116.14 E-.15677
G1 X86.433 Y116.01 E-.06318
;WIPE_END
G1 E-.04 F2100
G1 Z.6 F720
G1 X86.577 Y79.499 F10800
G1 Z.2 F720
G1 E.8 F2100
M204 S800
;TYPE:Perimeter
G1 F1200
G1 X87.22 Y79.296 E.02115
G1 X87.887 Y79.22 E.02105
G1 X88.639 Y79.276 E.02364
G1 X89.202 Y79.425 E.01826
G1 X89.543 Y79.544 E.01134
G1 X90.096 Y79.848 E.01978
G1 X90.666 Y80.313 E.02307
G1 X91.132 Y80.875 E.0229
G1 X91.482 Y81.516 E.02288
G1 X91.704 Y82.22 E.02314
G1 X91.785 Y82.946 E.02292
G1 X91.716 Y83.717 E.02427
G1 X91.5 Y84.44 E.02367
G1 X91.15 Y85.098 E.02334
G1 X90.688 Y85.664 E.02292
G1 X90.125 Y86.132 E.02296
G1 X89.482 Y86.483 E.02298
G1 X88.675 Y86.724 E.02641
G1 X88.046 Y86.785 E.01981
G1 X87.168 Y86.692 E.02766
G1 X86.559 Y86.5 E.02002
G1 X85.904 Y86.152 E.02326
G1 X85.334 Y85.687 E.02307
G1 X84.868 Y85.125 E.0229
G1 X84.518 Y84.484 E.02288
G1 X84.296 Y83.78 E.02314
G1 X84.215 Y83.051 E.023
G1 X84.284 Y82.28 E.02427
G1 X84.5 Y81.559 E.02359
G1 X84.848 Y80.904 E.02326
G1 X85.309 Y80.338 E.02291
G1 X85.877 Y79.867 E.02313
G1 X86.519 Y79.517 E.02293
M204 S1000
G1 X86.962 Y79.769 F10800
M204 S800
;TYPE:External perimeter
G1 F1200
G1 X87.328 Y79.658 E.01201
G1 X87.924 Y79.595 E.0188
G1 X88.601 Y79.652 E.0213
G1 X89.361 Y79.874 E.02483
G1 X89.914 Y80.179 E.01978
G1 X90.423 Y80.602 E.02078
G1 X90.839 Y81.112 E.02062
G1 X91.162 Y81.726 E.02175
G1 X91.342 Y82.328 E.01972
G1 X91.409 Y82.983 E.02063
G1 X91.341 Y83.678 E.02191
G1 X91.14 Y84.327 E.02129
G1 X90.82 Y84.916 E.02102
G1 X90.4 Y85.422 E.02062
G1 X89.888 Y85.839 E.02069
G1 X89.306 Y86.149 E.0207
G1 X88.675 Y86.342 E.0207
G1 X88.024 Y86.408 E.02049
G1 X87.417 Y86.351 E.01913
G1 X86.673 Y86.14 E.02424
G1 X86.086 Y85.821 E.02094
G1 X85.577 Y85.398 E.02078
G1 X85.161 Y84.888 E.02062
G1 X84.852 Y84.308 E.02061
G1 X84.658 Y83.672 E.02086
G1 X84.591 Y83.015 E.02071
G1 X84.659 Y82.319 E.02192
G1 X84.86 Y81.673 E.02121
G1 X85.179 Y81.086 E.02094
G1 X85.598 Y80.58 E.02062
G1 X86.114 Y80.16 E.02085
G1 X86.694 Y79.851 E.02062
G1 X86.904 Y79.787 E.00688
M204 S1000
G1 X87.031 Y79.393 F10800
;WIPE_START
G1 F8640
G1 X87.328 Y79.658 E-.10232
G1 X87.924 Y79.595 E-.13843
G1 X88.601 Y79.652 E-.15688
G1 X89.361 Y79.874 E-.18284
G1 X89.914 Y80.179 E-.14565
G1 X90.027 Y80.272 E-.03389
;WIPE_END
G1 E-.04 F2100
G1 Z.6 F720
G1 X88.006 Y49.221 F10800
G1 Z.2 F720
G1 E.8 F2100
M204 S800
;TYPE:Perimeter
G1 F1200
G1 X88.719 Y49.284 E.02246
G1 X89.441 Y49.5 E.0236
G1 X90.096 Y49.848 E.02326
G1 X90.666 Y50.313 E.02307
G1 X91.132 Y50.875 E.0229
G1 X91.482 Y51.516 E.02288
G1 X91.704 Y52.22 E.02314
G1 X91.785 Y52.949 E.023
G1 X91.717 Y53.715 E.0241
G1 X91.5 Y54.44 E.02374
G1 X91.152 Y55.096 E.02327
G1 X90.691 Y55.662 E.02291
G1 X90.123 Y56.133 E.02313
G1 X89.481 Y56.483 E.0229
G1 X88.78 Y56.704 E.02306
G1 X88.066 Y56.783 E.02252
G1 X87.169 Y56.692 E.02829
G1 X86.562 Y56.501 E.01994
G1 X85.905 Y56.152 E.02334
G1 X85.334 Y55.687 E.02308
G1 X84.869 Y55.127 E.02282
G1 X84.518 Y54.484 E.02296
G1 X84.296 Y53.78 E.02315
G1 X84.215 Y53.051 E.023
G1 X84.284 Y52.28 E.02427
G1 X84.5 Y51.559 E.02359
G1 X84.848 Y50.904 E.02326
G1 X85.313 Y50.334 E.02307
G1 X85.877 Y49.866 E.02298
G1 X86.519 Y49.517 E.02289
G1 X87.22 Y49.296 E.02306
G1 X87.946 Y49.216 E.02291
M204 S1000
G1 X87.848 Y49.604 F10800
M204 S800
;TYPE:External perimeter
G1 F1200
G1 X87.98 Y49.591 E.00416
G1 X88.681 Y49.659 E.02207
G1 X89.327 Y49.86 E.02122
G1 X89.914 Y50.179 E.02094
G1 X90.423 Y50.602 E.02078
G1 X90.839 Y51.112 E.02062
G1 X91.148 Y51.692 E.02061
G1 X91.342 Y52.328 E.02086
G1 X91.409 Y52.985 E.02071
G1 X91.342 Y53.676 E.02176
G1 X91.14 Y54.327 E.02137
G1 X90.821 Y54.914 E.02094
G1 X90.402 Y55.42 E.02062
G1 X89.886 Y55.84 E.02085
G1 X89.306 Y56.149 E.02062
G1 X88.672 Y56.342 E.02078
G1 X88.03 Y56.408 E.02023
G1 X87.417 Y56.351 E.01932
G1 X86.675 Y56.141 E.02415
G1 X86.086 Y55.822 E.02102
G1 X85.577 Y55.398 E.02078
