; generated by PrusaSlicer 2.5.0+win64 on 2022-10-03 at 18:58:44 UTC


;
;
; 

; external perimeters extrusion width = 0.45mm
; perimeters extrusion width = 0.45mm
; infill extrusion width = 0.45mm
; solid infill extrusion width = 0.45mm
; top infill extrusion width = 0.40mm
; first layer extrusion width = 0.42mm

M73 P0 R183
M73 Q0 S192
M201 X1000 Y1000 Z200 E5000 ; sets maximum accelerations, mm/sec^2
M203 X200 Y200 Z12 E120 ; sets maximum feedrates, mm / sec
M204 P1250 R1250 T1250 ; sets acceleration (P, T) and retract acceleration (R), mm/sec^2
M205 X8.00 Y8.00 Z0.40 E4.50 ; sets the jerk limits, mm/sec
M205 S0 T0 ; sets the minimum extruding and travel feed rate, mm/sec
M107
;TYPE:Custom
M862.3 P "MK3S" ; printer model check
M862.1 P0.4 ; nozzle diameter check
M115 U3.11.0 ; tell printer latest fw version
G90 ; use absolute coordinates
M83 ; extruder relative mode
M104 S215 ; set extruder temp
M140 S60 ; set bed temp
M190 S60 ; wait for bed temp
M109 S215 ; wait for extruder temp
G28 W ; home all without mesh bed level
G80 ; mesh bed leveling

G1 Z0.2 F720
G1 Y-3 F1000 ; go outside print area
G92 E0
G1 X60 E9 F1000 ; intro line
G1 X100 E12.5 F1000 ; intro line

G92 E0
M221 S95

; Don't change E values below. Excessive value can damage the printer.

M907 E538 ; set extruder motor current
G21 ; set units to millimeters
G90 ; use absolute coordinates
M83 ; use relative distances for extrusion
M900 K0.05 ; Filament gcode LA 1.5
M900 K30 ; Filament gcode LA 1.0
M107
;LAYER_CHANGE
;Z:0.2
;HEIGHT:0.2
;BEFORE_LAYER_CHANGE
G92 E0.0
;0.2


G1 E-.8 F2100
G1 Z.4 F720
;AFTER_LAYER_CHANGE
;0.2
G1 X70.015 Y40.693 F10800
G1 Z.2 F720
G1 E.8 F2100
M204 S800
;TYPE:Skirt/Brim
;WIDTH:0.42
G1 F1200
G1 X71.06 Y39.817 E.04278
G1 X72 Y39.623 E.03008
G1 X178 Y39.623 E3.32356
G1 X179.307 Y40.015 E.04278
G1 X180.183 Y41.06 E.04278
G1 X180.377 Y42 E.03008
G1 X180.377 Y168 E3.95064
G1 X179.985 Y169.307 E.04278
G1 X178.94 Y170.183 E.04278
G1 X178 Y170.377 E.03008
G1 X152 Y170.377 E.81521
G1 X150.693 Y169.985 E.04278
G1 X150.144 Y169.485 E.0233
G1 X70.144 Y69.485 E4.01531
G1 X69.623 Y68 E.04934
G1 X69.623 Y42 E.81521
G1 X69.997 Y40.75 E.0409
M204 S1000
; printing object dol_prawy_tyl.stl id:0 copy 0
;WIPE_START
G1 F8640
G1 X71.06 Y39.817 E-.32671
G1 X72 Y39.623 E-.22155
G1 X72.917 Y39.623 E-.21174
;WIPE_END
G1 E-.04 F2100
G1 Z.6 F720
G1 X177.213 Y167.213 F10800
G1 Z.2 F720
G1 E.8 F2100
M204 S800
;TYPE:Perimeter
;WIDTH:0.419999
G1 F1200
G1 X152.378 Y167.213 E.77867
G1 X72.787 Y67.724 E3.99478
G1 X72.787 Y42.787 E.78188
M73 Q0 S191
G1 X177.213 Y42.787 E3.27419
G1 X177.213 Y167.153 E3.8994
M204 S1000
M73 P0 R182
G1 X177.59 Y167.59 F10800
M204 S800
;TYPE:External perimeter
G1 F1200
G1 X152.197 Y167.59 E.79618
G1 X72.41 Y67.856 E4.00461
G1 X72.41 Y42.41 E.79785
G1 X177.59 Y42.41 E3.29784
G1 X177.59 Y167.53 E3.92304
M204 S1000
G1 X177.207 Y167.475 F10800
;WIPE_START
G1 F8640
G1 X174.299 Y167.538 E-.76
;WIPE_END
G1 E-.04 F2100
G1 Z.6 F720
G1 X139.224 Y58.144 F10800
G1 Z.2 F720
G1 E.8 F2100
M204 S800
;TYPE:Perimeter
G1 F1200
G1 X139.215 Y58.046 E.00309
G1 X139.307 Y57.171 E.0276
G1 X139.5 Y56.56 E.0201
G1 X139.85 Y55.902 E.02334
G1 X140.312 Y55.336 E.02292
G1 X140.875 Y54.868 E.02296
G1 X141.516 Y54.518 E.02289
G1 X142.22 Y54.296 E.02314
G1 X142.921 Y54.216 E.02212
G1 X143.714 Y54.283 E.02497
G1 X144.44 Y54.5 E.02376
G1 X145.096 Y54.848 E.02326
G1 X145.662 Y55.309 E.02291
G1 X146.132 Y55.875 E.02305
G1 X146.482 Y56.516 E.02289
G1 X146.703 Y57.217 E.02306
G1 X146.785 Y57.949 E.02308
G1 X146.716 Y58.717 E.02419
G1 X146.491 Y59.467 E.02455
G1 X146.152 Y60.096 E.02239
G1 X145.687 Y60.666 E.02307
G1 X145.125 Y61.132 E.0229
G1 X144.484 Y61.482 E.02288
G1 X143.78 Y61.704 E.02314
G1 X143.056 Y61.785 E.02283
G1 X142.283 Y61.716 E.02434
G1 X141.56 Y61.5 E.02368
G1 X140.904 Y61.152 E.02326
G1 X140.338 Y60.691 E.02291
G1 X139.868 Y60.125 E.02305
G1 X139.518 Y59.484 E.02289
G1 X139.275 Y58.672 E.02657
G1 X139.23 Y58.204 E.01474
M204 S1000
G1 X139.609 Y58.201 F10800
M204 S800
;TYPE:External perimeter
G1 F1200
G1 X139.6 Y58.113 E.00276
G1 X139.646 Y57.444 E.02105
G1 X139.86 Y56.673 E.02507
G1 X140.18 Y56.084 E.02102
G1 X140.6 Y55.578 E.02062
G1 X141.112 Y55.161 E.02069
G1 X141.692 Y54.852 E.02061
G1 X142.328 Y54.658 E.02086
G1 X142.958 Y54.591 E.01987
G1 X143.677 Y54.659 E.02265
G1 X144.327 Y54.86 E.02132
G1 X144.914 Y55.179 E.02094
G1 X145.42 Y55.598 E.02062
G1 X145.839 Y56.112 E.02077
G1 X146.148 Y56.692 E.02062
G1 X146.342 Y57.325 E.02078
G1 X146.409 Y57.985 E.02079
G1 X146.341 Y58.678 E.02184
G1 X146.137 Y59.336 E.02158
G1 X145.821 Y59.914 E.02065
G1 X145.398 Y60.423 E.02078
G1 X144.888 Y60.839 E.02062
G1 X144.308 Y61.148 E.02061
G1 X143.672 Y61.342 E.02086
G1 X143.02 Y61.409 E.02055
G1 X142.322 Y61.341 E.022
G1 X141.673 Y61.14 E.02129
G1 X141.086 Y60.821 E.02094
G1 X140.58 Y60.402 E.02062
G1 X140.161 Y59.888 E.02077
G1 X139.852 Y59.308 E.02062
G1 X139.658 Y58.672 E.02086
G1 X139.615 Y58.261 E.01297
M204 S1000
G1 X139.528 Y58.168 F10800
;WIPE_START
G1 F8640
G1 X139.6 Y58.113 E-.03419
G1 X139.646 Y57.444 E-.15503
G1 X139.86 Y56.673 E-.1846
G1 X140.18 Y56.084 E-.15476
G1 X140.6 Y55.578 E-.15188
G1 X140.867 Y55.361 E-.07953
;WIPE_END
G1 E-.04 F2100
G1 Z.6 F720
G1 X116.5 Y56.574 F10800
G1 Z.2 F720
G1 E.8 F2100
M204 S800
;TYPE:Perimeter
G1 F1200
G1 X116.703 Y57.217 E.02115
G1 X116.776 Y57.86 E.02027
G1 X116.73 Y58.584 E.02276
G1 X116.692 Y58.832 E.00785
G1 X116.5 Y59.441 E.02002
G1 X116.152 Y60.096 E.02326
G1 X115.691 Y60.662 E.02291
G1 X115.127 Y61.131 E.02297
G1 X114.484 Y61.482 E.02297
G1 X113.78 Y61.704 E.02315
G1 X113.054 Y61.785 E.02291
G1 X112.28 Y61.716 E.02435
G1 X111.559 Y61.5 E.0236
G1 X110.904 Y61.152 E.02326
G1 X110.336 Y60.689 E.02299
G1 X109.868 Y60.125 E.02298
G1 X109.507 Y59.461 E.02371
G1 X109.296 Y58.78 E.02233
G1 X109.223 Y58.134 E.02038
G1 X109.271 Y57.409 E.02278
G1 X109.308 Y57.168 E.00764
G1 X109.5 Y56.559 E.02002
G1 X109.848 Y55.905 E.02325
G1 X110.312 Y55.336 E.023
G1 X110.873 Y54.869 E.02288
G1 X111.516 Y54.518 E.02297
G1 X112.217 Y54.297 E.02306
G1 X112.921 Y54.216 E.0222
G1 X113.715 Y54.284 E.02498
G1 X114.438 Y54.499 E.02366
G1 X115.095 Y54.848 E.02335
G1 X115.666 Y55.313 E.02308
G1 X116.132 Y55.875 E.0229
G1 X116.482 Y56.517 E.02291
M204 S1000
G1 X116.16 Y56.731 F10800
M204 S800
;TYPE:External perimeter
G1 F1200
G1 X116.342 Y57.325 E.01948
G1 X116.401 Y57.896 E.01798
G1 X116.355 Y58.545 E.02041
G1 X116.214 Y59.094 E.01776
G1 X116.126 Y59.361 E.00883
G1 X115.821 Y59.914 E.01978
G1 X115.402 Y60.42 E.02062
G1 X114.89 Y60.837 E.02069
G1 X114.308 Y61.148 E.02069
G1 X113.672 Y61.342 E.02086
G1 X113.018 Y61.409 E.02062
G1 X112.319 Y61.341 E.022
G1 X111.673 Y61.14 E.02121
G1 X111.086 Y60.821 E.02094
G1 X110.578 Y60.4 E.0207
G1 X110.161 Y59.888 E.02069
G1 X109.847 Y59.299 E.02094
G1 X109.658 Y58.672 E.02054
G1 X109.598 Y58.098 E.0181
G1 X109.646 Y57.448 E.02042
G1 X109.86 Y56.673 E.02521
G1 X110.178 Y56.086 E.02094
G1 X110.6 Y55.578 E.0207
G1 X111.11 Y55.163 E.02061
G1 X111.692 Y54.852 E.02069
G1 X112.325 Y54.658 E.02078
G1 X112.958 Y54.591 E.01995
G1 X113.677 Y54.659 E.02265
G1 X114.325 Y54.859 E.02123
G1 X114.914 Y55.178 E.02102
G1 X115.423 Y55.602 E.02078
G1 X115.839 Y56.112 E.02062
G1 X116.14 Y56.675 E.02003
M204 S1000
G1 X116.557 Y56.784 F10800
;WIPE_START
G1 F8640
G1 X116.342 Y57.325 E-.15722
G1 X116.401 Y57.896 E-.13239
G1 X116.355 Y58.545 E-.15027
G1 X116.214 Y59.094 E-.13077
G1 X116.126 Y59.361 E-.06506
G1 X115.866 Y59.833 E-.12429
;WIPE_END
G1 E-.04 F2100
G1 Z.6 F720
G1 X86.5 Y56.574 F10800
G1 Z.2 F720
G1 E.8 F2100
M204 S800
;TYPE:Perimeter
G1 F1200
G1 X86.703 Y57.217 E.02115
G1 X86.776 Y57.857 E.02019
G1 X86.729 Y58.599 E.02332
G1 X86.694 Y58.826 E.0072
G1 X86.501 Y59.438 E.0201
G1 X86.152 Y60.095 E.02335
G1 X85.687 Y60.666 E.02308
G1 X85.123 Y61.134 E.02298
G1 X84.481 Y61.483 E.02289
G1 X83.78 Y61.704 E.02306
G1 X83.054 Y61.785 E.02291
G1 X82.28 Y61.716 E.02435
G1 X81.559 Y61.5 E.0236
G1 X80.904 Y61.152 E.02326
G1 X80.334 Y60.687 E.02307
G1 X79.868 Y60.125 E.0229
G1 X79.518 Y59.484 E.02288
G1 X79.296 Y58.78 E.02314
G1 X79.215 Y58.051 E.023
G1 X79.284 Y57.28 E.02427
G1 X79.5 Y56.559 E.02359
G1 X79.848 Y55.905 E.02325
G1 X80.312 Y55.336 E.023
G1 X80.873 Y54.869 E.02288
G1 X81.516 Y54.518 E.02297
G1 X82.22 Y54.296 E.02315
G1 X82.946 Y54.215 E.02292
G1 X83.72 Y54.284 E.02435
G1 X84.441 Y54.5 E.02359
G1 X85.096 Y54.848 E.02326
G1 X85.666 Y55.313 E.02307
G1 X86.132 Y55.875 E.0229
G1 X86.482 Y56.517 E.02291
M204 S1000
G1 X86.183 Y56.805 F10800
M204 S800
;TYPE:External perimeter
G1 F1200
G1 X86.342 Y57.325 E.01708
G1 X86.4 Y57.893 E.0179
G1 X86.353 Y58.561 E.02097
G1 X86.127 Y59.359 E.02602
G1 X85.821 Y59.914 E.01986
G1 X85.398 Y60.423 E.02078
G1 X84.886 Y60.84 E.0207
G1 X84.306 Y61.149 E.02061
G1 X83.672 Y61.342 E.02078
G1 X83.018 Y61.409 E.02062
G1 X82.319 Y61.341 E.022
G1 X81.673 Y61.14 E.02121
G1 X81.086 Y60.821 E.02094
G1 X80.577 Y60.398 E.02078
G1 X80.161 Y59.888 E.02062
G1 X79.852 Y59.308 E.02061
G1 X79.658 Y58.672 E.02086
G1 X79.591 Y58.015 E.02071
G1 X79.659 Y57.319 E.02192
G1 X79.86 Y56.673 E.02121
G1 X80.178 Y56.086 E.02094
G1 X80.6 Y55.578 E.0207
G1 X81.11 Y55.163 E.02061
G1 X81.692 Y54.852 E.02069
G1 X82.328 Y54.658 E.02086
G1 X82.983 Y54.591 E.02063
G1 X83.681 Y54.659 E.02199
G1 X84.327 Y54.86 E.02121
G1 X84.914 Y55.179 E.02094
G1 X85.423 Y55.602 E.02078
G1 X85.839 Y56.112 E.02062
G1 X86.165 Y56.747 E.0224
M204 S1000
G1 X86.579 Y56.86 F10800
;WIPE_START
G1 F8640
G1 X86.342 Y57.325 E-.13962
G1 X86.4 Y57.893 E-.13182
G1 X86.353 Y58.561 E-.15444
G1 X86.127 Y59.359 E-.19161
G1 X85.829 Y59.9 E-.14251
;WIPE_END
G1 E-.04 F2100
G1 Z.6 F720
G1 X165.5 Y95.574 F10800
G1 Z.2 F720
G1 E.8 F2100
M204 S800
;TYPE:Perimeter
G1 F1200
G1 X165.704 Y96.22 E.02123
G1 X165.785 Y96.949 E.023
G1 X165.716 Y97.717 E.02419
G1 X165.5 Y98.44 E.02366
G1 X165.153 Y99.093 E.02318
G1 X164.691 Y99.662 E.02299
G1 X164.127 Y100.131 E.02297
G1 X163.484 Y100.482 E.02297
G1 X162.78 Y100.704 E.02315
G1 X162.063 Y100.784 E.02263
G1 X161.366 Y100.725 E.02194
G1 X160.79 Y100.573 E.01865
G1 X160.457 Y100.456 E.01108
G1 X159.904 Y100.152 E.01978
G1 X159.338 Y99.691 E.02291
G1 X158.869 Y99.127 E.02297
G1 X158.475 Y98.378 E.02657
G1 X158.296 Y97.78 E.01956
G1 X158.215 Y97.051 E.02299
G1 X158.284 Y96.28 E.02427
G1 X158.5 Y95.559 E.02359
G1 X158.85 Y94.902 E.02334
G1 X159.312 Y94.336 E.02292
G1 X159.873 Y93.869 E.02288
G1 X160.521 Y93.516 E.02313
G1 X161.218 Y93.297 E.02291
G1 X161.921 Y93.216 E.02219
G1 X162.717 Y93.284 E.02506
G1 X163.438 Y93.499 E.02359
G1 X164.095 Y93.848 E.02334
G1 X164.666 Y94.313 E.02308
G1 X165.132 Y94.875 E.0229
G1 X165.482 Y95.517 E.02291
M204 S1000
G1 X164.959 Y95.338 F10800
M204 S800
;TYPE:External perimeter
G1 F1200
G1 X165.148 Y95.692 E.01258
G1 X165.342 Y96.328 E.02086
G1 X165.409 Y96.985 E.02071
G1 X165.341 Y97.678 E.02184
G1 X165.14 Y98.327 E.02129
G1 X164.823 Y98.912 E.02086
G1 X164.402 Y99.42 E.0207
G1 X163.89 Y99.837 E.02069
G1 X163.308 Y100.148 E.02069
G1 X162.672 Y100.342 E.02086
G1 X162.026 Y100.408 E.02035
G1 X161.404 Y100.35 E.01959
G1 X160.639 Y100.126 E.025
G1 X160.086 Y99.821 E.01978
G1 X159.58 Y99.402 E.02062
G1 X159.163 Y98.89 E.02069
G1 X158.85 Y98.304 E.02085
G1 X158.658 Y97.672 E.02071
G1 X158.591 Y97.015 E.02071
G1 X158.659 Y96.319 E.02192
G1 X158.86 Y95.673 E.02121
G1 X159.18 Y95.084 E.02101
G1 X159.6 Y94.578 E.02062
G1 X160.11 Y94.163 E.02061
G1 X160.696 Y93.85 E.02085
G1 X161.326 Y93.658 E.02063
G1 X161.958 Y93.591 E.01994
G1 X162.68 Y93.659 E.02273
G1 X163.325 Y93.859 E.02116
G1 X163.914 Y94.178 E.02102
G1 X164.423 Y94.602 E.02078
G1 X164.839 Y95.112 E.02062
G1 X164.931 Y95.285 E.00615
M204 S1000
G1 X165.359 Y95.333 F10800
;WIPE_START
G1 F8640
G1 X165.148 Y95.692 E-.10648
G1 X165.342 Y96.328 E-.1536
G1 X165.409 Y96.985 E-.15251
G1 X165.341 Y97.678 E-.16084
G1 X165.14 Y98.327 E-.15677
G1 X165.079 Y98.44 E-.02979
;WIPE_END
G1 E-.04 F2100
G1 Z.6 F720
G1 X165.501 Y125.576 F10800
G1 Z.2 F720
G1 E.8 F2100
M204 S800
;TYPE:Perimeter
G1 F1200
G1 X165.703 Y126.217 E.02107
G1 X165.785 Y126.946 E.023
G1 X165.716 Y127.72 E.02435
G1 X165.5 Y128.441 E.02359
G1 X165.15 Y129.098 E.02334
G1 X164.687 Y129.666 E.023
G1 X164.127 Y130.131 E.02281
G1 X163.484 Y130.482 E.02296
G1 X162.78 Y130.704 E.02315
G1 X162.063 Y130.784 E.02264
G1 X161.372 Y130.725 E.02173
G1 X160.793 Y130.574 E.01877
G1 X160.457 Y130.456 E.01115
G1 X159.905 Y130.152 E.01978
G1 X159.336 Y129.688 E.023
G1 X158.868 Y129.125 E.02296
G1 X158.517 Y128.482 E.02298
G1 X158.296 Y127.78 E.02306
G1 X158.215 Y127.054 E.02291
G1 X158.284 Y126.283 E.02426
G1 X158.499 Y125.562 E.02359
G1 X158.85 Y124.902 E.02342
G1 X159.313 Y124.334 E.02301
G1 X159.873 Y123.869 E.02281
G1 X160.516 Y123.518 E.02296
G1 X161.326 Y123.275 E.02652
G1 X161.921 Y123.216 E.01874
G1 X162.642 Y123.277 E.0227
G1 X163.441 Y123.5 E.02599
G1 X164.098 Y123.85 E.02334
G1 X164.666 Y124.313 E.023
G1 X165.134 Y124.877 E.02297
G1 X165.483 Y125.519 E.02291
M204 S1000
G1 X165.125 Y125.649 F10800
M204 S800
;TYPE:External perimeter
G1 F1200
G1 X165.342 Y126.325 E.02226
G1 X165.409 Y126.983 E.02071
G1 X165.341 Y127.681 E.022
G1 X165.14 Y128.327 E.02121
G1 X164.82 Y128.916 E.02101
G1 X164.398 Y129.423 E.0207
G1 X163.89 Y129.837 E.02054
G1 X163.308 Y130.148 E.02069
G1 X162.672 Y130.342 E.02086
G1 X162.026 Y130.408 E.02035
G1 X161.411 Y130.35 E.01939
G1 X160.639 Y130.126 E.0252
G1 X160.086 Y129.822 E.01978
G1 X159.578 Y129.4 E.0207
G1 X159.161 Y128.888 E.02069
G1 X158.851 Y128.306 E.0207
G1 X158.658 Y127.672 E.02078
G1 X158.591 Y127.017 E.02063
G1 X158.659 Y126.322 E.02191
G1 X158.87 Y125.647 E.02215
G1 X159.18 Y125.084 E.02015
G1 X159.602 Y124.577 E.0207
G1 X160.11 Y124.163 E.02054
G1 X160.692 Y123.852 E.02069
G1 X161.328 Y123.658 E.02086
G1 X161.939 Y123.593 E.01928
G1 X162.605 Y123.652 E.02095
G1 X163.327 Y123.86 E.02356
G1 X163.916 Y124.18 E.02101
G1 X164.423 Y124.602 E.0207
G1 X164.84 Y125.114 E.02069
G1 X165.097 Y125.596 E.01714
M204 S1000
G1 X165.522 Y125.697 F10800
;WIPE_START
G1 F8640
G1 X165.342 Y126.325 E-.1776
G1 X165.409 Y126.983 E-.15253
G1 X165.341 Y127.681 E-.16198
G1 X165.14 Y128.327 E-.15621
G1 X164.909 Y128.752 E-.11168
;WIPE_END
G1 E-.04 F2100
G1 Z.6 F720
G1 X160.572 Y153.5 F10800
G1 Z.2 F720
G1 E.8 F2100
M204 S800
;TYPE:Perimeter
G1 F1200
G1 X161.326 Y153.275 E.02467
G1 X161.921 Y153.216 E.01874
G1 X162.642 Y153.277 E.0227
G1 X163.441 Y153.5 E.02599
G1 X164.098 Y153.85 E.02334
G1 X164.666 Y154.313 E.023
G1 X165.134 Y154.877 E.02297
G1 X165.483 Y155.519 E.02289
G1 X165.703 Y156.217 E.02297
G1 X165.787 Y157.003 E.02477
G1 X165.716 Y157.72 E.02259
G1 X165.5 Y158.441 E.02359
G1 X165.15 Y159.098 E.02334
G1 X164.687 Y159.666 E.023
G1 X164.127 Y160.131 E.02281
G1 X163.484 Y160.482 E.02296
G1 X162.78 Y160.704 E.02315
G1 X162.054 Y160.785 E.02291
G1 X161.28 Y160.716 E.02435
G1 X160.562 Y160.501 E.02351
G1 X159.902 Y160.15 E.02342
G1 X159.336 Y159.688 E.02292
G1 X158.868 Y159.125 E.02296
G1 X158.517 Y158.482 E.02298
G1 X158.296 Y157.78 E.02306
G1 X158.215 Y157.051 E.023
G1 X158.284 Y156.28 E.02427
G1 X158.5 Y155.559 E.02359
G1 X158.848 Y154.904 E.02326
G1 X159.313 Y154.334 E.02307
G1 X159.873 Y153.869 E.02282
G1 X160.515 Y153.519 E.02293
M204 S1000
G1 X160.787 Y153.823 F10800
M204 S800
;TYPE:External perimeter
G1 F1200
G1 X161.328 Y153.658 E.01774
G1 X161.933 Y153.594 E.01907
G1 X162.605 Y153.652 E.02116
G1 X163.327 Y153.86 E.02355
G1 X163.916 Y154.18 E.02101
G1 X164.423 Y154.602 E.0207
G1 X164.84 Y155.114 E.02069
G1 X165.149 Y155.694 E.02061
G1 X165.342 Y156.325 E.0207
G1 X165.41 Y157.001 E.0213
G1 X165.341 Y157.681 E.02141
G1 X165.14 Y158.327 E.02121
G1 X164.82 Y158.916 E.02101
G1 X164.398 Y159.423 E.0207
G1 X163.89 Y159.837 E.02054
G1 X163.308 Y160.148 E.02069
G1 X162.672 Y160.342 E.02086
G1 X162.018 Y160.409 E.02062
G1 X161.319 Y160.341 E.022
G1 X160.675 Y160.141 E.02113
G1 X160.084 Y159.82 E.02109
G1 X159.578 Y159.4 E.02063
G1 X159.161 Y158.888 E.02069
G1 X158.851 Y158.306 E.0207
G1 X158.658 Y157.672 E.02078
G1 X158.591 Y157.015 E.02071
G1 X158.659 Y156.319 E.02192
