; generated by PrusaSlicer 2.5.0+win64 on 2022-10-03 at 18:57:54 UTC


;
;
; 

; external perimeters extrusion width = 0.45mm
; perimeters extrusion width = 0.45mm
; infill extrusion width = 0.45mm
; solid infill extrusion width = 0.45mm
; top infill extrusion width = 0.40mm
; first layer extrusion width = 0.42mm

M73 P0 R183
M73 Q0 S192
M201 X1000 Y1000 Z200 E5000 ; sets maximum accelerations, mm/sec^2
M203 X200 Y200 Z12 E120 ; sets maximum feedrates, mm / sec
M204 P1250 R1250 T1250 ; sets acceleration (P, T) and retract acceleration (R), mm/sec^2
M205 X8.00 Y8.00 Z0.40 E4.50 ; sets the jerk limits, mm/sec
M205 S0 T0 ; sets the minimum extruding and travel feed rate, mm/sec
M107
;TYPE:Custom
M862.3 P "MK3S" ; printer model check
M862.1 P0.4 ; nozzle diameter check
M115 U3.11.0 ; tell printer latest fw version
G90 ; use absolute coordinates
M83 ; extruder relative mode
M104 S215 ; set extruder temp
M140 S60 ; set bed temp
M190 S60 ; wait for bed temp
M109 S215 ; wait for extruder temp
G28 W ; home all without mesh bed level
G80 ; mesh bed leveling

G1 Z0.2 F720
G1 Y-3 F1000 ; go outside print area
G92 E0
G1 X60 E9 F1000 ; intro line
G1 X100 E12.5 F1000 ; intro line

G92 E0
M221 S95

; Don't change E values below. Excessive value can damage the printer.

M907 E538 ; set extruder motor current
G21 ; set units to millimeters
G90 ; use absolute coordinates
M83 ; use relative distances for extrusion
M900 K0.05 ; Filament gcode LA 1.5
M900 K30 ; Filament gcode LA 1.0
M107
;LAYER_CHANGE
;Z:0.2
;HEIGHT:0.2
;BEFORE_LAYER_CHANGE
G92 E0.0
;0.2


G1 E-.8 F2100
G1 Z.4 F720
;AFTER_LAYER_CHANGE
;0.2
G1 X70.015 Y40.693 F10800
G1 Z.2 F720
G1 E.8 F2100
M204 S800
;TYPE:Skirt/Brim
;WIDTH:0.42
G1 F1200
G1 X71.06 Y39.817 E.04278
G1 X72 Y39.623 E.03008
G1 X178 Y39.623 E3.32356
G1 X179.307 Y40.015 E.04278
M73 Q0 S191
G1 X180.183 Y41.06 E.04278
G1 X180.377 Y42 E.03008
G1 X180.377 Y68 E.81521
G1 X179.856 Y69.485 E.04934
G1 X99.856 Y169.485 E4.01531
G1 X98.734 Y170.261 E.04278
M73 P0 R182
G1 X98 Y170.377 E.0233
G1 X72 Y170.377 E.81521
G1 X70.693 Y169.985 E.04278
G1 X69.817 Y168.94 E.04278
G1 X69.623 Y168 E.03008
G1 X69.623 Y42 E3.95064
G1 X69.997 Y40.75 E.0409
M204 S1000
; printing object dol_lewy_tyl_x1.stl id:0 copy 0
;WIPE_START
G1 F8640
G1 X71.06 Y39.817 E-.32671
G1 X72 Y39.623 E-.22155
G1 X72.917 Y39.623 E-.21174
;WIPE_END
G1 E-.04 F2100
G1 Z.6 F720
G1 X72.787 Y167.213 F10800
G1 Z.2 F720
G1 E.8 F2100
M204 S800
;TYPE:Perimeter
;WIDTH:0.419999
G1 F1200
G1 X72.787 Y42.787 E3.90128
G1 X177.213 Y42.787 E3.27419
G1 X177.213 Y67.724 E.78188
G1 X97.622 Y167.213 E3.99478
G1 X72.847 Y167.213 E.77679
M204 S1000
G1 X72.41 Y167.59 F10800
M204 S800
;TYPE:External perimeter
G1 F1200
G1 X72.41 Y42.41 E3.92492
G1 X177.59 Y42.41 E3.29784
G1 X177.59 Y67.856 E.79785
G1 X97.803 Y167.59 E4.00461
G1 X72.47 Y167.59 E.7943
M204 S1000
G1 X72.517 Y167.205 F10800
;WIPE_START
G1 F8640
G1 X72.468 Y164.299 E-.76
;WIPE_END
G1 E-.04 F2100
G1 Z.6 F720
G1 X168.437 Y54.504 F10800
G1 Z.2 F720
M73 Q0 S190
G1 E.8 F2100
M204 S800
;TYPE:Perimeter
G1 F1200
G1 X169.034 Y54.808 E.021
G1 X169.608 Y55.257 E.02288
G1 X170.089 Y55.814 E.02305
G1 X170.456 Y56.457 E.02322
G1 X170.692 Y57.168 E.0235
G1 X170.787 Y57.997 E.02615
G1 X170.725 Y58.672 E.02127
G1 X170.523 Y59.383 E.02315
G1 X170.192 Y60.034 E.02291
G1 X169.743 Y60.609 E.02288
G1 X169.184 Y61.091 E.02313
G1 X168.54 Y61.457 E.02323
G1 X167.829 Y61.693 E.0235
G1 X167.056 Y61.784 E.02439
G1 X166.327 Y61.725 E.02293
G1 X165.617 Y61.523 E.02314
G1 X164.966 Y61.192 E.02291
G1 X164.392 Y60.743 E.02288
G1 X163.912 Y60.189 E.02297
G1 X163.543 Y59.541 E.02338
G1 X163.307 Y58.829 E.02352
G1 X163.216 Y58.062 E.02422
G1 X163.275 Y57.328 E.02308
G1 X163.477 Y56.617 E.02315
G1 X163.806 Y55.969 E.02282
G1 X164.259 Y55.39 E.02304
G1 X164.811 Y54.912 E.02289
G1 X165.459 Y54.543 E.02338
G1 X166.171 Y54.307 E.02352
G1 X166.938 Y54.216 E.02422
G1 X167.672 Y54.275 E.02308
G1 X168.383 Y54.477 E.02317
M204 S1000
G1 X168.924 Y55.194 F10800
M204 S800
;TYPE:External perimeter
G1 F1200
G1 X169.372 Y55.551 E.01797
G1 X169.801 Y56.056 E.02077
G1 X170.126 Y56.639 E.02092
G1 X170.333 Y57.282 E.02118
G1 X170.41 Y57.997 E.02255
G1 X170.349 Y58.636 E.02013
G1 X170.162 Y59.274 E.02086
G1 X169.859 Y59.858 E.02062
G1 X169.449 Y60.372 E.02061
G1 X168.942 Y60.802 E.02085
G1 X168.359 Y61.127 E.02093
G1 X167.715 Y61.333 E.02118
G1 X167.018 Y61.409 E.02201
G1 X166.364 Y61.349 E.02058
G1 X165.726 Y61.162 E.02086
G1 X165.142 Y60.859 E.02062
G1 X164.628 Y60.449 E.02061
G1 X164.201 Y59.946 E.02069
G1 X163.873 Y59.359 E.02108
G1 X163.667 Y58.715 E.02119
G1 X163.591 Y58.023 E.02185
G1 X163.651 Y57.364 E.02074
G1 X163.838 Y56.726 E.02086
G1 X164.14 Y56.144 E.02054
G1 X164.553 Y55.626 E.02077
G1 X165.054 Y55.201 E.02062
G1 X165.641 Y54.873 E.02108
G1 X166.285 Y54.667 E.02119
G1 X166.977 Y54.591 E.02185
G1 X167.636 Y54.651 E.02074
G1 X168.274 Y54.838 E.02086
G1 X168.877 Y55.157 E.02137
M204 S1000
G1 X169.281 Y55.014 F10800
;WIPE_START
G1 F8640
G1 X169.372 Y55.551 E-.14618
G1 X169.801 Y56.056 E-.15296
G1 X170.126 Y56.639 E-.1541
G1 X170.333 Y57.282 E-.15599
G1 X170.403 Y57.931 E-.15078
;WIPE_END
G1 E-.04 F2100
G1 Z.6 F720
G1 X139.133 Y61.12 F10800
G1 Z.2 F720
G1 E.8 F2100
M204 S800
;TYPE:Perimeter
G1 F1200
G1 X138.543 Y61.456 E.02128
G1 X137.829 Y61.693 E.02359
G1 X137.059 Y61.784 E.02432
G1 X136.328 Y61.725 E.023
G1 X135.617 Y61.523 E.02314
G1 X135.011 Y61.216 E.02132
G1 X134.509 Y60.837 E.01972
G1 X134.313 Y60.666 E.00815
G1 X133.911 Y60.186 E.01963
G1 X133.544 Y59.543 E.02322
G1 X133.307 Y58.829 E.02359
G1 X133.216 Y58.059 E.02431
G1 X133.275 Y57.327 E.02302
G1 X133.477 Y56.617 E.02314
G1 X133.808 Y55.966 E.02291
G1 X134.261 Y55.388 E.02304
G1 X134.857 Y54.878 E.0246
G1 X135.457 Y54.544 E.02153
G1 X136.171 Y54.307 E.02359
G1 X136.938 Y54.216 E.02423
G1 X137.672 Y54.275 E.02308
G1 X138.383 Y54.477 E.02315
G1 X139.034 Y54.808 E.02291
G1 X139.609 Y55.257 E.02288
G1 X140.089 Y55.814 E.02305
G1 X140.456 Y56.457 E.02322
G1 X140.692 Y57.168 E.0235
G1 X140.784 Y57.938 E.02431
G1 X140.725 Y58.672 E.02309
G1 X140.523 Y59.383 E.02315
G1 X140.191 Y60.036 E.02299
G1 X139.739 Y60.613 E.02297
G1 X139.185 Y61.09 E.02294
M204 S1000
G1 X138.808 Y60.877 F10800
M204 S800
;TYPE:External perimeter
G1 F1200
G1 X138.361 Y61.126 E.01604
G1 X137.716 Y61.333 E.02126
G1 X137.02 Y61.409 E.02194
G1 X136.364 Y61.349 E.02065
G1 X135.726 Y61.162 E.02086
G1 X135.187 Y60.882 E.01903
G1 X134.745 Y60.543 E.01745
G1 X134.348 Y60.121 E.01819
G1 X134.179 Y59.914 E.0084
G1 X133.874 Y59.361 E.01978
G1 X133.667 Y58.716 E.02126
G1 X133.591 Y58.02 E.02193
G1 X133.651 Y57.364 E.02067
G1 X133.838 Y56.726 E.02086
G1 X134.141 Y56.142 E.02062
G1 X134.555 Y55.624 E.02077
G1 X135.071 Y55.188 E.02118
G1 X135.639 Y54.874 E.02036
G1 X136.285 Y54.667 E.02127
G1 X136.977 Y54.591 E.02185
G1 X137.636 Y54.651 E.02074
G1 X138.274 Y54.838 E.02086
G1 X138.858 Y55.141 E.02062
G1 X139.372 Y55.551 E.02061
G1 X139.801 Y56.056 E.02077
G1 X140.126 Y56.639 E.02093
G1 X140.333 Y57.282 E.02118
G1 X140.409 Y57.977 E.02193
G1 X140.349 Y58.636 E.02074
G1 X140.162 Y59.274 E.02086
G1 X139.857 Y59.86 E.0207
G1 X139.445 Y60.376 E.02069
G1 X138.944 Y60.801 E.02061
G1 X138.86 Y60.847 E.003
M204 S1000
G1 X138.823 Y61.276 F10800
;WIPE_START
G1 F8640
G1 X138.361 Y61.126 E-.13199
G1 X137.716 Y61.333 E-.15658
G1 X137.02 Y61.409 E-.16158
G1 X136.364 Y61.349 E-.15209
G1 X135.726 Y61.162 E-.1536
G1 X135.71 Y61.154 E-.00415
;WIPE_END
G1 E-.04 F2100
G1 Z.6 F720
G1 X110.496 Y59.437 F10800
G1 Z.2 F720
G1 E.8 F2100
M204 S800
;TYPE:Perimeter
G1 F1200
G1 X110.192 Y60.034 E.02099
G1 X109.664 Y60.689 E.02638
G1 X109.186 Y61.09 E.01955
G1 X108.587 Y61.432 E.02162
G1 X107.832 Y61.692 E.02506
G1 X107.059 Y61.784 E.0244
G1 X106.328 Y61.725 E.023
G1 X105.62 Y61.524 E.02306
G1 X104.969 Y61.194 E.02289
G1 X104.392 Y60.743 E.02297
G1 X103.911 Y60.187 E.02306
G1 X103.543 Y59.541 E.02331
G1 X103.289 Y58.757 E.02584
G1 X103.216 Y58.062 E.02191
G1 X103.275 Y57.328 E.02308
G1 X103.477 Y56.617 E.02315
G1 X103.808 Y55.966 E.02291
G1 X104.257 Y55.392 E.02288
G1 X104.813 Y54.911 E.02305
G1 X105.457 Y54.544 E.02322
G1 X106.168 Y54.308 E.02351
G1 X106.938 Y54.216 E.02431
G1 X107.672 Y54.275 E.02309
G1 X108.383 Y54.477 E.02315
G1 X109.031 Y54.806 E.02282
G1 X109.61 Y55.259 E.02304
G1 X110.088 Y55.811 E.02289
G1 X110.456 Y56.457 E.0233
G1 X110.692 Y57.168 E.02351
G1 X110.784 Y57.938 E.02431
G1 X110.725 Y58.672 E.02309
G1 X110.523 Y59.384 E.02318
M204 S1000
G1 X109.97 Y59.644 F10800
M204 S800
;TYPE:External perimeter
G1 F1200
G1 X109.859 Y59.858 E.00754
G1 X109.447 Y60.374 E.02069
G1 X108.914 Y60.821 E.02184
G1 X108.361 Y61.126 E.01978
G1 X107.718 Y61.333 E.02118
G1 X107.02 Y61.409 E.02202
G1 X106.364 Y61.349 E.02065
G1 X105.728 Y61.163 E.02078
G1 X105.144 Y60.86 E.02062
G1 X104.628 Y60.449 E.02069
G1 X104.199 Y59.944 E.02077
G1 X103.873 Y59.359 E.02101
G1 X103.661 Y58.691 E.02196
G1 X103.591 Y58.023 E.02108
G1 X103.651 Y57.364 E.02074
G1 X103.838 Y56.726 E.02086
G1 X104.141 Y56.142 E.02062
G1 X104.551 Y55.628 E.02061
G1 X105.056 Y55.199 E.02077
G1 X105.639 Y54.874 E.02093
G1 X106.282 Y54.667 E.02119
G1 X106.977 Y54.591 E.02193
G1 X107.636 Y54.651 E.02074
G1 X108.274 Y54.838 E.02086
G1 X108.856 Y55.14 E.02054
G1 X109.374 Y55.553 E.02077
G1 X109.799 Y56.054 E.02062
G1 X110.126 Y56.639 E.021
G1 X110.333 Y57.282 E.02118
G1 X110.409 Y57.977 E.02193
G1 X110.349 Y58.636 E.02074
G1 X110.162 Y59.274 E.02086
G1 X109.997 Y59.591 E.0112
M204 S1000
G1 X110.107 Y59.842 F10800
;WIPE_START
G1 F8640
G1 X109.859 Y59.858 E-.06939
G1 X109.447 Y60.374 E-.15236
G1 X108.914 Y60.821 E-.16084
G1 X108.361 Y61.126 E-.14565
G1 X107.718 Y61.333 E-.15599
G1 X107.392 Y61.368 E-.07579
;WIPE_END
G1 E-.04 F2100
G1 Z.6 F720
G1 X85.305 Y94.35 F10800
G1 Z.2 F720
M73 P0 R181
G1 E.8 F2100
M204 S800
;TYPE:Perimeter
G1 F1200
G1 X85.811 Y93.912 E.02098
G1 X86.459 Y93.543 E.02338
G1 X87.171 Y93.307 E.02352
G1 X87.939 Y93.216 E.02423
G1 X88.675 Y93.276 E.02316
G1 X89.383 Y93.477 E.02308
G1 X90.034 Y93.808 E.02289
G1 X90.609 Y94.258 E.02289
G1 X91.089 Y94.814 E.02305
G1 X91.456 Y95.457 E.02322
G1 X91.693 Y96.174 E.02367
G1 X91.784 Y96.939 E.02416
G1 X91.725 Y97.672 E.02308
G1 X91.523 Y98.383 E.02315
G1 X91.191 Y99.036 E.02299
G1 X90.664 Y99.689 E.02631
G1 X90.184 Y100.091 E.01963
G1 X89.54 Y100.457 E.02322
G1 X88.831 Y100.692 E.02342
G1 X88.059 Y100.784 E.0244
G1 X87.328 Y100.725 E.023
G1 X86.62 Y100.524 E.02306
G1 X85.923 Y100.167 E.02457
G1 X85.39 Y99.741 E.02139
G1 X84.91 Y99.186 E.02298
G1 X84.543 Y98.541 E.0233
G1 X84.307 Y97.829 E.02351
G1 X84.216 Y97.062 E.02422
G1 X84.275 Y96.328 E.02308
G1 X84.477 Y95.617 E.02315
G1 X84.809 Y94.964 E.02299
G1 X85.26 Y94.389 E.02291
M204 S1000
G1 X85.508 Y94.682 F10800
M204 S800
;TYPE:External perimeter
G1 F1200
G1 X86.054 Y94.201 E.02282
G1 X86.641 Y93.873 E.02108
G1 X87.285 Y93.666 E.02119
G1 X87.977 Y93.591 E.02185
G1 X88.639 Y93.651 E.02081
G1 X89.275 Y93.838 E.02079
G1 X89.858 Y94.141 E.02062
G1 X90.372 Y94.551 E.02061
G1 X90.801 Y95.056 E.02077
G1 X91.126 Y95.639 E.02093
G1 X91.334 Y96.287 E.02134
G1 X91.409 Y96.977 E.02178
G1 X91.349 Y97.636 E.02073
G1 X91.162 Y98.274 E.02086
G1 X90.857 Y98.86 E.0207
G1 X90.541 Y99.257 E.01591
G1 X90.127 Y99.647 E.01784
G1 X89.912 Y99.823 E.00873
G1 X89.359 Y100.127 E.01978
G1 X88.718 Y100.333 E.0211
G1 X88.02 Y100.409 E.02202
G1 X87.364 Y100.349 E.02065
G1 X86.728 Y100.163 E.02078
G1 X86.129 Y99.851 E.02117
G1 X85.626 Y99.447 E.02022
G1 X85.199 Y98.944 E.02069
G1 X84.873 Y98.359 E.021
G1 X84.667 Y97.715 E.02119
G1 X84.591 Y97.023 E.02185
G1 X84.651 Y96.364 E.02074
G1 X84.838 Y95.726 E.02086
G1 X85.143 Y95.14 E.0207
G1 X85.471 Y94.729 E.01649
M204 S1000
G1 X85.393 Y94.299 F10800
;WIPE_START
G1 F8640
G1 X86.054 Y94.201 E-.1817
G1 X86.641 Y93.873 E-.15524
G1 X87.285 Y93.666 E-.15606
G1 X87.977 Y93.591 E-.16093
G1 X88.435 Y93.632 E-.10607
;WIPE_END
G1 E-.04 F2100
G1 Z.6 F720
G1 X90.696 Y129.649 F10800
G1 Z.2 F720
G1 E.8 F2100
M204 S800
;TYPE:Perimeter
G1 F1200
G1 X90.189 Y130.088 E.02104
G1 X89.541 Y130.457 E.02338
G1 X88.829 Y130.693 E.02352
G1 X88.059 Y130.784 E.02431
G1 X87.328 Y130.725 E.023
G1 X86.622 Y130.525 E.02298
G1 X85.969 Y130.194 E.02297
G1 X85.392 Y129.743 E.02297
G1 X84.912 Y129.189 E.02297
G1 X84.544 Y128.543 E.0233
G1 X84.307 Y127.829 E.02359
G1 X84.216 Y127.059 E.02432
G1 X84.276 Y126.325 E.02309
G1 X84.475 Y125.622 E.02291
G1 X84.806 Y124.969 E.02296
G1 X85.257 Y124.392 E.02297
G1 X85.811 Y123.912 E.02297
G1 X86.459 Y123.543 E.02338
G1 X87.171 Y123.307 E.02352
G1 X87.938 Y123.216 E.02422
G1 X88.675 Y123.276 E.02316
G1 X89.383 Y123.477 E.02308
G1 X90.034 Y123.808 E.0229
G1 X90.608 Y124.257 E.02288
G1 X91.152 Y124.905 E.0265
G1 X91.457 Y125.46 E.01986
G1 X91.692 Y126.169 E.02342
G1 X91.784 Y126.941 E.02438
G1 X91.725 Y127.673 E.02302
G1 X91.525 Y128.378 E.02298
G1 X91.194 Y129.031 E.02297
G1 X90.742 Y129.609 E.02302
M204 S1000
G1 X90.084 Y129.682 F10800
M204 S800
;TYPE:External perimeter
G1 F1200
G1 X89.946 Y129.799 E.00566
G1 X89.359 Y130.127 E.02108
G1 X88.715 Y130.333 E.02119
G1 X88.02 Y130.409 E.02194
G1 X87.364 Y130.349 E.02065
G1 X86.73 Y130.164 E.0207
G1 X86.144 Y129.86 E.02069
G1 X85.628 Y129.449 E.02069
G1 X85.201 Y128.946 E.02069
G1 X84.874 Y128.361 E.021
G1 X84.667 Y127.716 E.02126
G1 X84.591 Y127.02 E.02193
G1 X84.651 Y126.361 E.02074
G1 X84.836 Y125.73 E.02063
G1 X85.14 Y125.144 E.02069
G1 X85.551 Y124.628 E.02069
G1 X86.054 Y124.201 E.02069
G1 X86.641 Y123.873 E.02108
G1 X87.285 Y123.667 E.02119
G1 X87.977 Y123.591 E.02185
G1 X88.639 Y123.651 E.02081
G1 X89.275 Y123.838 E.02079
G1 X89.858 Y124.141 E.02062
G1 X90.372 Y124.551 E.02061
G1 X90.822 Y125.086 E.02192
G1 X91.127 Y125.641 E.01986
G1 X91.333 Y126.282 E.0211
G1 X91.409 Y126.98 E.022
G1 X91.349 Y127.636 E.02067
G1 X91.164 Y128.27 E.0207
G1 X90.86 Y128.856 E.02069
G1 X90.449 Y129.372 E.02069
G1 X90.129 Y129.643 E.01315
M204 S1000
G1 X90.123 Y129.859 F10800
;WIPE_START
G1 F8640
G1 X89.946 Y129.799 E-.05556
G1 X89.359 Y130.127 E-.15526
G1 X88.715 Y130.333 E-.15603
G1 X88.02 Y130.409 E-.16156
G1 X87.364 Y130.349 E-.1521
G1 X87.033 Y130.253 E-.0795
;WIPE_END
G1 E-.04 F2100
G1 Z.6 F720
G1 X90.695 Y159.65 F10800
G1 Z.2 F720
G1 E.8 F2100
M204 S800
;TYPE:Perimeter
G1 F1200
G1 X90.189 Y160.088 E.02098
G1 X89.543 Y160.456 E.0233
G1 X88.832 Y160.692 E.02351
G1 X88.059 Y160.784 E.0244
G1 X87.328 Y160.725 E.023
G1 X86.62 Y160.524 E.02306
G1 X85.969 Y160.194 E.02289
G1 X85.392 Y159.743 E.02297
G1 X84.912 Y159.189 E.02297
G1 X84.544 Y158.543 E.0233
G1 X84.308 Y157.832 E.02351
G1 X84.216 Y157.059 E.02439
G1 X84.275 Y156.327 E.02302
G1 X84.476 Y155.62 E.02306
G1 X84.809 Y154.964 E.02306
G1 X85.259 Y154.389 E.0229
G1 X85.811 Y153.912 E.02288
G1 X86.459 Y153.543 E.02338
G1 X87.171 Y153.307 E.02352
G1 X87.938 Y153.216 E.02422
G1 X88.672 Y153.275 E.02308
G1 X89.378 Y153.475 E.02298
G1 X90.036 Y153.809 E.02314
G1 X90.611 Y154.259 E.0229
G1 X91.088 Y154.811 E.02288
G1 X91.457 Y155.459 E.02338
G1 X91.693 Y156.171 E.02351
G1 X91.784 Y156.941 E.02431
G1 X91.725 Y157.673 E.02301
G1 X91.524 Y158.38 E.02306
G1 X91.191 Y159.036 E.02306
G1 X90.74 Y159.611 E.02292
M204 S1000
G1 X90.087 Y159.679 F10800
M204 S800
;TYPE:External perimeter
G1 F1200
G1 X89.946 Y159.799 E.00582
G1 X89.361 Y160.126 E.021
G1 X88.718 Y160.333 E.02118
G1 X88.02 Y160.409 E.02202
G1 X87.364 Y160.349 E.02065
G1 X86.728 Y160.163 E.02078
G1 X86.144 Y159.86 E.02062
G1 X85.628 Y159.449 E.02069
G1 X85.201 Y158.946 E.02069
G1 X84.874 Y158.361 E.021
G1 X84.667 Y157.718 E.02118
G1 X84.591 Y157.02 E.02201
G1 X84.651 Y156.364 E.02067
G1 X84.837 Y155.728 E.02078
G1 X85.143 Y155.14 E.02077
G1 X85.553 Y154.626 E.02062
G1 X86.054 Y154.201 E.02061
G1 X86.641 Y153.873 E.02108
G1 X87.285 Y153.667 E.02119
G1 X87.977 Y153.591 E.02185
G1 X88.636 Y153.651 E.02074
G1 X89.27 Y153.836 E.0207
G1 X89.86 Y154.143 E.02085
G1 X90.374 Y154.553 E.02062
G1 X90.799 Y155.054 E.02061
G1 X91.127 Y155.641 E.02108
G1 X91.333 Y156.284 E.02119
G1 X91.409 Y156.98 E.02193
G1 X91.349 Y157.636 E.02067
G1 X91.163 Y158.272 E.02078
