; generated by PrusaSlicer 2.5.0+win64 on 2022-10-03 at 18:58:27 UTC


;
;
; 

; external perimeters extrusion width = 0.45mm
; perimeters extrusion width = 0.45mm
; infill extrusion width = 0.45mm
; solid infill extrusion width = 0.45mm
; top infill extrusion width = 0.40mm
; first layer extrusion width = 0.42mm

M73 P0 R183
M73 Q0 S192
M201 X1000 Y1000 Z200 E5000 ; sets maximum accelerations, mm/sec^2
M203 X200 Y200 Z12 E120 ; sets maximum feedrates, mm / sec
M204 P1250 R1250 T1250 ; sets acceleration (P, T) and retract acceleration (R), mm/sec^2
M205 X8.00 Y8.00 Z0.40 E4.50 ; sets the jerk limits, mm/sec
M205 S0 T0 ; sets the minimum extruding and travel feed rate, mm/sec
M107
;TYPE:Custom
M862.3 P "MK3S" ; printer model check
M862.1 P0.4 ; nozzle diameter check
M115 U3.11.0 ; tell printer latest fw version
G90 ; use absolute coordinates
M83 ; extruder relative mode
M104 S215 ; set extruder temp
M140 S60 ; set bed temp
M190 S60 ; wait for bed temp
M109 S215 ; wait for extruder temp
G28 W ; home all without mesh bed level
G80 ; mesh bed leveling

G1 Z0.2 F720
G1 Y-3 F1000 ; go outside print area
G92 E0
G1 X60 E9 F1000 ; intro line
G1 X100 E12.5 F1000 ; intro line

G92 E0
M221 S95

; Don't change E values below. Excessive value can damage the printer.

M907 E538 ; set extruder motor current
G21 ; set units to millimeters
G90 ; use absolute coordinates
M83 ; use relative distances for extrusion
M900 K0.05 ; Filament gcode LA 1.5
M900 K30 ; Filament gcode LA 1.0
M107
;LAYER_CHANGE
;Z:0.2
;HEIGHT:0.2
;BEFORE_LAYER_CHANGE
G92 E0.0
;0.2


G1 E-.8 F2100
G1 Z.4 F720
;AFTER_LAYER_CHANGE
;0.2
G1 X111.315 Y89.052 F10800
G1 Z.2 F720
G1 E.8 F2100
M204 S800
;TYPE:Skirt/Brim
;WIDTH:0.42
G1 F1200
G1 X150.144 Y40.515 E1.94889
G1 X151.266 Y39.739 E.04278
G1 X152 Y39.623 E.0233
G1 X178 Y39.623 E.81521
G1 X179.307 Y40.015 E.04278
G1 X180.183 Y41.06 E.04278
G1 X180.377 Y42 E.03008
G1 X180.377 Y168 E3.95064
G1 X179.985 Y169.307 E.04278
G1 X178.94 Y170.183 E.04278
G1 X178 Y170.377 E.03008
G1 X72 Y170.377 E3.32356
G1 X70.693 Y169.985 E.04278
G1 X69.817 Y168.94 E.04278
G1 X69.623 Y168 E.03008
G1 X69.623 Y142 E.81521
G1 X70.144 Y140.515 E.04934
G1 X111.277 Y89.098 E2.06453
M204 S1000
; printing object dol_prawy_przod_x1.stl id:0 copy 0
;WIPE_START
G1 F8640
M73 P0 R182
G1 X113.333 Y86.528 E-.76
;WIPE_END
G1 E-.04 F2100
G1 Z.6 F720
G1 X177.213 Y167.213 F10800
M73 Q0 S191
G1 Z.2 F720
G1 E.8 F2100
M204 S800
;TYPE:Perimeter
;WIDTH:0.419999
G1 F1200
G1 X72.787 Y167.213 E3.27419
G1 X72.787 Y142.276 E.78188
G1 X152.378 Y42.787 E3.99478
G1 X177.213 Y42.787 E.77867
G1 X177.213 Y167.153 E3.8994
M204 S1000
G1 X177.59 Y167.59 F10800
M204 S800
;TYPE:External perimeter
G1 F1200
G1 X72.41 Y167.59 E3.29784
G1 X72.41 Y142.144 E.79785
G1 X152.197 Y42.41 E4.00461
G1 X177.59 Y42.41 E.79618
G1 X177.59 Y167.53 E3.92304
M204 S1000
G1 X177.231 Y167.414 F10800
;WIPE_START
G1 F8640
G1 X174.299 Y167.532 E-.76
;WIPE_END
G1 E-.04 F2100
G1 Z.6 F720
G1 X161.975 Y49.221 F10800
G1 Z.2 F720
G1 E.8 F2100
M204 S800
;TYPE:Perimeter
G1 F1200
G1 X162.67 Y49.275 E.02185
G1 X163.38 Y49.476 E.02315
G1 X164.036 Y49.809 E.02306
G1 X164.613 Y50.261 E.02298
G1 X165.09 Y50.814 E.02289
G1 X165.457 Y51.459 E.02329
G1 X165.693 Y52.171 E.02351
G1 X165.784 Y52.938 E.02422
G1 X165.725 Y53.672 E.02308
G1 X165.523 Y54.383 E.02315
G1 X165.192 Y55.034 E.0229
G1 X164.743 Y55.608 E.02288
G1 X164.186 Y56.089 E.02305
G1 X163.541 Y56.457 E.0233
G1 X162.829 Y56.693 E.02351
G1 X162.062 Y56.784 E.02422
G1 X161.328 Y56.725 E.02308
G1 X160.62 Y56.524 E.02307
G1 X159.964 Y56.191 E.02306
G1 X159.387 Y55.739 E.02298
G1 X158.91 Y55.186 E.02289
G1 X158.543 Y54.541 E.02329
G1 X158.306 Y53.826 E.0236
G1 X158.216 Y53.059 E.02422
G1 X158.275 Y52.327 E.02301
G1 X158.477 Y51.617 E.02314
G1 X158.808 Y50.966 E.02291
G1 X159.257 Y50.391 E.02288
G1 X159.814 Y49.911 E.02305
G1 X160.459 Y49.543 E.0233
G1 X161.174 Y49.306 E.0236
G1 X161.915 Y49.217 E.0234
M204 S1000
G1 X161.894 Y49.598 F10800
M204 S800
;TYPE:External perimeter
G1 F1200
G1 X162.635 Y49.65 E.02329
G1 X163.272 Y49.837 E.02081
G1 X163.86 Y50.143 E.02077
G1 X164.376 Y50.555 E.0207
G1 X164.801 Y51.056 E.02061
G1 X165.127 Y51.641 E.021
G1 X165.333 Y52.285 E.02119
G1 X165.409 Y52.977 E.02185
G1 X165.349 Y53.636 E.02074
G1 X165.162 Y54.274 E.02086
G1 X164.859 Y54.858 E.02062
G1 X164.449 Y55.372 E.02061
G1 X163.944 Y55.801 E.02077
G1 X163.359 Y56.127 E.021
G1 X162.715 Y56.333 E.02119
G1 X162.023 Y56.409 E.02185
G1 X161.364 Y56.349 E.02074
G1 X160.728 Y56.163 E.02078
G1 X160.14 Y55.857 E.02077
G1 X159.624 Y55.445 E.0207
G1 X159.199 Y54.944 E.02062
G1 X158.873 Y54.359 E.021
G1 X158.666 Y53.713 E.02127
G1 X158.591 Y53.02 E.02185
G1 X158.651 Y52.364 E.02067
G1 X158.838 Y51.726 E.02086
G1 X159.141 Y51.142 E.02062
G1 X159.551 Y50.628 E.02061
G1 X160.056 Y50.199 E.02077
G1 X160.641 Y49.873 E.021
G1 X161.287 Y49.666 E.02127
G1 X161.834 Y49.605 E.01727
M204 S1000
G1 X162.085 Y49.247 F10800
;WIPE_START
G1 F8640
G1 X162.635 Y49.65 E-.18519
G1 X163.272 Y49.837 E-.15325
G1 X163.86 Y50.143 E-.15296
G1 X164.376 Y50.555 E-.15241
G1 X164.701 Y50.938 E-.11618
;WIPE_END
G1 E-.04 F2100
G1 Z.6 F720
G1 X161.975 Y79.221 F10800
G1 Z.2 F720
G1 E.8 F2100
M204 S800
;TYPE:Perimeter
G1 F1200
G1 X162.67 Y79.275 E.02185
G1 X163.38 Y79.476 E.02315
G1 X164.036 Y79.809 E.02306
G1 X164.613 Y80.261 E.02298
G1 X165.09 Y80.814 E.02289
G1 X165.457 Y81.459 E.02329
G1 X165.693 Y82.171 E.02351
G1 X165.784 Y82.938 E.02422
G1 X165.725 Y83.672 E.02308
G1 X165.524 Y84.38 E.02307
G1 X165.194 Y85.031 E.02289
G1 X164.743 Y85.608 E.02297
G1 X164.187 Y86.089 E.02306
G1 X163.543 Y86.456 E.02322
G1 X162.832 Y86.692 E.0235
G1 X162.062 Y86.784 E.02431
G1 X161.325 Y86.724 E.02317
G1 X160.62 Y86.524 E.023
G1 X159.964 Y86.191 E.02306
G1 X159.389 Y85.74 E.0229
G1 X158.85 Y85.098 E.02632
G1 X158.543 Y84.541 E.01993
G1 X158.307 Y83.829 E.02352
G1 X158.216 Y83.062 E.02422
G1 X158.275 Y82.328 E.02308
G1 X158.476 Y81.62 E.02307
G1 X158.806 Y80.969 E.02289
G1 X159.257 Y80.392 E.02297
G1 X159.813 Y79.911 E.02306
G1 X160.457 Y79.544 E.02322
G1 X161.171 Y79.307 E.02359
G1 X161.915 Y79.217 E.02349
M204 S1000
G1 X161.853 Y79.603 F10800
M204 S800
;TYPE:External perimeter
G1 F1200
G1 X161.953 Y79.592 E.00315
G1 X162.635 Y79.65 E.02148
G1 X163.272 Y79.837 E.02081
G1 X163.86 Y80.143 E.02077
G1 X164.376 Y80.555 E.0207
G1 X164.801 Y81.056 E.02062
G1 X165.127 Y81.641 E.021
G1 X165.333 Y82.285 E.02119
G1 X165.409 Y82.977 E.02185
G1 X165.349 Y83.636 E.02074
G1 X165.163 Y84.272 E.02078
G1 X164.86 Y84.856 E.02062
G1 X164.449 Y85.372 E.02069
G1 X163.944 Y85.801 E.02077
G1 X163.361 Y86.126 E.02093
G1 X162.718 Y86.333 E.02118
G1 X162.023 Y86.409 E.02193
G1 X161.361 Y86.349 E.02082
G1 X160.728 Y86.163 E.02071
G1 X160.14 Y85.857 E.02077
G1 X159.626 Y85.447 E.02062
G1 X159.18 Y84.916 E.02176
G1 X158.873 Y84.359 E.01993
G1 X158.667 Y83.715 E.02119
G1 X158.591 Y83.023 E.02185
G1 X158.651 Y82.364 E.02074
G1 X158.837 Y81.728 E.02078
G1 X159.14 Y81.144 E.02062
G1 X159.551 Y80.628 E.02069
G1 X160.056 Y80.199 E.02077
G1 X160.639 Y79.874 E.02093
G1 X161.284 Y79.667 E.02126
G1 X161.793 Y79.61 E.01606
M204 S1000
G1 X161.89 Y79.51 F10800
;WIPE_START
G1 F8640
G1 X161.953 Y79.592 E-.03703
G1 X162.635 Y79.65 E-.15816
G1 X163.272 Y79.837 E-.15325
G1 X163.86 Y80.143 E-.15296
G1 X164.376 Y80.555 E-.15241
G1 X164.673 Y80.905 E-.10618
;WIPE_END
G1 E-.04 F2100
G1 Z.6 F720
G1 X165.779 Y113.001 F10800
G1 Z.2 F720
G1 E.8 F2100
M204 S800
;TYPE:Perimeter
G1 F1200
G1 X165.725 Y113.672 E.02113
G1 X165.525 Y114.378 E.02298
G1 X165.194 Y115.031 E.02297
G1 X164.743 Y115.608 E.02297
G1 X164.184 Y116.091 E.02314
G1 X163.54 Y116.457 E.02323
G1 X162.829 Y116.693 E.0235
G1 X162.062 Y116.784 E.02422
G1 X161.328 Y116.725 E.02308
G1 X160.62 Y116.524 E.02307
G1 X159.964 Y116.191 E.02306
G1 X159.387 Y115.739 E.02298
G1 X158.91 Y115.186 E.02289
G1 X158.543 Y114.541 E.02329
G1 X158.306 Y113.826 E.0236
G1 X158.216 Y113.061 E.02415
G1 X158.275 Y112.328 E.02308
G1 X158.476 Y111.62 E.02307
G1 X158.806 Y110.969 E.02289
G1 X159.178 Y110.491 E.01898
G1 X159.627 Y110.067 E.01937
G1 X159.905 Y109.848 E.01108
G1 X160.459 Y109.543 E.01986
G1 X161.171 Y109.307 E.02351
G1 X161.913 Y109.217 E.02342
G1 X162.67 Y109.275 E.0238
G1 X163.38 Y109.476 E.02315
G1 X164.036 Y109.809 E.02306
G1 X164.613 Y110.261 E.02298
G1 X165.09 Y110.814 E.02289
G1 X165.457 Y111.459 E.02329
G1 X165.693 Y112.171 E.02351
G1 X165.784 Y112.941 E.0243
M204 S1000
G1 X165.403 Y113.043 F10800
M204 S800
;TYPE:External perimeter
G1 F1200
G1 X165.349 Y113.636 E.01869
G1 X165.164 Y114.27 E.0207
G1 X164.86 Y114.856 E.02069
G1 X164.449 Y115.372 E.02069
G1 X163.942 Y115.802 E.02085
G1 X163.359 Y116.127 E.02093
G1 X162.715 Y116.333 E.02118
G1 X162.023 Y116.409 E.02185
G1 X161.364 Y116.349 E.02074
G1 X160.728 Y116.163 E.02078
G1 X160.14 Y115.857 E.02077
G1 X159.624 Y115.445 E.0207
G1 X159.199 Y114.944 E.02061
G1 X158.873 Y114.359 E.021
G1 X158.666 Y113.713 E.02127
G1 X158.591 Y113.023 E.02178
G1 X158.651 Y112.364 E.02073
G1 X158.837 Y111.728 E.02078
G1 X159.156 Y111.12 E.02153
G1 X159.471 Y110.727 E.01579
G1 X160.086 Y110.179 E.02585
G1 X160.641 Y109.873 E.01986
G1 X161.285 Y109.667 E.02119
G1 X161.953 Y109.592 E.02108
G1 X162.635 Y109.65 E.02148
G1 X163.272 Y109.837 E.02081
G1 X163.86 Y110.143 E.02077
G1 X164.376 Y110.555 E.0207
G1 X164.801 Y111.056 E.02062
G1 X165.127 Y111.641 E.021
G1 X165.333 Y112.285 E.02118
G1 X165.409 Y112.983 E.02202
M204 S1000
G1 X165.751 Y113.241 F10800
;WIPE_START
G1 F8640
G1 X165.349 Y113.636 E-.15146
G1 X165.164 Y114.27 E-.15246
G1 X164.86 Y114.856 E-.15239
G1 X164.449 Y115.372 E-.15239
G1 X163.949 Y115.796 E-.1513
;WIPE_END
G1 E-.04 F2100
G1 Z.6 F720
G1 X142.975 Y148.221 F10800
G1 Z.2 F720
G1 E.8 F2100
M204 S800
;TYPE:Perimeter
G1 F1200
G1 X143.67 Y148.275 E.02185
G1 X144.383 Y148.477 E.02323
G1 X145.036 Y148.809 E.02299
G1 X145.612 Y149.261 E.02297
G1 X146.09 Y149.814 E.02289
G1 X146.457 Y150.459 E.02329
G1 X146.701 Y151.198 E.0244
G1 X146.784 Y151.938 E.02335
G1 X146.725 Y152.672 E.02308
G1 X146.523 Y153.383 E.02315
G1 X146.192 Y154.034 E.02291
G1 X145.743 Y154.609 E.02288
G1 X145.186 Y155.089 E.02305
G1 X144.543 Y155.456 E.02322
G1 X143.832 Y155.692 E.0235
G1 X143.062 Y155.784 E.02431
G1 X142.328 Y155.725 E.02309
G1 X141.617 Y155.523 E.02315
G1 X140.966 Y155.192 E.02291
G1 X140.392 Y154.743 E.02288
G1 X139.911 Y154.186 E.02305
G1 X139.544 Y153.543 E.02322
G1 X139.308 Y152.832 E.0235
G1 X139.216 Y152.062 E.02431
G1 X139.275 Y151.328 E.02309
G1 X139.476 Y150.62 E.02307
G1 X139.808 Y149.967 E.02297
G1 X140.261 Y149.388 E.02306
G1 X140.904 Y148.848 E.02632
G1 X141.457 Y148.544 E.01978
G1 X142.171 Y148.307 E.02359
G1 X142.915 Y148.217 E.02349
M204 S1000
G1 X142.853 Y148.603 F10800
M204 S800
;TYPE:External perimeter
G1 F1200
G1 X142.953 Y148.592 E.00315
G1 X143.635 Y148.65 E.02148
G1 X144.274 Y148.838 E.02089
G1 X144.86 Y149.143 E.0207
G1 X145.376 Y149.555 E.02069
G1 X145.801 Y150.056 E.02062
G1 X146.127 Y150.641 E.021
G1 X146.336 Y151.294 E.02148
G1 X146.409 Y151.977 E.02156
G1 X146.349 Y152.636 E.02074
G1 X146.162 Y153.274 E.02086
G1 X145.859 Y153.858 E.02062
G1 X145.449 Y154.372 E.02061
G1 X144.944 Y154.801 E.02077
G1 X144.361 Y155.126 E.02093
G1 X143.718 Y155.333 E.02118
G1 X143.023 Y155.409 E.02193
G1 X142.364 Y155.349 E.02074
G1 X141.726 Y155.162 E.02086
G1 X141.142 Y154.859 E.02062
G1 X140.628 Y154.449 E.02061
G1 X140.199 Y153.944 E.02077
G1 X139.874 Y153.361 E.02092
G1 X139.667 Y152.718 E.02118
G1 X139.591 Y152.023 E.02193
G1 X139.651 Y151.364 E.02074
G1 X139.837 Y150.728 E.02078
G1 X140.141 Y150.142 E.02069
G1 X140.555 Y149.624 E.02077
G1 X141.086 Y149.179 E.02176
G1 X141.639 Y148.874 E.01978
G1 X142.284 Y148.667 E.02126
G1 X142.793 Y148.61 E.01606
M204 S1000
G1 X142.89 Y148.51 F10800
;WIPE_START
G1 F8640
G1 X142.953 Y148.592 E-.03702
G1 X143.635 Y148.65 E-.15816
G1 X144.274 Y148.838 E-.15382
G1 X144.86 Y149.143 E-.15242
G1 X145.376 Y149.555 E-.15238
G1 X145.673 Y149.905 E-.1062
;WIPE_END
G1 E-.04 F2100
G1 Z.6 F720
G1 X109.842 Y149.922 F10800
G1 Z.2 F720
G1 E.8 F2100
M204 S800
;TYPE:Perimeter
G1 F1200
G1 X110.338 Y149.309 E.02471
G1 X110.814 Y148.91 E.01948
G1 X111.457 Y148.544 E.02321
G1 X112.171 Y148.307 E.02359
G1 X112.913 Y148.217 E.02343
G1 X113.67 Y148.275 E.0238
G1 X114.383 Y148.477 E.02323
G1 X114.989 Y148.784 E.02133
G1 X115.488 Y149.16 E.01959
G1 X115.687 Y149.334 E.00828
G1 X116.089 Y149.813 E.01963
G1 X116.456 Y150.457 E.02322
G1 X116.693 Y151.171 E.02358
G1 X116.784 Y151.939 E.02424
G1 X116.725 Y152.672 E.02308
G1 X116.524 Y153.38 E.02307
G1 X116.194 Y154.031 E.02289
G1 X115.743 Y154.608 E.02297
G1 X115.186 Y155.089 E.02306
G1 X114.541 Y155.457 E.0233
G1 X113.829 Y155.693 E.02351
G1 X113.062 Y155.784 E.02422
G1 X112.328 Y155.725 E.02308
G1 X111.617 Y155.523 E.02315
G1 X110.966 Y155.192 E.02291
G1 X110.392 Y154.743 E.02288
G1 X109.911 Y154.186 E.02305
G1 X109.544 Y153.543 E.02322
G1 X109.308 Y152.832 E.0235
G1 X109.216 Y152.062 E.02431
G1 X109.275 Y151.328 E.02309
G1 X109.476 Y150.62 E.02307
G1 X109.806 Y149.97 E.02286
M204 S1000
G1 X110.408 Y149.808 F10800
M204 S800
;TYPE:External perimeter
G1 F1200
G1 X110.555 Y149.625 E.00737
G1 X111.056 Y149.199 E.02062
G1 X111.639 Y148.874 E.02092
G1 X112.284 Y148.667 E.02126
G1 X112.953 Y148.592 E.02108
G1 X113.635 Y148.65 E.02148
G1 X114.274 Y148.838 E.02089
G1 X114.813 Y149.118 E.01904
G1 X115.251 Y149.454 E.01732
G1 X115.642 Y149.867 E.01783
G1 X115.821 Y150.086 E.00888
G1 X116.126 Y150.639 E.01978
G1 X116.333 Y151.284 E.02126
G1 X116.409 Y151.977 E.02186
G1 X116.349 Y152.636 E.02074
G1 X116.163 Y153.272 E.02078
G1 X115.86 Y153.856 E.02062
G1 X115.449 Y154.372 E.02069
G1 X114.944 Y154.801 E.02077
G1 X114.359 Y155.127 E.021
G1 X113.715 Y155.333 E.02118
G1 X113.023 Y155.409 E.02185
G1 X112.364 Y155.349 E.02074
G1 X111.726 Y155.162 E.02086
M73 P0 R181
G1 X111.142 Y154.859 E.02062
G1 X110.628 Y154.449 E.02061
G1 X110.199 Y153.944 E.02077
G1 X109.874 Y153.361 E.02092
G1 X109.667 Y152.718 E.02118
G1 X109.591 Y152.023 E.02193
G1 X109.651 Y151.364 E.02074
G1 X109.837 Y150.728 E.02078
G1 X110.14 Y150.144 E.02062
G1 X110.371 Y149.855 E.0116
M204 S1000
G1 X110.314 Y149.593 F10800
;WIPE_START
G1 F8640
G1 X110.555 Y149.625 E-.06813
G1 X111.056 Y149.199 E-.15185
G1 X111.639 Y148.874 E-.15407
G1 X112.284 Y148.667 E-.15658
G1 X112.953 Y148.592 E-.15527
G1 X113.272 Y148.619 E-.0741
;WIPE_END
G1 E-.04 F2100
G1 Z.6 F720
G1 X82.975 Y148.222 F10800
G1 Z.2 F720
G1 E.8 F2100
M204 S800
;TYPE:Perimeter
G1 F1200
G1 X83.67 Y148.275 E.02186
G1 X84.383 Y148.477 E.02323
G1 X85.036 Y148.809 E.02299
G1 X85.611 Y149.259 E.02289
G1 X86.088 Y149.811 E.02288
G1 X86.456 Y150.457 E.0233
G1 X86.716 Y151.28 E.02707
G1 X86.785 Y151.943 E.0209
G1 X86.725 Y152.672 E.02294
G1 X86.524 Y153.38 E.02307
G1 X86.194 Y154.031 E.02289
G1 X85.743 Y154.608 E.02297
G1 X85.186 Y155.089 E.02306
G1 X84.543 Y155.456 E.02322
G1 X83.829 Y155.693 E.02359
G1 X83.062 Y155.784 E.02423
G1 X82.328 Y155.725 E.02308
G1 X81.617 Y155.523 E.02315
G1 X80.964 Y155.191 E.02299
G1 X80.389 Y154.741 E.02289
G1 X79.91 Y154.186 E.02298
G1 X79.544 Y153.543 E.02321
G1 X79.307 Y152.829 E.02359
G1 X79.216 Y152.062 E.02423
G1 X79.275 Y151.328 E.02308
G1 X79.476 Y150.62 E.02307
G1 X79.808 Y149.966 E.02298
G1 X80.258 Y149.391 E.02289
G1 X80.813 Y148.911 E.02305
G1 X81.457 Y148.544 E.02322
G1 X82.168 Y148.308 E.0235
G1 X82.915 Y148.217 E.02357
M204 S1000
G1 X82.852 Y148.603 F10800
M204 S800
;TYPE:External perimeter
G1 F1200
G1 X82.953 Y148.592 E.00318
G1 X83.635 Y148.65 E.02148
G1 X84.274 Y148.838 E.02089
G1 X84.86 Y149.143 E.0207
M73 Q0 S190
G1 X85.374 Y149.553 E.02062
G1 X85.799 Y150.054 E.02061
G1 X86.126 Y150.639 E.021
G1 X86.216 Y150.912 E.00902
G1 X86.355 Y151.455 E.01757
G1 X86.409 Y151.981 E.01657
G1 X86.349 Y152.636 E.02064
G1 X86.163 Y153.272 E.02078
G1 X85.86 Y153.856 E.02062
G1 X85.449 Y154.372 E.02069
G1 X84.944 Y154.801 E.02077
G1 X84.361 Y155.126 E.02092
G1 X83.716 Y155.333 E.02126
G1 X83.023 Y155.409 E.02186
G1 X82.364 Y155.349 E.02074
G1 X81.726 Y155.162 E.02086
G1 X81.14 Y154.857 E.0207
