; generated by PrusaSlicer 2.5.0+win64 on 2022-10-03 at 18:50:41 UTC


;
;
; 

; external perimeters extrusion width = 0.45mm
; perimeters extrusion width = 0.45mm
; infill extrusion width = 0.45mm
; solid infill extrusion width = 0.45mm
; top infill extrusion width = 0.40mm
; first layer extrusion width = 0.42mm

; external perimeters extrusion width = 0.45mm
; perimeters extrusion width = 0.45mm
; infill extrusion width = 0.45mm
; solid infill extrusion width = 0.45mm
; top infill extrusion width = 0.40mm
; first layer extrusion width = 0.42mm

M73 P0 R21
M73 Q0 S22
M201 X1000 Y1000 Z200 E5000 ; sets maximum accelerations, mm/sec^2
M203 X200 Y200 Z12 E120 ; sets maximum feedrates, mm / sec
M204 P1250 R1250 T1250 ; sets acceleration (P, T) and retract acceleration (R), mm/sec^2
M205 X8.00 Y8.00 Z0.40 E4.50 ; sets the jerk limits, mm/sec
M205 S0 T0 ; sets the minimum extruding and travel feed rate, mm/sec
M107
;TYPE:Custom
M862.3 P "MK3S" ; printer model check
M862.1 P0.4 ; nozzle diameter check
M115 U3.11.0 ; tell printer latest fw version
G90 ; use absolute coordinates
M83 ; extruder relative mode
M104 S215 ; set extruder temp
M140 S60 ; set bed temp
M190 S60 ; wait for bed temp
M109 S215 ; wait for extruder temp
G28 W ; home all without mesh bed level
G80 ; mesh bed leveling

G1 Z0.2 F720
G1 Y-3 F1000 ; go outside print area
G92 E0
G1 X60 E9 F1000 ; intro line
G1 X100 E12.5 F1000 ; intro line

G92 E0
M221 S95

; Don't change E values below. Excessive value can damage the printer.

M907 E538 ; set extruder motor current
G21 ; set units to millimeters
G90 ; use absolute coordinates
M83 ; use relative distances for extrusion
M900 K0.05 ; Filament gcode LA 1.5
M900 K30 ; Filament gcode LA 1.0
M107
;LAYER_CHANGE
;Z:0.2
;HEIGHT:0.2
;BEFORE_LAYER_CHANGE
G92 E0.0
;0.2


M73 Q0 S21
G1 E-.8 F2100
G1 Z.4 F720
;AFTER_LAYER_CHANGE
;0.2
G1 X114.539 Y97.027 F10800
G1 Z.2 F720
G1 E.8 F2100
M204 S800
;TYPE:Skirt/Brim
;WIDTH:0.42
G1 F1200
G1 X115.756 Y95.645 E.05772
G1 X117.427 Y94.246 E.06833
G1 X119.008 Y93.291 E.05794
G1 X121.101 Y92.437 E.07085
G1 X122.334 Y92.119 E.03995
G1 X123.444 Y91.939 E.03525
G1 X125.223 Y91.848 E.05586
G1 X148.546 Y93.118 E.73234
G1 X149.814 Y93.31 E.0402
G1 X151.72 Y93.848 E.06212
G1 X153.044 Y94.414 E.04512
G1 X154.41 Y95.196 E.04938
G1 X155.477 Y95.972 E.04136
G1 X156.307 Y96.703 E.03468
G1 X157.234 Y97.687 E.04238
G1 X158.037 Y98.736 E.04142
G1 X158.737 Y99.87 E.04179
G1 X159.325 Y101.085 E.04232
G1 X159.769 Y102.301 E.0406
G1 X160.088 Y103.537 E.04002
G1 X160.284 Y104.778 E.03941
G1 X160.36 Y106.032 E.03939
G1 X160.305 Y107.415 E.04339
G1 X160.126 Y108.681 E.04008
G1 X159.838 Y109.876 E.03855
G1 X159.424 Y111.078 E.03985
G1 X158.888 Y112.252 E.04048
G1 X158.219 Y113.397 E.04159
G1 X157.433 Y114.477 E.04186
G1 X156.432 Y115.578 E.04666
G1 X155.41 Y116.485 E.04284
G1 X153.668 Y117.659 E.06585
G1 X152.33 Y118.318 E.04677
G1 X151.108 Y118.765 E.04079
G1 X149.632 Y119.131 E.0477
G1 X148.256 Y119.314 E.04352
G1 X146.302 Y119.326 E.06125
G1 X123.661 Y118.085 E.71097
G1 X122.393 Y117.893 E.04021
G1 X120.484 Y117.354 E.0622
G1 X119.173 Y116.793 E.0447
G1 X117.805 Y116.012 E.04939
G1 X116.917 Y115.378 E.03422
G1 X116.012 Y114.603 E.03734
G1 X114.805 Y113.313 E.0554
G1 X113.536 Y111.449 E.07069
G1 X112.736 Y109.756 E.05872
G1 X112.119 Y107.666 E.06834
G1 X111.923 Y106.422 E.03949
M73 Q1 S21
G1 X111.85 Y105.273 E.0361
G1 X111.883 Y104.009 E.03964
G1 X112.017 Y102.893 E.03522
M73 P1 R21
G1 X112.392 Y101.25 E.05286
G1 X112.781 Y100.129 E.03719
G1 X113.322 Y98.946 E.04079
G1 X114.507 Y97.077 E.06937
M204 S1000
G1 X114.825 Y97.279 F10800
M204 S800
G1 F1200
G1 X116.013 Y95.921 E.05657
G1 X117.653 Y94.548 E.06707
G1 X119.17 Y93.632 E.05558
G1 X121.209 Y92.798 E.06907
G1 X122.407 Y92.488 E.03881
G1 X123.5 Y92.312 E.03469
G1 X125.208 Y92.225 E.05363
G1 X148.497 Y93.492 E.7313
G1 X149.729 Y93.677 E.03906
G1 X151.601 Y94.206 E.06101
G1 X152.873 Y94.75 E.04337
G1 X153.995 Y95.377 E.04029
G1 X155.043 Y96.11 E.04011
G1 X156.043 Y96.973 E.04142
G1 X156.944 Y97.929 E.04118
G1 X157.724 Y98.947 E.04023
G1 X158.405 Y100.048 E.04059
G1 X158.976 Y101.228 E.04111
G1 X159.408 Y102.409 E.03943
G1 X159.693 Y103.498 E.0353
G1 X159.909 Y104.816 E.04185
G1 X159.983 Y106.034 E.03828
G1 X159.949 Y107.152 E.03508
G1 X159.798 Y108.373 E.03857
G1 X159.54 Y109.543 E.03755
G1 X159.163 Y110.709 E.03841
G1 X158.664 Y111.859 E.03933
G1 X158.035 Y112.986 E.04046
G1 X157.138 Y114.242 E.0484
G1 X156.26 Y115.218 E.04115
G1 X155.278 Y116.108 E.04157
G1 X154.15 Y116.927 E.04371
G1 X153.03 Y117.574 E.04053
G1 X151.109 Y118.368 E.06517
G1 X149.799 Y118.714 E.04249
G1 X148.237 Y118.937 E.0495
G1 X146.323 Y118.949 E.06
G1 X123.815 Y117.722 E.70676
G1 X122.478 Y117.525 E.04237
G1 X120.603 Y116.996 E.06109
G1 X119.343 Y116.457 E.04297
G1 X118.216 Y115.828 E.04046
G1 X117.151 Y115.083 E.04075
G1 X116.261 Y114.32 E.03675
G1 X115.095 Y113.072 E.05358
G1 X113.859 Y111.255 E.06889
G1 X113.092 Y109.63 E.05634
G1 X112.488 Y107.593 E.06663
G1 X112.298 Y106.385 E.03834
G1 X112.227 Y105.254 E.03553
G1 X112.259 Y104.041 E.03804
G1 X112.39 Y102.943 E.03468
G1 X112.754 Y101.355 E.05106
G1 X113.132 Y100.265 E.03618
G1 X113.658 Y99.116 E.03962
G1 X114.792 Y97.33 E.06635
M204 S1000
;WIPE_START
G1 F8640
G1 X116.013 Y95.921 E-.43029
G1 X117.107 Y95.005 E-.32971
;WIPE_END
G1 E-.04 F2100
G1 Z.6 F720
G1 X137.455 Y103.524 F10800
G1 Z.2 F720
G1 E.8 F2100
M204 S800
G1 F1200
G1 X137.769 Y102.568 E.03157
G1 X138.175 Y101.652 E.03142
G1 X138.675 Y100.771 E.03174
G1 X139.249 Y99.961 E.03114
G1 X139.905 Y99.205 E.03136
G1 X140.624 Y98.525 E.03106
G1 X141.429 Y97.902 E.03191
G1 X142.292 Y97.363 E.03189
G1 X143.218 Y96.909 E.03234
G1 X144.162 Y96.558 E.03158
G1 X145.118 Y96.307 E.03098
G1 X146.07 Y96.153 E.03023
G1 X147.06 Y96.091 E.03112
G1 X147.92 Y96.114 E.02695
G1 X148.904 Y96.232 E.03108
G1 X149.889 Y96.451 E.03166
G1 X150.844 Y96.766 E.03152
G1 X151.758 Y97.171 E.03133
G1 X152.621 Y97.661 E.03113
G1 X153.437 Y98.236 E.03129
G1 X154.19 Y98.887 E.03122
G1 X154.884 Y99.619 E.03163
G1 X155.507 Y100.425 E.03192
G1 X156.046 Y101.288 E.03189
G1 X156.5 Y102.214 E.03234
G1 X156.851 Y103.158 E.03158
G1 X157.102 Y104.114 E.031
G1 X157.256 Y105.07 E.03035
G1 X157.318 Y106.041 E.03054
G1 X157.295 Y106.914 E.02736
G1 X157.177 Y107.898 E.0311
G1 X156.959 Y108.881 E.03157
G1 X156.644 Y109.837 E.03155
G1 X156.238 Y110.753 E.03141
G1 X155.738 Y111.633 E.03173
G1 X155.163 Y112.445 E.0312
G1 X154.509 Y113.199 E.03131
G1 X153.789 Y113.88 E.03105
G1 X152.984 Y114.503 E.03191
G1 X152.121 Y115.041 E.03189
G1 X151.195 Y115.496 E.03234
G1 X150.251 Y115.846 E.03158
G1 X149.295 Y116.097 E.03098
G1 X148.345 Y116.251 E.03019
G1 X147.366 Y116.314 E.03075
G1 X146.495 Y116.291 E.02732
G1 X145.511 Y116.172 E.03109
G1 X144.528 Y115.954 E.03155
G1 X143.59 Y115.647 E.03095
G1 X142.674 Y115.243 E.03141
G1 X141.793 Y114.744 E.03174
G1 X140.977 Y114.169 E.0313
G1 X140.224 Y113.518 E.03121
G1 X139.534 Y112.791 E.03141
G1 X138.908 Y111.982 E.03208
G1 X138.368 Y111.117 E.03196
G1 X137.913 Y110.191 E.03235
G1 X137.563 Y109.247 E.03158
G1 X137.312 Y108.291 E.03098
G1 X137.158 Y107.341 E.03019
G1 X137.095 Y106.362 E.03075
G1 X137.118 Y105.491 E.02733
G1 X137.237 Y104.507 E.03108
G1 X137.442 Y103.583 E.02967
M204 S1000
G1 X137.81 Y103.665 F10800
M204 S800
G1 F1200
G1 X138.124 Y102.695 E.03197
G1 X138.516 Y101.813 E.03024
G1 X138.998 Y100.966 E.03056
G1 X139.551 Y100.187 E.02997
G1 X140.183 Y99.46 E.03019
G1 X140.876 Y98.805 E.02989
G1 X141.652 Y98.206 E.03073
G1 X142.483 Y97.689 E.0307
G1 X143.375 Y97.252 E.03114
G1 X144.284 Y96.915 E.0304
G1 X145.205 Y96.674 E.02982
G1 X146.12 Y96.527 E.02908
G1 X147.075 Y96.468 E.02999
G1 X147.9 Y96.491 E.02588
G1 X148.849 Y96.606 E.02996
G1 X149.798 Y96.817 E.03049
G1 X150.717 Y97.121 E.03035
G1 X151.596 Y97.512 E.03016
G1 X152.427 Y97.984 E.02997
G1 X153.211 Y98.538 E.03012
G1 X153.936 Y99.166 E.03006
G1 X154.604 Y99.872 E.03046
G1 X155.203 Y100.648 E.03074
G1 X155.72 Y101.479 E.0307
G1 X156.157 Y102.371 E.03114
G1 X156.494 Y103.28 E.0304
G1 X156.735 Y104.2 E.02983
G1 X156.883 Y105.12 E.02921
G1 X156.942 Y106.057 E.02942
G1 X156.919 Y106.894 E.02628
G1 X156.804 Y107.844 E.02998
G1 X156.593 Y108.79 E.0304
G1 X156.289 Y109.71 E.03037
G1 X155.898 Y110.591 E.03024
G1 X155.415 Y111.438 E.03055
G1 X154.861 Y112.219 E.03003
G1 X154.23 Y112.945 E.03015
G1 X153.537 Y113.599 E.02989
G1 X152.762 Y114.198 E.03074
G1 X151.93 Y114.716 E.0307
G1 X151.038 Y115.153 E.03114
G1 X150.129 Y115.49 E.0304
G1 X149.209 Y115.73 E.02982
G1 X148.294 Y115.878 E.02905
G1 X147.351 Y115.937 E.02963
G1 X146.515 Y115.914 E.02624
G1 X145.566 Y115.799 E.02998
G1 X144.619 Y115.588 E.03039
G1 X143.717 Y115.292 E.02978
G1 X142.835 Y114.902 E.03024
G1 X141.987 Y114.421 E.03057
G1 X141.202 Y113.866 E.03013
G1 X140.478 Y113.239 E.03005
M73 Q2 S21
G1 X139.815 Y112.539 E.03024
G1 X139.212 Y111.759 E.03089
G1 X138.693 Y110.926 E.03076
G1 X138.256 Y110.034 E.03115
G1 X137.92 Y109.125 E.0304
M73 P2 R21
G1 X137.679 Y108.205 E.02982
G1 X137.531 Y107.29 E.02905
G1 X137.472 Y106.347 E.02963
G1 X137.495 Y105.51 E.02625
G1 X137.61 Y104.561 E.02996
G1 X137.797 Y103.723 E.02693
M204 S1000
G1 X138.164 Y103.805 F10800
M204 S800
G1 F1200
G1 X138.479 Y102.822 E.03236
G1 X138.856 Y101.976 E.02907
G1 X139.321 Y101.162 E.02939
G1 X139.853 Y100.413 E.0288
G1 X140.461 Y99.715 E.02903
G1 X141.128 Y99.086 E.02872
G1 X141.875 Y98.511 E.02956
G1 X142.674 Y98.014 E.02951
G1 X143.532 Y97.595 E.02995
G1 X144.406 Y97.272 E.02922
G1 X145.291 Y97.042 E.02866
G1 X146.171 Y96.901 E.02794
G1 X147.089 Y96.845 E.02886
G1 X147.88 Y96.867 E.02481
G1 X148.794 Y96.979 E.02885
G1 X149.706 Y97.183 E.02932
G1 X150.589 Y97.476 E.02917
G1 X151.434 Y97.852 E.02899
G1 X152.232 Y98.307 E.0288
G1 X152.986 Y98.841 E.02896
G1 X153.682 Y99.445 E.02889
G1 X154.323 Y100.124 E.02928
G1 X154.898 Y100.87 E.02955
G1 X155.395 Y101.669 E.02951
G1 X155.814 Y102.528 E.02995
G1 X156.137 Y103.402 E.02921
G1 X156.368 Y104.287 E.02867
G1 X156.509 Y105.171 E.02807
G1 X156.565 Y106.071 E.02829
G1 X156.542 Y106.875 E.02521
G1 X156.43 Y107.789 E.02886
G1 X156.227 Y108.698 E.02923
G1 X155.934 Y109.582 E.02919
G1 X155.557 Y110.429 E.02906
G1 X155.093 Y111.243 E.02937
G1 X154.559 Y111.993 E.02886
G1 X153.952 Y112.69 E.02898
G1 X153.286 Y113.318 E.02872
G1 X152.539 Y113.894 E.02956
G1 X151.74 Y114.39 E.02951
G1 X150.881 Y114.81 E.02995
G1 X150.007 Y115.133 E.02921
G1 X149.123 Y115.363 E.02866
G1 X148.244 Y115.504 E.02791
G1 X147.337 Y115.56 E.0285
G1 X146.534 Y115.538 E.02517
G1 X145.62 Y115.426 E.02886
G1 X144.728 Y115.227 E.02865
G1 X143.844 Y114.936 E.0292
G1 X142.996 Y114.561 E.02906
G1 X142.182 Y114.098 E.02939
G1 X141.428 Y113.564 E.02896
G1 X140.732 Y112.96 E.02888
G1 X140.095 Y112.287 E.02907
G1 X139.517 Y111.536 E.02971
G1 X139.019 Y110.735 E.02957
G1 X138.599 Y109.877 E.02995
G1 X138.277 Y109.003 E.02921
G1 X138.046 Y108.118 E.02866
G1 X137.905 Y107.239 E.02791
G1 X137.849 Y106.332 E.0285
G1 X137.872 Y105.53 E.02517
G1 X137.983 Y104.617 E.02884
G1 X138.151 Y103.864 E.02418
M204 S1000
G1 X138.519 Y103.946 F10800
M204 S800
G1 F1200
G1 X138.828 Y102.967 E.0322
G1 X139.189 Y102.154 E.02789
G1 X139.634 Y101.372 E.02821
G1 X140.144 Y100.653 E.02764
G1 X140.727 Y99.983 E.02785
G1 X141.38 Y99.367 E.02813
G1 X142.097 Y98.816 E.02837
G1 X142.864 Y98.34 E.02832
G1 X143.689 Y97.938 E.02875
G1 X144.528 Y97.629 E.02803
G1 X145.377 Y97.409 E.0275
G1 X146.221 Y97.275 E.0268
G1 X147.103 Y97.221 E.02773
G1 X147.86 Y97.244 E.02374
G1 X148.738 Y97.352 E.02773
G1 X149.614 Y97.549 E.02815
G1 X150.445 Y97.824 E.02743
G1 X151.255 Y98.185 E.02781
G1 X152.037 Y98.63 E.02821
G1 X152.76 Y99.143 E.02779
G1 X153.427 Y99.723 E.02772
G1 X154.042 Y100.375 E.02811
G1 X154.593 Y101.092 E.02837
G1 X155.069 Y101.86 E.02832
G1 X155.471 Y102.684 E.02875
G1 X155.78 Y103.523 E.02803
G1 X156 Y104.372 E.02751
G1 X156.135 Y105.22 E.02692
G1 X156.188 Y106.085 E.02717
G1 X156.165 Y106.855 E.02413
G1 X156.057 Y107.733 E.02775
G1 X155.866 Y108.589 E.0275
G1 X155.586 Y109.438 E.02803
G1 X155.225 Y110.251 E.02789
G1 X154.78 Y111.032 E.0282
G1 X154.269 Y111.753 E.02769
G1 X153.687 Y112.422 E.02781
G1 X153.034 Y113.037 E.02812
G1 X152.317 Y113.589 E.02837
G1 X151.549 Y114.065 E.02832
G1 X150.725 Y114.467 E.02875
G1 X149.886 Y114.775 E.02803
G1 X149.037 Y114.996 E.0275
G1 X148.194 Y115.13 E.02677
G1 X147.322 Y115.183 E.02738
G1 X146.554 Y115.161 E.02409
G1 X145.676 Y115.053 E.02775
G1 X144.82 Y114.861 E.0275
G1 X143.971 Y114.581 E.02803
G1 X143.158 Y114.22 E.02789
G1 X142.376 Y113.775 E.02821
G1 X141.654 Y113.262 E.02779
G1 X140.987 Y112.682 E.02771
G1 X140.376 Y112.035 E.0279
G1 X139.821 Y111.314 E.02852
G1 X139.344 Y110.545 E.02837
G1 X138.943 Y109.721 E.02876
G1 X138.634 Y108.882 E.02803
G1 X138.413 Y108.033 E.02751
G1 X138.279 Y107.189 E.02677
G1 X138.226 Y106.318 E.02738
G1 X138.248 Y105.55 E.0241
G1 X138.356 Y104.672 E.02773
G1 X138.505 Y104.004 E.02144
M204 S1000
G1 X138.873 Y104.087 F10800
M204 S800
G1 F1200
G1 X138.913 Y103.908 E.00575
G1 X139.183 Y103.094 E.02687
G1 X139.529 Y102.316 E.02671
G1 X139.957 Y101.567 E.02704
G1 X140.446 Y100.879 E.02647
G1 X141.005 Y100.237 E.02669
G1 X141.631 Y99.648 E.02695
G1 X142.319 Y99.121 E.02718
G1 X143.054 Y98.666 E.02712
G1 X143.845 Y98.282 E.02755
G1 X144.649 Y97.987 E.02685
G1 X145.462 Y97.776 E.02634
G1 X146.27 Y97.648 E.02566
G1 X147.117 Y97.598 E.0266
G1 X147.84 Y97.62 E.02267
G1 X148.682 Y97.725 E.02662
G1 X149.522 Y97.915 E.02698
G1 X150.317 Y98.179 E.02627
G1 X151.093 Y98.525 E.02665
G1 X151.842 Y98.952 E.02703
G1 X152.534 Y99.444 E.02661
G1 X153.172 Y100.001 E.02656
G1 X153.761 Y100.626 E.02693
G1 X154.288 Y101.314 E.02718
G1 X154.743 Y102.05 E.02712
G1 X155.128 Y102.84 E.02755
G1 X155.423 Y103.644 E.02685
G1 X155.633 Y104.458 E.02635
G1 X155.761 Y105.27 E.02578
G1 X155.811 Y106.099 E.02605
G1 X155.789 Y106.835 E.02306
G1 X155.684 Y107.678 E.02664
G1 X155.5 Y108.497 E.02634
G1 X155.231 Y109.31 E.02686
G1 X154.884 Y110.089 E.02671
G1 X154.457 Y110.837 E.02702
G1 X153.967 Y111.527 E.02652
G1 X153.409 Y112.167 E.02664
G1 X152.783 Y112.756 E.02695
G1 X152.095 Y113.284 E.02718
G1 X151.359 Y113.739 E.02712
G1 X150.569 Y114.123 E.02755
G1 X149.765 Y114.418 E.02685
G1 X148.952 Y114.628 E.02635
G1 X148.144 Y114.756 E.02563
G1 X147.308 Y114.806 E.02626
G1 X146.574 Y114.784 E.02302
G1 X145.731 Y114.68 E.02663
G1 X144.912 Y114.496 E.02634
G1 X144.099 Y114.226 E.02686
G1 X143.32 Y113.88 E.02671
G1 X142.572 Y113.452 E.02703
G1 X141.88 Y112.96 E.02661
G1 X141.242 Y112.404 E.02655
G1 X140.657 Y111.783 E.02673
G1 X140.126 Y111.092 E.02734
G1 X139.67 Y110.355 E.02717
G1 X139.286 Y109.564 E.02756
G1 X138.991 Y108.761 E.02685
G1 X138.781 Y107.947 E.02635
G1 X138.653 Y107.14 E.02563
G1 X138.603 Y106.304 E.02625
G1 X138.625 Y105.57 E.02302
G1 X138.729 Y104.728 E.02661
G1 X138.86 Y104.146 E.0187
M204 S1000
G1 X139.228 Y104.228 F10800
M204 S800
G1 F1200
G1 X139.279 Y104 E.00733
G1 X139.538 Y103.222 E.0257
G1 X139.87 Y102.479 E.02554
G1 X140.279 Y101.763 E.02586
G1 X140.748 Y101.106 E.0253
G1 X141.283 Y100.492 E.02552
G1 X141.882 Y99.93 E.02577
G1 X142.54 Y99.426 E.02599
G1 X143.244 Y98.992 E.02593
G1 X144 Y98.625 E.02636
G1 X144.769 Y98.344 E.02566
G1 X145.547 Y98.144 E.02519
G1 X146.319 Y98.022 E.02451
G1 X147.13 Y97.975 E.02547
G1 X147.819 Y97.997 E.02161
G1 X148.626 Y98.098 E.0255
G1 X149.429 Y98.28 E.02581
G1 X150.188 Y98.534 E.0251
G1 X150.931 Y98.865 E.02548
G1 X151.646 Y99.275 E.02585
G1 X152.307 Y99.746 E.02544
G1 X152.917 Y100.279 E.02539
G1 X153.479 Y100.878 E.02576
G1 X153.983 Y101.536 E.02599
G1 X154.417 Y102.24 E.02593
G1 X154.784 Y102.996 E.02636
G1 X155.065 Y103.765 E.02566
G1 X155.265 Y104.543 E.02519
G1 X155.387 Y105.319 E.02464
G1 X155.434 Y106.113 E.02493
G1 X155.412 Y106.814 E.02199
G1 X155.311 Y107.622 E.02552
G1 X155.134 Y108.405 E.02518
G1 X154.876 Y109.182 E.02569
G1 X154.544 Y109.926 E.02554
G1 X154.134 Y110.642 E.02585
G1 X153.665 Y111.3 E.02535
G1 X153.131 Y111.912 E.02547
G1 X152.532 Y112.475 E.02577
G1 X151.873 Y112.979 E.02599
G1 X151.17 Y113.413 E.02593
