; generated by PrusaSlicer 2.5.0+win64 on 2022-10-03 at 18:52:07 UTC


;
;
; 

; external perimeters extrusion width = 0.45mm
; perimeters extrusion width = 0.45mm
; infill extrusion width = 0.45mm
; solid infill extrusion width = 0.45mm
; top infill extrusion width = 0.40mm
; first layer extrusion width = 0.42mm

M73 P0 R89
M73 Q0 S90
M201 X1000 Y1000 Z200 E5000 ; sets maximum accelerations, mm/sec^2
M203 X200 Y200 Z12 E120 ; sets maximum feedrates, mm / sec
M204 P1250 R1250 T1250 ; sets acceleration (P, T) and retract acceleration (R), mm/sec^2
M205 X8.00 Y8.00 Z0.40 E4.50 ; sets the jerk limits, mm/sec
M205 S0 T0 ; sets the minimum extruding and travel feed rate, mm/sec
M107
;TYPE:Custom
M862.3 P "MK3S" ; printer model check
M862.1 P0.4 ; nozzle diameter check
M115 U3.11.0 ; tell printer latest fw version
G90 ; use absolute coordinates
M83 ; extruder relative mode
M104 S215 ; set extruder temp
M140 S60 ; set bed temp
M190 S60 ; wait for bed temp
M109 S215 ; wait for extruder temp
G28 W ; home all without mesh bed level
G80 ; mesh bed leveling

G1 Z0.2 F720
G1 Y-3 F1000 ; go outside print area
G92 E0
G1 X60 E9 F1000 ; intro line
G1 X100 E12.5 F1000 ; intro line

G92 E0
M221 S95

; Don't change E values below. Excessive value can damage the printer.

M907 E538 ; set extruder motor current
G21 ; set units to millimeters
G90 ; use absolute coordinates
M83 ; use relative distances for extrusion
M900 K0.05 ; Filament gcode LA 1.5
M900 K30 ; Filament gcode LA 1.0
M107
;LAYER_CHANGE
;Z:0.2
;HEIGHT:0.2
;BEFORE_LAYER_CHANGE
G92 E0.0
;0.2


G1 E-.8 F2100
G1 Z.4 F720
;AFTER_LAYER_CHANGE
;0.2
G1 X73.015 Y83.693 F10800
G1 Z.2 F720
G1 E.8 F2100
M204 S800
;TYPE:Skirt/Brim
;WIDTH:0.42
G1 F1200
G1 X74.06 Y82.817 E.04278
G1 X75 Y82.623 E.03008
G1 X175 Y82.623 E3.13543
G1 X176.307 Y83.015 E.04278
M73 Q0 S89
G1 X177.183 Y84.06 E.04278
G1 X177.377 Y85 E.03008
G1 X177.377 Y125 E1.25417
G1 X176.985 Y126.307 E.04278
G1 X175.94 Y127.183 E.04278
G1 X175 Y127.377 E.03008
G1 X75 Y127.377 E3.13543
G1 X73.693 Y126.985 E.04278
G1 X72.817 Y125.94 E.04278
G1 X72.623 Y125 E.03008
G1 X72.623 Y85 E1.25417
G1 X72.997 Y83.75 E.0409
M204 S1000
; printing object flansza_walka_X4.stl id:0 copy 0
;WIPE_START
G1 F8640
G1 X74.06 Y82.817 E-.32671
G1 X75 Y82.623 E-.22155
G1 X75.917 Y82.623 E-.21174
;WIPE_END
G1 E-.04 F2100
G1 Z.6 F720
G1 X174.213 Y124.213 F10800
G1 Z.2 F720
G1 E.8 F2100
M204 S800
;TYPE:Perimeter
;WIDTH:0.419999
G1 F1200
G1 X75.787 Y124.213 E3.08607
G1 X75.787 Y85.787 E1.20481
G1 X174.213 Y85.787 E3.08607
G1 X174.213 Y124.153 E1.20293
M204 S1000
M73 P0 R88
G1 X174.59 Y124.59 F10800
M204 S800
;TYPE:External perimeter
G1 F1200
G1 X75.41 Y124.59 E3.10971
G1 X75.41 Y85.41 E1.22846
G1 X174.59 Y85.41 E3.10971
G1 X174.59 Y124.53 E1.22658
M204 S1000
G1 X174.193 Y124.54 F10800
;WIPE_START
G1 F8640
G1 X171.299 Y124.532 E-.76
;WIPE_END
G1 E-.04 F2100
G1 Z.6 F720
G1 X165.974 Y92.097 F10800
G1 Z.2 F720
G1 E.8 F2100
M204 S800
;TYPE:Perimeter
G1 F1200
G1 X166.506 Y91.869 E.01813
G1 X167.389 Y91.72 E.02809
G1 X167.904 Y91.74 E.01617
G1 X168.434 Y91.851 E.01699
G1 X169.038 Y92.098 E.02045
G1 X169.568 Y92.447 E.0199
G1 X170.021 Y92.893 E.01993
G1 X170.382 Y93.423 E.0201
G1 X170.631 Y94.006 E.01987
G1 X170.765 Y94.642 E.02038
G1 X170.772 Y95.29 E.0203
G1 X170.648 Y95.937 E.02066
G1 X170.402 Y96.539 E.02038
G1 X170.053 Y97.068 E.01989
G1 X169.604 Y97.522 E.02002
G1 X169.081 Y97.879 E.01986
G1 X168.497 Y98.13 E.01993
G1 X167.856 Y98.266 E.02055
G1 X167.21 Y98.272 E.02025
G1 X166.563 Y98.148 E.02065
G1 X165.961 Y97.902 E.02038
G1 X165.43 Y97.551 E.01997
G1 X165.039 Y97.168 E.01717
G1 X164.618 Y96.577 E.02275
G1 X164.369 Y95.994 E.01987
G1 X164.235 Y95.358 E.02038
G1 X164.228 Y94.71 E.0203
G1 X164.352 Y94.063 E.02066
G1 X164.598 Y93.461 E.02038
G1 X164.949 Y92.93 E.01997
G1 X165.396 Y92.477 E.01994
G1 X165.919 Y92.12 E.01986
M204 S1000
G1 X166.364 Y92.337 F10800
M204 S800
;TYPE:External perimeter
G1 F1200
G1 X166.648 Y92.218 E.00966
G1 X167.445 Y92.093 E.02529
G1 X167.827 Y92.109 E.01198
G1 X168.357 Y92.22 E.01699
G1 X168.89 Y92.444 E.01811
G1 X169.355 Y92.758 E.0176
G1 X169.752 Y93.158 E.01766
G1 X170.067 Y93.63 E.01781
G1 X170.282 Y94.148 E.01759
G1 X170.399 Y94.75 E.01921
G1 X170.395 Y95.287 E.01685
G1 X170.279 Y95.86 E.01832
G1 X170.056 Y96.39 E.01803
G1 X169.742 Y96.855 E.01759
G1 X169.34 Y97.253 E.01773
G1 X168.874 Y97.564 E.01758
G1 X168.354 Y97.781 E.01766
G1 X167.784 Y97.895 E.01823
G1 X167.213 Y97.895 E.01791
G1 X166.64 Y97.779 E.01832
G1 X166.11 Y97.556 E.01803
G1 X165.644 Y97.24 E.01767
G1 X165.248 Y96.842 E.01758
G1 X164.933 Y96.37 E.01781
G1 X164.718 Y95.852 E.01759
G1 X164.605 Y95.286 E.01808
G1 X164.605 Y94.713 E.01798
G1 X164.721 Y94.14 E.01832
G1 X164.944 Y93.61 E.01803
G1 X165.26 Y93.144 E.01767
G1 X165.66 Y92.747 E.01766
G1 X166.126 Y92.436 E.01758
G1 X166.308 Y92.36 E.00619
M204 S1000
G1 X166.39 Y92.03 F10800
;WIPE_START
G1 F8640
G1 X166.648 Y92.218 E-.08503
G1 X167.445 Y92.093 E-.18627
G1 X167.827 Y92.109 E-.08825
G1 X168.357 Y92.22 E-.12511
G1 X168.89 Y92.444 E-.13335
G1 X169.355 Y92.758 E-.12958
G1 X169.392 Y92.797 E-.01241
;WIPE_END
G1 E-.04 F2100
G1 Z.6 F720
G1 X144.947 Y106.66 F10800
G1 Z.2 F720
M73 P1 R88
M73 Q1 S89
G1 E.8 F2100
M204 S800
;TYPE:Perimeter
G1 F1200
G1 X144.686 Y105.785 E.02866
G1 X144.615 Y105.057 E.02291
G1 X144.663 Y104.421 E.02001
G1 X144.775 Y103.883 E.01722
G1 X144.917 Y103.395 E.01594
G1 X145.281 Y102.677 E.02526
G1 X145.735 Y102.09 E.02325
G1 X146.018 Y101.799 E.01272
G1 X146.506 Y101.394 E.0199
G1 X147.279 Y100.967 E.02767
G1 X148.108 Y100.707 E.02723
G1 X148.943 Y100.615 E.02634
G1 X149.735 Y100.677 E.02491
G1 X150.543 Y100.896 E.02626
G1 X151.323 Y101.281 E.02729
G1 X152.029 Y101.829 E.028
G1 X152.606 Y102.506 E.0279
G1 X153.033 Y103.279 E.02767
G1 X153.268 Y104.025 E.02454
G1 X153.358 Y104.67 E.02039
G1 X153.385 Y105.05 E.01197
G1 X153.323 Y105.735 E.02155
G1 X153.104 Y106.543 E.02626
G1 X152.719 Y107.323 E.02729
G1 X152.171 Y108.029 E.028
G1 X151.494 Y108.606 E.0279
G1 X150.721 Y109.033 E.02767
G1 X149.893 Y109.293 E.02723
G1 X149.057 Y109.385 E.02634
G1 X148.265 Y109.323 E.02491
G1 X147.454 Y109.104 E.02635
G1 X146.676 Y108.718 E.02722
G1 X145.971 Y108.171 E.02799
G1 X145.472 Y107.589 E.02404
G1 X145.204 Y107.164 E.01575
G1 X144.965 Y106.718 E.01587
M204 S1000
G1 X145.251 Y106.386 F10800
M204 S800
;TYPE:External perimeter
G1 F1200
G1 X145.061 Y105.748 E.02087
G1 X144.991 Y105.021 E.02291
G1 X145.038 Y104.455 E.01782
G1 X145.206 Y103.746 E.02283
G1 X145.323 Y103.426 E.01068
G1 X145.617 Y102.848 E.02035
G1 X146.03 Y102.325 E.02088
G1 X146.259 Y102.089 E.01032
G1 X146.747 Y101.684 E.0199
G1 X147.457 Y101.3 E.0253
G1 X148.216 Y101.068 E.02488
G1 X148.979 Y100.991 E.02405
G1 X149.701 Y101.052 E.02272
G1 X150.44 Y101.258 E.02407
G1 X151.152 Y101.617 E.02499
G1 X151.793 Y102.124 E.02563
G1 X152.316 Y102.747 E.02551
G1 X152.7 Y103.457 E.0253
G1 X152.907 Y104.134 E.02219
G1 X153.009 Y105.016 E.02787
G1 X152.948 Y105.701 E.02155
G1 X152.742 Y106.44 E.02407
G1 X152.383 Y107.152 E.02499
G1 X151.876 Y107.793 E.02563
G1 X151.253 Y108.316 E.02551
G1 X150.543 Y108.7 E.0253
G1 X149.784 Y108.932 E.02488
G1 X149.021 Y109.009 E.02405
G1 X148.299 Y108.948 E.02272
G1 X147.557 Y108.741 E.02415
G1 X146.848 Y108.383 E.02492
G1 X146.207 Y107.876 E.02562
G1 X145.762 Y107.348 E.02164
G1 X145.299 Y106.541 E.02918
G1 X145.269 Y106.444 E.00319
M204 S1000
G1 X144.857 Y106.319 F10800
;WIPE_START
G1 F8640
G1 X145.061 Y105.748 E-.16754
G1 X144.991 Y105.021 E-.16871
G1 X145.038 Y104.455 E-.13126
G1 X145.206 Y103.746 E-.16814
G1 X145.323 Y103.426 E-.07866
G1 X145.412 Y103.25 E-.04569
;WIPE_END
G1 E-.04 F2100
G1 Z.6 F720
G1 X165.974 Y112.097 F10800
G1 Z.2 F720
G1 E.8 F2100
M204 S800
;TYPE:Perimeter
G1 F1200
G1 X166.506 Y111.869 E.01813
G1 X167.389 Y111.72 E.02809
G1 X167.904 Y111.74 E.01617
G1 X168.434 Y111.851 E.01699
G1 X169.038 Y112.098 E.02045
G1 X169.57 Y112.449 E.01998
G1 X170.021 Y112.894 E.01985
G1 X170.382 Y113.423 E.0201
G1 X170.631 Y114.006 E.01987
G1 X170.765 Y114.642 E.02038
G1 X170.772 Y115.29 E.0203
G1 X170.648 Y115.937 E.02066
G1 X170.402 Y116.539 E.02038
G1 X170.051 Y117.07 E.01997
G1 X169.604 Y117.523 E.01994
G1 X169.081 Y117.879 E.01985
G1 X168.494 Y118.131 E.02002
G1 X167.858 Y118.265 E.0204
G1 X167.21 Y118.272 E.0203
G1 X166.563 Y118.148 E.02066
G1 X165.961 Y117.902 E.02038
G1 X165.432 Y117.553 E.01989
G1 X164.979 Y117.107 E.01993
G1 X164.618 Y116.577 E.02011
G1 X164.369 Y115.994 E.01987
G1 X164.235 Y115.358 E.02038
G1 X164.228 Y114.71 E.0203
G1 X164.352 Y114.063 E.02066
G1 X164.598 Y113.461 E.02038
G1 X164.949 Y112.93 E.01997
G1 X165.396 Y112.477 E.01994
G1 X165.919 Y112.121 E.01986
M204 S1000
G1 X166.386 Y112.327 F10800
M204 S800
;TYPE:External perimeter
G1 F1200
G1 X166.648 Y112.218 E.00891
G1 X167.445 Y112.093 E.02529
G1 X167.827 Y112.109 E.01198
G1 X168.357 Y112.22 E.01699
G1 X168.89 Y112.444 E.01811
G1 X169.356 Y112.76 E.01767
G1 X169.752 Y113.158 E.01758
G1 X170.067 Y113.63 E.01781
G1 X170.282 Y114.148 E.01759
G1 X170.399 Y114.75 E.01921
G1 X170.395 Y115.287 E.01685
G1 X170.279 Y115.86 E.01832
G1 X170.056 Y116.39 E.01803
G1 X169.74 Y116.856 E.01767
G1 X169.34 Y117.253 E.01766
G1 X168.874 Y117.564 E.01758
G1 X168.352 Y117.782 E.01774
G1 X167.786 Y117.895 E.01808
G1 X167.213 Y117.895 E.01798
G1 X166.64 Y117.779 E.01832
G1 X166.11 Y117.556 E.01803
G1 X165.645 Y117.242 E.01759
G1 X165.248 Y116.842 E.01766
G1 X164.933 Y116.37 E.01781
G1 X164.718 Y115.852 E.01759
G1 X164.605 Y115.286 E.01808
G1 X164.605 Y114.713 E.01797
G1 X164.721 Y114.14 E.01832
G1 X164.944 Y113.61 E.01803
G1 X165.26 Y113.144 E.01767
G1 X165.66 Y112.747 E.01766
G1 X166.126 Y112.436 E.01758
G1 X166.331 Y112.35 E.00694
M204 S1000
G1 X166.41 Y112.044 F10800
;WIPE_START
G1 F8640
G1 X166.648 Y112.218 E-.07947
G1 X167.445 Y112.093 E-.18627
G1 X167.827 Y112.109 E-.08825
G1 X168.357 Y112.22 E-.12511
G1 X168.89 Y112.444 E-.13335
G1 X169.356 Y112.76 E-.13016
G1 X169.41 Y112.813 E-.01738
;WIPE_END
G1 E-.04 F2100
G1 Z.6 F720
G1 X122.287 Y115.956 F10800
G1 Z.2 F720
G1 E.8 F2100
M204 S800
;TYPE:Perimeter
G1 F1200
G1 X121.778 Y115.817 E.01653
G1 X121.256 Y115.648 E.01719
G1 X120.744 Y115.454 E.01719
G1 X120.244 Y115.236 E.01708
G1 X119.752 Y114.993 E.01723
G1 X119.275 Y114.727 E.01711
G1 X118.81 Y114.438 E.01715
G1 X118.359 Y114.127 E.01719
G1 X117.926 Y113.795 E.01711
G1 X117.507 Y113.441 E.01719
G1 X117.109 Y113.07 E.01707
G1 X116.725 Y112.676 E.01723
G1 X116.364 Y112.267 E.01711
G1 X116.022 Y111.84 E.01715
G1 X115.701 Y111.397 E.01715
G1 X115.402 Y110.939 E.01715
G1 X115.126 Y110.467 E.01715
G1 X114.867 Y109.973 E.01749
G1 X114.633 Y109.464 E.01755
G1 X114.424 Y108.941 E.01767
G1 X114.24 Y108.408 E.01767
G1 X114.084 Y107.87 E.01756
G1 X113.954 Y107.321 E.01771
G1 X113.853 Y106.77 E.01755
G1 X113.778 Y106.211 E.01767
G1 X113.73 Y105.618 E.01866
G1 X113.713 Y105.017 E.01887
G1 X113.758 Y104.001 E.03186
G1 X113.825 Y103.411 E.01863
G1 X113.921 Y102.844 E.01804
G1 X114.04 Y102.303 E.01734
G1 X114.183 Y101.777 E.01711
G1 X114.352 Y101.256 E.01715
G1 X114.691 Y100.411 E.02855
G1 X115.006 Y99.754 E.02285
G1 X115.273 Y99.274 E.01723
G1 X115.873 Y98.359 E.03429
G1 X116.204 Y97.927 E.01708
G1 X116.558 Y97.508 E.01719
G1 X116.932 Y97.107 E.01719
G1 X117.322 Y96.727 E.01708
G1 X117.734 Y96.363 E.01723
G1 X118.161 Y96.021 E.01715
G1 X118.602 Y95.702 E.01707
G1 X119.061 Y95.402 E.01719
G1 X119.533 Y95.126 E.01715
G1 X120.026 Y94.868 E.01745
G1 X120.538 Y94.632 E.01767
G1 X121.058 Y94.424 E.01755
G1 X121.591 Y94.24 E.01767
G1 X122.131 Y94.084 E.01763
G1 X122.679 Y93.954 E.01767
G1 X123.231 Y93.852 E.01759
G1 X123.79 Y93.778 E.01769
G1 X124.699 Y93.721 E.02856
G1 X125.429 Y93.721 E.02287
G1 X126.012 Y93.759 E.01834
G1 X126.589 Y93.825 E.0182
G1 X127.136 Y93.917 E.01741
G1 X127.696 Y94.04 E.01795
G1 X128.222 Y94.183 E.0171
G1 X128.745 Y94.352 E.01723
G1 X129.254 Y94.545 E.01708
G1 X129.758 Y94.765 E.01723
G1 X130.246 Y95.006 E.01707
G1 X130.725 Y95.273 E.01719
G1 X131.19 Y95.562 E.01715
G1 X131.641 Y95.873 E.01719
G1 X132.074 Y96.205 E.01711
G1 X132.493 Y96.559 E.01719
G1 X132.893 Y96.932 E.01715
G1 X133.273 Y97.322 E.01708
G1 X133.637 Y97.734 E.01723
G1 X133.977 Y98.159 E.01708
G1 X134.3 Y98.604 E.01723
G1 X134.597 Y99.06 E.01708
G1 X134.874 Y99.533 E.01719
G1 X135.133 Y100.027 E.01749
G1 X135.367 Y100.536 E.01755
G1 X135.576 Y101.059 E.01767
G1 X135.76 Y101.591 E.01763
G1 X135.916 Y102.131 E.01763
G1 X136.046 Y102.679 E.01767
G1 X136.147 Y103.23 E.01755
G1 X136.222 Y103.789 E.01768
G1 X136.27 Y104.38 E.01862
G1 X136.287 Y104.986 E.01898
G1 X136.242 Y106 E.03183
G1 X136.175 Y106.589 E.01859
G1 X136.079 Y107.156 E.01804
G1 X135.96 Y107.697 E.01734
G1 X135.817 Y108.222 E.01707
G1 X135.648 Y108.744 E.01719
G1 X135.454 Y109.256 E.01719
G1 X135.236 Y109.756 E.01708
G1 X134.993 Y110.248 E.01723
G1 X134.728 Y110.724 E.01708
G1 X134.127 Y111.641 E.03437
G1 X133.796 Y112.073 E.01708
G1 X133.441 Y112.493 E.01723
G1 X133.07 Y112.891 E.01708
G1 X132.676 Y113.275 E.01723
G1 X132.266 Y113.637 E.01715
G1 X131.841 Y113.977 E.01707
G1 X131.397 Y114.299 E.01719
G1 X130.939 Y114.598 E.01715
G1 X130.467 Y114.874 E.01715
G1 X129.973 Y115.133 E.01749
G1 X129.464 Y115.367 E.01755
G1 X128.941 Y115.576 E.01767
G1 X128.408 Y115.76 E.01767
G1 X127.87 Y115.916 E.01755
G1 X127.322 Y116.046 E.01767
G1 X126.769 Y116.147 E.01763
G1 X126.211 Y116.222 E.01764
G1 X125.618 Y116.27 E.01866
G1 X125.016 Y116.287 E.0189
G1 X123.999 Y116.242 E.03191
G1 X123.411 Y116.175 E.01856
G1 X122.84 Y116.078 E.01817
G1 X122.345 Y115.969 E.01588
M204 S1000
G1 X122.086 Y115.51 F10800
M204 S800
;TYPE:External perimeter
G1 F1200
G1 X121.373 Y115.29 E.0234
G1 X120.878 Y115.101 E.01662
G1 X120.395 Y114.891 E.0165
G1 X119.92 Y114.655 E.01665
G1 X119.459 Y114.398 E.01654
G1 X119.01 Y114.118 E.01658
G1 X118.574 Y113.817 E.01662
G1 X118.155 Y113.496 E.01654
G1 X117.751 Y113.153 E.01662
G1 X117.366 Y112.794 E.0165
G1 X116.996 Y112.414 E.01665
G1 X116.647 Y112.018 E.01654
G1 X116.317 Y111.605 E.01658
G1 X116.007 Y111.177 E.01658
G1 X115.718 Y110.734 E.01658
G1 X115.451 Y110.277 E.01658
G1 X115.202 Y109.799 E.01691
G1 X114.976 Y109.307 E.01696
G1 X114.774 Y108.801 E.01708
G1 X114.597 Y108.286 E.01708
G1 X114.446 Y107.766 E.01697
G1 X114.321 Y107.234 E.01712
G1 X114.224 Y106.702 E.01697
G1 X114.152 Y106.162 E.01709
G1 X114.106 Y105.588 E.01805
G1 X114.09 Y105.007 E.01824
G1 X114.134 Y104.019 E.03101
G1 X114.2 Y103.455 E.01779
G1 X114.293 Y102.907 E.01744
G1 X114.408 Y102.385 E.01675
G1 X114.547 Y101.876 E.01654
G1 X114.71 Y101.373 E.01658
G1 X114.898 Y100.879 E.01658
G1 X115.344 Y99.922 E.03311
G1 X115.603 Y99.458 E.01666
G1 X115.881 Y99.011 E.0165
G1 X116.183 Y98.574 E.01665
G1 X116.503 Y98.156 E.0165
G1 X116.846 Y97.752 E.01662
G1 X117.207 Y97.364 E.01662
G1 X117.585 Y96.997 E.0165
G1 X117.983 Y96.646 E.01666
G1 X118.396 Y96.316 E.01658
G1 X118.822 Y96.007 E.0165
G1 X119.266 Y95.718 E.01662
G1 X119.723 Y95.451 E.01658
G1 X120.2 Y95.203 E.01687
G1 X120.695 Y94.975 E.01708
G1 X121.198 Y94.774 E.01696
G1 X121.713 Y94.597 E.01708
G1 X122.235 Y94.446 E.01704
G1 X122.766 Y94.321 E.01708
G1 X123.299 Y94.223 E.017
G1 X123.84 Y94.152 E.0171
G1 X124.722 Y94.097 E.02773
G1 X125.428 Y94.098 E.02212
G1 X125.988 Y94.135 E.01759
G1 X126.545 Y94.2 E.01759
G1 X127.074 Y94.289 E.01681
G1 X127.615 Y94.408 E.01737
G1 X128.123 Y94.546 E.01651
G1 X128.628 Y94.711 E.01665
G1 X129.12 Y94.898 E.0165
G1 X129.607 Y95.11 E.01665
G1 X130.078 Y95.344 E.0165
G1 X130.541 Y95.602 E.01662
G1 X130.99 Y95.882 E.01658
G1 X131.426 Y96.183 E.01662
G1 X131.845 Y96.504 E.01654
G1 X132.249 Y96.847 E.01662
G1 X132.636 Y97.207 E.01658
G1 X133.003 Y97.585 E.0165
G1 X133.354 Y97.983 E.01665
G1 X133.683 Y98.394 E.0165
G1 X133.994 Y98.824 E.01665
G1 X134.281 Y99.265 E.0165
G1 X134.549 Y99.723 E.01662
G1 X134.798 Y100.201 E.01691
G1 X135.024 Y100.693 E.01696
G1 X135.226 Y101.199 E.01708
G1 X135.403 Y101.713 E.01704
G1 X135.554 Y102.235 E.01705
G1 X135.679 Y102.766 E.01708
G1 X135.776 Y103.298 E.01697
G1 X135.848 Y103.838 E.01709
G1 X135.894 Y104.411 E.01801
