; generated by PrusaSlicer 2.5.0+win64 on 2022-10-03 at 18:52:33 UTC


;
;
; 

; external perimeters extrusion width = 0.45mm
; perimeters extrusion width = 0.45mm
; infill extrusion width = 0.45mm
; solid infill extrusion width = 0.45mm
; top infill extrusion width = 0.40mm
; first layer extrusion width = 0.42mm

M73 P0 R111
M73 Q0 S115
M201 X1000 Y1000 Z200 E5000 ; sets maximum accelerations, mm/sec^2
M203 X200 Y200 Z12 E120 ; sets maximum feedrates, mm / sec
M204 P1250 R1250 T1250 ; sets acceleration (P, T) and retract acceleration (R), mm/sec^2
M205 X8.00 Y8.00 Z0.40 E4.50 ; sets the jerk limits, mm/sec
M205 S0 T0 ; sets the minimum extruding and travel feed rate, mm/sec
M107
;TYPE:Custom
M862.3 P "MK3S" ; printer model check
M862.1 P0.4 ; nozzle diameter check
M115 U3.11.0 ; tell printer latest fw version
G90 ; use absolute coordinates
M83 ; extruder relative mode
M104 S215 ; set extruder temp
M140 S60 ; set bed temp
M190 S60 ; wait for bed temp
M109 S215 ; wait for extruder temp
G28 W ; home all without mesh bed level
G80 ; mesh bed leveling

G1 Z0.2 F720
G1 Y-3 F1000 ; go outside print area
G92 E0
G1 X60 E9 F1000 ; intro line
G1 X100 E12.5 F1000 ; intro line

G92 E0
M221 S95

; Don't change E values below. Excessive value can damage the printer.

M907 E538 ; set extruder motor current
G21 ; set units to millimeters
G90 ; use absolute coordinates
M83 ; use relative distances for extrusion
M900 K0.05 ; Filament gcode LA 1.5
M900 K30 ; Filament gcode LA 1.0
M107
;LAYER_CHANGE
;Z:0.2
;HEIGHT:0.2
;BEFORE_LAYER_CHANGE
G92 E0.0
;0.2


G1 E-.8 F2100
G1 Z.4 F720
;AFTER_LAYER_CHANGE
;0.2
G1 X73.015 Y53.693 F10800
G1 Z.2 F720
G1 E.8 F2100
M204 S800
;TYPE:Skirt/Brim
;WIDTH:0.42
G1 F1200
G1 X74.06 Y52.817 E.04278
G1 X75 Y52.623 E.03008
G1 X175 Y52.623 E3.13543
G1 X176.307 Y53.015 E.04278
G1 X177.183 Y54.06 E.04278
G1 X177.377 Y55 E.03008
G1 X177.377 Y95 E1.25417
G1 X176.985 Y96.307 E.04278
G1 X176.426 Y96.902 E.02559
G1 X96.426 Y156.902 E3.13543
G1 X95 Y157.377 E.04714
G1 X75 Y157.377 E.62709
G1 X73.693 Y156.985 E.04278
G1 X72.817 Y155.94 E.04278
G1 X72.623 Y155 E.03008
G1 X72.623 Y55 E3.13543
G1 X72.997 Y53.75 E.0409
M204 S1000
; printing object front_dol_X4.stl id:0 copy 0
;WIPE_START
M73 P0 R110
G1 F8640
G1 X74.06 Y52.817 E-.32671
G1 X75 Y52.623 E-.22155
G1 X75.917 Y52.623 E-.21174
;WIPE_END
G1 E-.04 F2100
G1 Z.6 F720
G1 X75.787 Y154.213 F10800
G1 Z.2 F720
G1 E.8 F2100
M204 S800
;TYPE:Perimeter
;WIDTH:0.419999
G1 F1200
G1 X75.787 Y55.787 E3.08607
G1 X174.213 Y55.787 E3.08607
G1 X174.213 Y94.606 E1.21715
G1 X94.738 Y154.213 E3.11486
M73 Q0 S114
G1 X75.847 Y154.213 E.5923
M204 S1000
G1 X75.41 Y154.59 F10800
M204 S800
;TYPE:External perimeter
G1 F1200
G1 X75.41 Y55.41 E3.10971
G1 X174.59 Y55.41 E3.10971
G1 X174.59 Y94.795 E1.23489
G1 X94.863 Y154.59 E3.12471
G1 X75.47 Y154.59 E.60806
M204 S1000
G1 X75.544 Y154.213 F10800
;WIPE_START
G1 F8640
G1 X75.468 Y151.299 E-.76
;WIPE_END
G1 E-.04 F2100
G1 Z.6 F720
G1 X161.857 Y68.113 F10800
G1 Z.2 F720
G1 E.8 F2100
M204 S800
;TYPE:Perimeter
G1 F1200
G1 X161.336 Y67.689 E.02106
G1 X160.869 Y67.127 E.02289
G1 X160.518 Y66.484 E.02297
G1 X160.275 Y65.672 E.02658
G1 X160.215 Y65.051 E.01956
G1 X160.284 Y64.283 E.02419
G1 X160.499 Y63.562 E.02358
G1 X160.85 Y62.902 E.02343
G1 X161.313 Y62.334 E.02301
G1 X161.877 Y61.866 E.02297
G1 X162.519 Y61.517 E.02289
G1 X163.22 Y61.296 E.02306
G1 X163.919 Y61.216 E.02205
G1 X164.717 Y61.284 E.02512
G1 X165.441 Y61.5 E.02368
G1 X166.096 Y61.848 E.02326
G1 X166.664 Y62.311 E.02299
G1 X167.132 Y62.875 E.02297
G1 X167.484 Y63.521 E.02306
G1 X167.704 Y64.22 E.02299
G1 X167.787 Y65 E.0246
G1 X167.716 Y65.717 E.02258
G1 X167.501 Y66.438 E.02358
G1 X167.15 Y67.098 E.02343
G1 X166.687 Y67.666 E.02301
G1 X166.123 Y68.134 E.02297
G1 X165.481 Y68.483 E.02289
G1 X164.672 Y68.725 E.02648
G1 X164.045 Y68.785 E.01975
G1 X163.353 Y68.723 E.02179
G1 X162.726 Y68.553 E.02037
G1 X162.457 Y68.456 E.00897
G1 X161.903 Y68.151 E.01983
M204 S1000
G1 X162.025 Y67.771 F10800
M204 S800
;TYPE:External perimeter
G1 F1200
G1 X161.578 Y67.4 E.01821
G1 X161.163 Y66.89 E.02061
G1 X160.852 Y66.308 E.02069
G1 X160.658 Y65.672 E.02086
G1 X160.591 Y65.015 E.02071
G1 X160.659 Y64.322 E.02184
G1 X160.859 Y63.675 E.02121
G1 X161.18 Y63.084 E.0211
G1 X161.602 Y62.577 E.0207
G1 X162.114 Y62.16 E.02069
G1 X162.694 Y61.851 E.02061
G1 X163.328 Y61.658 E.02078
G1 X163.956 Y61.591 E.01981
G1 X164.68 Y61.659 E.02279
G1 X165.327 Y61.86 E.02124
G1 X165.914 Y62.179 E.02094
G1 X166.422 Y62.6 E.0207
G1 X166.839 Y63.112 E.02069
G1 X167.15 Y63.696 E.02077
G1 X167.342 Y64.328 E.0207
G1 X167.41 Y65 E.02119
G1 X167.341 Y65.678 E.02136
G1 X167.141 Y66.325 E.02121
G1 X166.82 Y66.916 E.0211
G1 X166.398 Y67.423 E.0207
G1 X165.886 Y67.84 E.02069
G1 X165.306 Y68.149 E.02061
G1 X164.636 Y68.349 E.02192
G1 X164.013 Y68.409 E.01963
G1 X163.392 Y68.348 E.01956
G1 X162.639 Y68.126 E.02463
G1 X162.072 Y67.809 E.02037
M204 S1000
G1 X161.666 Y67.946 F10800
;WIPE_START
G1 F8640
G1 X161.578 Y67.4 E-.14799
G1 X161.163 Y66.89 E-.15181
G1 X160.852 Y66.308 E-.15238
G1 X160.658 Y65.672 E-.15361
G1 X160.591 Y65.015 E-.15251
G1 X160.591 Y65.008 E-.00171
;WIPE_END
G1 E-.04 F2100
G1 Z.6 F720
G1 X160.547 Y83.471 F10800
G1 Z.2 F720
G1 E.8 F2100
M204 S800
;TYPE:Perimeter
G1 F1200
G1 X160.85 Y82.902 E.0202
G1 X161.312 Y82.336 E.02292
G1 X161.873 Y81.869 E.02288
G1 X162.622 Y81.475 E.02656
G1 X163.22 Y81.296 E.01956
G1 X163.911 Y81.217 E.02181
G1 X164.657 Y81.278 E.02347
G1 X165.286 Y81.451 E.02043
G1 X165.541 Y81.543 E.0085
G1 X166.098 Y81.85 E.01993
G1 X166.664 Y82.312 E.02292
G1 X167.131 Y82.873 E.02288
G1 X167.484 Y83.521 E.02313
G1 X167.704 Y84.22 E.023
M73 P1 R110
G1 X167.787 Y85 E.0246
G1 X167.716 Y85.717 E.02258
G1 X167.5 Y86.44 E.02367
G1 X167.152 Y87.096 E.02326
G1 X166.691 Y87.662 E.02291
G1 X166.123 Y88.133 E.02313
G1 X165.481 Y88.483 E.0229
G1 X164.78 Y88.704 E.02306
G1 X164.051 Y88.785 E.02299
G1 X163.28 Y88.716 E.02427
G1 X162.559 Y88.5 E.02359
G1 X161.902 Y88.15 E.02334
G1 X161.336 Y87.688 E.02292
G1 X160.869 Y87.127 E.02288
G1 X160.518 Y86.484 E.02297
G1 X160.275 Y85.672 E.02658
G1 X160.215 Y85.046 E.01972
G1 X160.308 Y84.168 E.02768
G1 X160.519 Y83.524 E.02126
M204 S1000
G1 X160.984 Y83.44 F10800
M204 S800
;TYPE:External perimeter
G1 F1200
G1 X161.18 Y83.084 E.01274
G1 X161.6 Y82.578 E.02062
G1 X162.11 Y82.163 E.02061
G1 X162.696 Y81.85 E.02085
G1 X163.363 Y81.651 E.02183
G1 X163.959 Y81.591 E.01877
G1 X164.62 Y81.653 E.02083
G1 X165.359 Y81.873 E.02416
G1 X165.916 Y82.18 E.01993
G1 X166.422 Y82.6 E.02063
G1 X166.837 Y83.11 E.02061
G1 X167.15 Y83.696 E.02085
G1 X167.342 Y84.328 E.02071
G1 X167.41 Y85 E.02119
G1 X167.341 Y85.678 E.02136
G1 X167.14 Y86.327 E.02129
G1 X166.821 Y86.914 E.02094
G1 X166.402 Y87.42 E.02062
G1 X165.886 Y87.84 E.02085
G1 X165.306 Y88.149 E.02062
G1 X164.672 Y88.342 E.02078
G1 X164.015 Y88.409 E.02071
G1 X163.319 Y88.341 E.02192
G1 X162.673 Y88.14 E.02121
G1 X162.084 Y87.82 E.02101
G1 X161.578 Y87.4 E.02062
G1 X161.163 Y86.89 E.02061
G1 X160.852 Y86.308 E.02069
G1 X160.658 Y85.672 E.02086
G1 X160.599 Y85.101 E.01799
G1 X160.646 Y84.451 E.02044
G1 X160.784 Y83.912 E.01745
G1 X160.874 Y83.639 E.00902
M73 Q1 S114
G1 X160.955 Y83.493 E.00524
M204 S1000
G1 X160.765 Y83.105 F10800
;WIPE_START
G1 F8640
G1 X161.18 Y83.084 E-.10764
G1 X161.6 Y82.578 E-.15188
G1 X162.11 Y82.163 E-.15179
G1 X162.696 Y81.85 E-.15353
G1 X163.363 Y81.651 E-.16074
G1 X163.512 Y81.636 E-.03443
;WIPE_END
G1 E-.04 F2100
G1 Z.6 F720
G1 X131.36 Y82.295 F10800
G1 Z.2 F720
G1 E.8 F2100
M204 S800
;TYPE:Perimeter
G1 F1200
G1 X131.875 Y81.868 E.02099
G1 X132.617 Y81.477 E.0263
G1 X133.22 Y81.296 E.01972
G1 X133.913 Y81.217 E.02188
G1 X134.657 Y81.278 E.02341
G1 X135.29 Y81.452 E.02057
G1 X135.541 Y81.543 E.00836
G1 X136.095 Y81.848 E.01986
G1 X136.662 Y82.309 E.02291
G1 X137.131 Y82.873 E.02297
G1 X137.483 Y83.518 E.02306
G1 X137.704 Y84.22 E.02307
G1 X137.776 Y84.854 E.02002
G1 X137.729 Y85.593 E.02321
G1 X137.693 Y85.829 E.00747
G1 X137.501 Y86.438 E.02002
G1 X137.152 Y87.095 E.02335
G1 X136.689 Y87.664 E.023
G1 X136.127 Y88.131 E.02289
G1 X135.484 Y88.482 E.02297
G1 X134.78 Y88.704 E.02315
G1 X134.051 Y88.785 E.023
G1 X133.28 Y88.716 E.02427
G1 X132.559 Y88.5 E.02359
G1 X131.904 Y88.152 E.02326
G1 X131.338 Y87.691 E.02291
G1 X130.868 Y87.125 E.02305
G1 X130.518 Y86.484 E.02289
G1 X130.275 Y85.672 E.02657
G1 X130.215 Y85.046 E.01972
G1 X130.307 Y84.171 E.02759
G1 X130.499 Y83.562 E.02002
G1 X130.848 Y82.905 E.02335
G1 X131.314 Y82.334 E.0231
M204 S1000
G1 X131.709 Y82.49 F10800
M204 S800
;TYPE:External perimeter
G1 F1200
G1 X132.112 Y82.161 E.01631
G1 X132.692 Y81.852 E.02061
G1 X133.189 Y81.699 E.0163
G1 X133.951 Y81.592 E.02413
G1 X134.62 Y81.653 E.02109
G1 X135.177 Y81.812 E.01813
G1 X135.944 Y82.199 E.02695
G1 X136.42 Y82.598 E.01948
G1 X136.837 Y83.11 E.02069
G1 X137.149 Y83.694 E.02077
G1 X137.342 Y84.328 E.02078
G1 X137.4 Y84.891 E.01773
G1 X137.354 Y85.554 E.02086
G1 X137.127 Y86.359 E.02621
G1 X136.821 Y86.914 E.01986
G1 X136.4 Y87.422 E.0207
G1 X135.89 Y87.837 E.02061
G1 X135.308 Y88.148 E.02069
G1 X134.672 Y88.342 E.02086
G1 X134.015 Y88.409 E.02071
G1 X133.319 Y88.341 E.02192
G1 X132.673 Y88.14 E.02121
G1 X132.086 Y87.821 E.02094
G1 X131.58 Y87.402 E.02062
G1 X131.161 Y86.888 E.02077
G1 X130.852 Y86.308 E.02062
G1 X130.658 Y85.672 E.02086
G1 X130.599 Y85.105 E.01789
G1 X130.646 Y84.448 E.02064
G1 X130.871 Y83.645 E.02615
G1 X131.179 Y83.086 E.01999
G1 X131.602 Y82.577 E.02078
G1 X131.662 Y82.528 E.00243
M204 S1000
G1 X131.624 Y82.099 F10800
;WIPE_START
G1 F8640
G1 X132.112 Y82.161 E-.13393
G1 X132.692 Y81.852 E-.15178
G1 X133.189 Y81.699 E-.12004
G1 X133.951 Y81.592 E-.17767
G1 X134.62 Y81.653 E-.15529
G1 X134.709 Y81.679 E-.02128
;WIPE_END
G1 E-.04 F2100
G1 Z.6 F720
G1 X131.828 Y68.089 F10800
G1 Z.2 F720
G1 E.8 F2100
M204 S800
;TYPE:Perimeter
G1 F1200
G1 X131.338 Y67.691 E.01981
G1 X130.866 Y67.123 E.02313
G1 X130.517 Y66.481 E.0229
G1 X130.296 Y65.78 E.02306
G1 X130.215 Y65.051 E.02299
G1 X130.284 Y64.283 E.02419
G1 X130.499 Y63.562 E.02358
G1 X130.85 Y62.902 E.02343
G1 X131.313 Y62.334 E.023
G1 X131.875 Y61.868 E.02289
G1 X132.516 Y61.518 E.02288
G1 X133.22 Y61.296 E.02314
G1 X133.919 Y61.216 E.02206
G1 X134.714 Y61.284 E.02503
G1 X135.438 Y61.499 E.02367
G1 X136.095 Y61.848 E.02335
G1 X136.662 Y62.309 E.02291
G1 X137.133 Y62.877 E.02313
G1 X137.482 Y63.516 E.02282
G1 X137.704 Y64.22 E.02313
G1 X137.785 Y64.946 E.02291
G1 X137.716 Y65.717 E.02427
G1 X137.457 Y66.541 E.02707
G1 X137.152 Y67.095 E.01986
G1 X136.689 Y67.664 E.023
G1 X136.127 Y68.131 E.02289
G1 X135.383 Y68.523 E.0264
G1 X134.78 Y68.704 E.01972
G1 X134.051 Y68.785 E.023
G1 X133.351 Y68.723 E.02203
G1 X132.71 Y68.548 E.02084
G1 X132.459 Y68.457 E.00836
G1 X131.874 Y68.127 E.02106
M204 S1000
G1 X131.916 Y67.683 F10800
M204 S800
;TYPE:External perimeter
G1 F1200
G1 X131.58 Y67.402 E.01374
G1 X131.16 Y66.886 E.02085
G1 X130.851 Y66.306 E.02062
G1 X130.658 Y65.672 E.02078
G1 X130.591 Y65.015 E.02071
G1 X130.659 Y64.322 E.02184
G1 X130.859 Y63.675 E.02121
G1 X131.18 Y63.084 E.0211
G1 X131.602 Y62.577 E.0207
G1 X132.112 Y62.161 E.02061
G1 X132.692 Y61.852 E.02061
G1 X133.328 Y61.658 E.02086
G1 X133.956 Y61.591 E.01981
G1 X134.677 Y61.659 E.02271
G1 X135.325 Y61.859 E.02124
G1 X135.914 Y62.178 E.02102
G1 X136.42 Y62.598 E.02062
G1 X136.84 Y63.114 E.02085
G1 X137.148 Y63.692 E.02054
G1 X137.342 Y64.328 E.02085
G1 X137.409 Y64.982 E.02062
G1 X137.341 Y65.678 E.02192
G1 X137.141 Y66.325 E.02121
G1 X136.821 Y66.914 E.02102
G1 X136.4 Y67.422 E.0207
G1 X135.89 Y67.837 E.02061
G1 X135.308 Y68.148 E.02069
G1 X134.636 Y68.349 E.022
G1 X134.013 Y68.409 E.01963
G1 X133.39 Y68.348 E.01962
G1 X132.823 Y68.188 E.01847
G1 X132.269 Y67.922 E.01927
G1 X132.056 Y67.801 E.00769
G1 X131.962 Y67.722 E.00386
M204 S1000
G1 X131.545 Y67.833 F10800
;WIPE_START
G1 F8640
G1 X131.58 Y67.402 E-.11505
G1 X131.16 Y66.886 E-.15352
G1 X130.851 Y66.306 E-.15185
G1 X130.658 Y65.672 E-.15301
G1 X130.591 Y65.015 E-.1525
G1 X130.605 Y64.868 E-.03407
;WIPE_END
G1 E-.04 F2100
G1 Z.6 F720
G1 X106.145 Y81.889 F10800
G1 Z.2 F720
G1 E.8 F2100
M204 S800
;TYPE:Perimeter
G1 F1200
G1 X106.664 Y82.312 E.02099
G1 X107.131 Y82.873 E.02288
G1 X107.483 Y83.518 E.02305
G1 X107.725 Y84.328 E.02649
G1 X107.785 Y84.951 E.01964
G1 X107.692 Y85.832 E.02776
G1 X107.5 Y86.441 E.02002
G1 X107.152 Y87.096 E.02326
G1 X106.691 Y87.662 E.02291
G1 X106.125 Y88.132 E.02305
G1 X105.479 Y88.484 E.02306
G1 X104.78 Y88.704 E.02299
G1 X104.051 Y88.785 E.02299
G1 X103.283 Y88.716 E.02419
G1 X102.562 Y88.501 E.02358
G1 X101.905 Y88.152 E.02335
G1 X101.338 Y87.691 E.02291
G1 X100.869 Y87.127 E.02297
G1 X100.518 Y86.484 E.02297
G1 X100.296 Y85.78 E.02315
G1 X100.215 Y85.051 E.023
G1 X100.284 Y84.28 E.02427
G1 X100.5 Y83.559 E.02359
G1 X100.848 Y82.904 E.02326
G1 X101.309 Y82.338 E.02291
G1 X101.873 Y81.869 E.02297
G1 X102.62 Y81.476 E.02648
G1 X103.22 Y81.296 E.01964
G1 X103.913 Y81.217 E.02188
G1 X104.656 Y81.278 E.02336
G1 X105.488 Y81.517 E.02714
G1 X106.099 Y81.851 E.02183
M204 S1000
G1 X105.959 Y82.216 F10800
M204 S800
;TYPE:External perimeter
G1 F1200
G1 X106.422 Y82.6 E.01884
G1 X106.837 Y83.11 E.02061
G1 X107.149 Y83.694 E.02077
G1 X107.342 Y84.328 E.02078
G1 X107.401 Y84.894 E.01783
G1 X107.354 Y85.551 E.02066
G1 X107.214 Y86.094 E.01757
G1 X107.126 Y86.361 E.00883
G1 X106.821 Y86.914 E.01978
G1 X106.402 Y87.42 E.02062
G1 X105.888 Y87.839 E.02077
G1 X105.304 Y88.15 E.02077
G1 X104.672 Y88.342 E.02071
G1 X104.015 Y88.409 E.0207
G1 X103.322 Y88.341 E.02184
G1 X102.675 Y88.141 E.02121
G1 X102.086 Y87.821 E.02102
G1 X101.58 Y87.402 E.02062
G1 X101.163 Y86.89 E.02069
G1 X100.852 Y86.308 E.02069
G1 X100.658 Y85.672 E.02086
G1 X100.591 Y85.015 E.02071
G1 X100.659 Y84.319 E.02192
G1 X100.86 Y83.673 E.02121
G1 X101.179 Y83.086 E.02094
G1 X101.598 Y82.58 E.02062
G1 X102.11 Y82.163 E.02069
G1 X102.694 Y81.851 E.02077
G1 X103.363 Y81.651 E.0219
G1 X103.959 Y81.591 E.01877
G1 X104.618 Y81.653 E.02077
G1 X105.343 Y81.865 E.02366
G1 X105.913 Y82.178 E.0204
M204 S1000
G1 X106.319 Y82.041 F10800
;WIPE_START
G1 F8640
G1 X106.422 Y82.6 E-.1526
G1 X106.837 Y83.11 E-.15178
G1 X107.149 Y83.694 E-.15296
G1 X107.342 Y84.328 E-.15305
G1 X107.401 Y84.894 E-.13131
G1 X107.395 Y84.973 E-.0183
;WIPE_END
G1 E-.04 F2100
G1 Z.6 F720
G1 X88.113 Y86.143 F10800
G1 Z.2 F720
G1 E.8 F2100
M204 S800
;TYPE:Perimeter
G1 F1200
G1 X87.691 Y86.662 E.02101
G1 X87.123 Y87.134 E.02313
G1 X86.479 Y87.484 E.02299
G1 X85.78 Y87.704 E.02298
G1 X85.051 Y87.785 E.02299
G1 X84.283 Y87.716 E.02419
G1 X83.562 Y87.501 E.02358
G1 X82.905 Y87.152 E.02335
G1 X82.334 Y86.687 E.02308
G1 X81.866 Y86.123 E.02298
G1 X81.516 Y85.479 E.02297
G1 X81.296 Y84.78 E.02298
G1 X81.215 Y84.051 E.02299
G1 X81.284 Y83.283 E.02419
G1 X81.499 Y82.562 E.02358
G1 X81.85 Y81.902 E.02343
G1 X82.313 Y81.334 E.023
G1 X82.877 Y80.866 E.02297
G1 X83.521 Y80.516 E.02297
G1 X84.22 Y80.296 E.02298
G1 X84.919 Y80.216 E.02205
G1 X85.717 Y80.284 E.02512
G1 X86.543 Y80.544 E.02715
G1 X87.098 Y80.85 E.01985
G1 X87.664 Y81.312 E.02292
G1 X88.134 Y81.877 E.02305
G1 X88.484 Y82.521 E.02298
G1 X88.704 Y83.22 E.02298
G1 X88.785 Y83.946 E.0229
G1 X88.716 Y84.717 E.02427
G1 X88.501 Y85.438 E.02359
G1 X88.151 Y86.096 E.02337
M204 S1000
G1 X88.204 Y85.123 F10800
M204 S800
;TYPE:External perimeter
G1 F1200
G1 X88.141 Y85.325 E.00662
G1 X87.821 Y85.914 E.02102
G1 X87.402 Y86.42 E.02062
G1 X86.886 Y86.84 E.02085
G1 X86.304 Y87.15 E.0207
G1 X85.672 Y87.342 E.0207
G1 X85.015 Y87.409 E.02071
G1 X84.322 Y87.341 E.02184
G1 X83.675 Y87.141 E.02121
G1 X83.086 Y86.821 E.02102
G1 X82.577 Y86.398 E.02078
G1 X82.16 Y85.886 E.0207
G1 X81.85 Y85.304 E.02069
G1 X81.658 Y84.672 E.0207
G1 X81.591 Y84.015 E.02071
G1 X81.659 Y83.322 E.02184
G1 X81.859 Y82.675 E.02121
G1 X82.18 Y82.084 E.0211
G1 X82.602 Y81.577 E.0207
G1 X83.114 Y81.16 E.02069
G1 X83.696 Y80.85 E.02069
G1 X84.328 Y80.658 E.0207
G1 X84.956 Y80.591 E.0198
G1 X85.68 Y80.659 E.02279
G1 X86.327 Y80.86 E.02124
G1 X86.916 Y81.18 E.02101
G1 X87.422 Y81.6 E.02062
