; generated by PrusaSlicer 2.5.0+win64 on 2022-10-03 at 18:53:30 UTC


;
;
; 

; external perimeters extrusion width = 0.45mm
; perimeters extrusion width = 0.45mm
; infill extrusion width = 0.45mm
; solid infill extrusion width = 0.45mm
; top infill extrusion width = 0.40mm
; first layer extrusion width = 0.42mm

M73 P0 R226
M73 Q0 S231
M201 X1000 Y1000 Z200 E5000 ; sets maximum accelerations, mm/sec^2
M203 X200 Y200 Z12 E120 ; sets maximum feedrates, mm / sec
M204 P1250 R1250 T1250 ; sets acceleration (P, T) and retract acceleration (R), mm/sec^2
M205 X8.00 Y8.00 Z0.40 E4.50 ; sets the jerk limits, mm/sec
M205 S0 T0 ; sets the minimum extruding and travel feed rate, mm/sec
M107
;TYPE:Custom
M862.3 P "MK3S" ; printer model check
M862.1 P0.4 ; nozzle diameter check
M115 U3.11.0 ; tell printer latest fw version
G90 ; use absolute coordinates
M83 ; extruder relative mode
M104 S215 ; set extruder temp
M140 S60 ; set bed temp
M190 S60 ; wait for bed temp
M109 S215 ; wait for extruder temp
G28 W ; home all without mesh bed level
G80 ; mesh bed leveling

G1 Z0.2 F720
G1 Y-3 F1000 ; go outside print area
G92 E0
G1 X60 E9 F1000 ; intro line
G1 X100 E12.5 F1000 ; intro line

G92 E0
M221 S95

; Don't change E values below. Excessive value can damage the printer.

M907 E538 ; set extruder motor current
G21 ; set units to millimeters
G90 ; use absolute coordinates
M83 ; use relative distances for extrusion
M900 K0.05 ; Filament gcode LA 1.5
M900 K30 ; Filament gcode LA 1.0
M107
;LAYER_CHANGE
;Z:0.2
;HEIGHT:0.2
;BEFORE_LAYER_CHANGE
G92 E0.0
;0.2


G1 E-.8 F2100
G1 Z.4 F720
;AFTER_LAYER_CHANGE
;0.2
G1 X73.015 Y53.693 F10800
G1 Z.2 F720
G1 E.8 F2100
M204 S800
;TYPE:Skirt/Brim
;WIDTH:0.42
G1 F1200
G1 X74.06 Y52.817 E.04278
G1 X75 Y52.623 E.03008
G1 X175 Y52.623 E3.13543
G1 X176.307 Y53.015 E.04278
G1 X177.183 Y54.06 E.04278
M73 Q0 S230
G1 X177.377 Y55 E.03008
G1 X177.377 Y155 E3.13543
G1 X176.985 Y156.307 E.04278
G1 X175.94 Y157.183 E.04278
G1 X175 Y157.377 E.03008
G1 X155 Y157.377 E.62709
G1 X153.574 Y156.902 E.04714
G1 X73.574 Y96.902 E3.13543
G1 X72.763 Y95.804 E.04278
G1 X72.623 Y95 E.02559
G1 X72.623 Y55 E1.25417
G1 X72.997 Y53.75 E.0409
M204 S1000
; printing object napinacz_prawy_X1.stl id:0 copy 0
;WIPE_START
G1 F8640
G1 X74.06 Y52.817 E-.32671
G1 X75 Y52.623 E-.22155
G1 X75.917 Y52.623 E-.21174
;WIPE_END
G1 E-.04 F2100
G1 Z.6 F720
G1 X174.213 Y154.213 F10800
G1 Z.2 F720
G1 E.8 F2100
M204 S800
;TYPE:Perimeter
;WIDTH:0.419999
G1 F1200
G1 X155.262 Y154.213 E.59418
G1 X75.787 Y94.606 E3.11486
G1 X75.787 Y55.787 E1.21715
G1 X174.213 Y55.787 E3.08607
G1 X174.213 Y154.153 E3.08419
M204 S1000
G1 X174.59 Y154.59 F10800
M204 S800
;TYPE:External perimeter
M73 P0 R225
G1 F1200
G1 X155.137 Y154.59 E.60994
G1 X75.41 Y94.795 E3.12471
G1 X75.41 Y55.41 E1.23489
G1 X174.59 Y55.41 E3.10971
G1 X174.59 Y154.53 E3.10783
M204 S1000
G1 X174.204 Y154.486 F10800
;WIPE_START
G1 F8640
G1 X171.299 Y154.54 E-.76
;WIPE_END
G1 E-.04 F2100
G1 Z.6 F720
G1 X161.3 Y114.768 F10800
G1 Z.2 F720
G1 E.8 F2100
M204 S800
;TYPE:Perimeter
G1 F1200
G1 X161.216 Y114.059 E.0224
G1 X161.275 Y113.328 E.023
G1 X161.476 Y112.62 E.02306
G1 X161.806 Y111.969 E.02289
G1 X162.257 Y111.392 E.02297
G1 X162.813 Y110.911 E.02306
G1 X163.459 Y110.543 E.0233
G1 X164.171 Y110.307 E.02351
G1 X164.886 Y110.219 E.02258
G1 X165.666 Y110.275 E.02452
G1 X166.383 Y110.477 E.02334
G1 X167.034 Y110.808 E.02291
G1 X167.608 Y111.257 E.02288
G1 X168.089 Y111.813 E.02305
G1 X168.456 Y112.457 E.02322
G1 X168.692 Y113.168 E.0235
G1 X168.784 Y113.938 E.02431
G1 X168.725 Y114.672 E.02309
G1 X168.523 Y115.383 E.02315
G1 X168.192 Y116.034 E.02291
G1 X167.743 Y116.609 E.02288
G1 X167.189 Y117.088 E.02297
G1 X166.543 Y117.456 E.0233
G1 X165.832 Y117.692 E.02351
G1 X165.062 Y117.784 E.02431
G1 X164.328 Y117.725 E.02309
G1 X163.617 Y117.523 E.02315
G1 X162.966 Y117.192 E.0229
G1 X162.391 Y116.743 E.02288
G1 X161.911 Y116.187 E.02305
G1 X161.544 Y115.543 E.02322
G1 X161.307 Y114.828 E.02362
M204 S1000
G1 X161.817 Y115.184 F10800
M204 S800
;TYPE:External perimeter
G1 F1200
G1 X161.667 Y114.718 E.01534
G1 X161.591 Y114.02 E.02202
G1 X161.651 Y113.364 E.02065
G1 X161.837 Y112.728 E.02078
G1 X162.14 Y112.144 E.02062
G1 X162.551 Y111.628 E.02069
G1 X163.056 Y111.199 E.02077
G1 X163.641 Y110.873 E.02101
G1 X164.285 Y110.667 E.02118
G1 X164.926 Y110.594 E.02026
G1 X165.634 Y110.65 E.02226
G1 X166.274 Y110.838 E.02092
G1 X166.858 Y111.141 E.02062
G1 X167.372 Y111.551 E.02061
G1 X167.801 Y112.056 E.02077
G1 X168.126 Y112.639 E.02093
G1 X168.333 Y113.282 E.02118
G1 X168.409 Y113.977 E.02193
G1 X168.349 Y114.636 E.02074
G1 X168.162 Y115.274 E.02086
G1 X167.859 Y115.858 E.02062
G1 X167.449 Y116.372 E.02061
G1 X166.946 Y116.799 E.02069
G1 X166.361 Y117.126 E.021
G1 X165.718 Y117.333 E.02118
G1 X165.023 Y117.409 E.02193
G1 X164.364 Y117.349 E.02074
G1 X163.726 Y117.162 E.02086
G1 X163.142 Y116.859 E.02062
G1 X162.628 Y116.449 E.02061
G1 X162.199 Y115.944 E.02077
G1 X161.874 Y115.361 E.02093
G1 X161.836 Y115.241 E.00396
M204 S1000
G1 X161.422 Y115.12 F10800
;WIPE_START
G1 F8640
G1 X161.667 Y114.718 E-.12681
G1 X161.591 Y114.02 E-.16216
G1 X161.651 Y113.364 E-.1521
G1 X161.837 Y112.728 E-.15303
G1 X162.14 Y112.144 E-.15182
G1 X162.178 Y112.097 E-.01406
;WIPE_END
G1 E-.04 F2100
G1 Z.6 F720
G1 X164.23 Y140.3 F10800
G1 Z.2 F720
G1 E.8 F2100
M204 S800
;TYPE:Perimeter
G1 F1200
G1 X164.886 Y140.219 E.02073
G1 X165.666 Y140.275 E.02453
G1 X166.383 Y140.477 E.02334
G1 X167.034 Y140.808 E.02291
G1 X167.608 Y141.257 E.02288
G1 X168.089 Y141.813 E.02305
G1 X168.456 Y142.457 E.02322
G1 X168.692 Y143.168 E.0235
G1 X168.784 Y143.938 E.02431
G1 X168.725 Y144.672 E.02309
G1 X168.525 Y145.378 E.02298
G1 X168.191 Y146.036 E.02314
G1 X167.741 Y146.611 E.02291
G1 X167.189 Y147.088 E.02288
G1 X166.543 Y147.456 E.0233
G1 X165.832 Y147.692 E.0235
G1 X165.062 Y147.784 E.02431
G1 X164.328 Y147.725 E.02309
G1 X163.617 Y147.523 E.02315
G1 X162.966 Y147.192 E.02291
G1 X162.392 Y146.743 E.02288
G1 X161.911 Y146.187 E.02305
G1 X161.544 Y145.543 E.02322
G1 X161.308 Y144.832 E.0235
G1 X161.216 Y144.059 E.0244
G1 X161.275 Y143.328 E.023
G1 X161.477 Y142.617 E.02314
G1 X161.808 Y141.966 E.0229
G1 X162.259 Y141.389 E.02298
G1 X162.904 Y140.848 E.0264
G1 X163.457 Y140.544 E.01978
G1 X164.17 Y140.307 E.02356
M204 S1000
G1 X164.082 Y140.731 F10800
M204 S800
;TYPE:External perimeter
G1 F1200
G1 X164.282 Y140.667 E.00658
G1 X164.926 Y140.594 E.02034
G1 X165.634 Y140.65 E.02226
G1 X166.274 Y140.838 E.02092
G1 X166.858 Y141.141 E.02062
G1 X167.372 Y141.551 E.02061
G1 X167.801 Y142.056 E.02077
G1 X168.126 Y142.639 E.02093
G1 X168.333 Y143.282 E.02118
G1 X168.409 Y143.977 E.02193
G1 X168.349 Y144.636 E.02074
G1 X168.164 Y145.27 E.0207
G1 X167.857 Y145.86 E.02085
G1 X167.447 Y146.374 E.02062
G1 X166.946 Y146.799 E.02061
G1 X166.361 Y147.126 E.021
G1 X165.718 Y147.333 E.02118
G1 X165.023 Y147.409 E.02194
G1 X164.364 Y147.349 E.02074
G1 X163.726 Y147.162 E.02086
G1 X163.142 Y146.859 E.02062
G1 X162.628 Y146.449 E.02061
G1 X162.199 Y145.944 E.02077
G1 X161.874 Y145.361 E.02093
G1 X161.667 Y144.718 E.02118
G1 X161.591 Y144.02 E.02202
G1 X161.651 Y143.364 E.02065
G1 X161.838 Y142.726 E.02086
G1 X162.141 Y142.142 E.02062
G1 X162.553 Y141.626 E.02069
G1 X163.056 Y141.199 E.02069
G1 X163.639 Y140.874 E.02092
G1 X164.025 Y140.75 E.01272
M204 S1000
G1 X164.118 Y140.525 F10800
;WIPE_START
G1 F8640
G1 X164.282 Y140.667 E-.06228
G1 X164.926 Y140.594 E-.14977
G1 X165.634 Y140.65 E-.16392
G1 X166.274 Y140.838 E-.15409
G1 X166.858 Y141.141 E-.15185
G1 X167.122 Y141.352 E-.07809
;WIPE_END
G1 E-.04 F2100
G1 Z.6 F720
G1 X122.921 Y88.156 F10800
G1 Z.2 F720
G1 E.8 F2100
M204 S800
;TYPE:Perimeter
G1 F1200
G1 X122.392 Y87.743 E.02106
G1 X121.912 Y87.189 E.02297
G1 X121.543 Y86.541 E.02338
G1 X121.307 Y85.829 E.02352
G1 X121.216 Y85.059 E.02431
G1 X121.275 Y84.328 E.023
G1 X121.475 Y83.622 E.02298
G1 X121.806 Y82.969 E.02297
G1 X122.257 Y82.392 E.02297
G1 X122.811 Y81.912 E.02297
G1 X123.457 Y81.544 E.0233
G1 X124.168 Y81.308 E.0235
G1 X124.886 Y81.219 E.02267
G1 X125.666 Y81.275 E.02453
G1 X126.378 Y81.475 E.02318
G1 X127.031 Y81.806 E.02297
G1 X127.608 Y82.257 E.02297
G1 X128.088 Y82.811 E.02297
G1 X128.457 Y83.459 E.02338
G1 X128.693 Y84.171 E.02352
G1 X128.784 Y84.938 E.02422
G1 X128.725 Y85.672 E.02308
G1 X128.525 Y86.378 E.02298
G1 X128.194 Y87.031 E.02297
G1 X127.739 Y87.612 E.02314
G1 X127.186 Y88.09 E.02291
G1 X126.541 Y88.457 E.02329
G1 X125.829 Y88.693 E.02351
G1 X125.062 Y88.784 E.02422
G1 X124.328 Y88.725 E.02308
G1 X123.622 Y88.525 E.02298
G1 X122.968 Y88.193 E.02301
M204 S1000
G1 X122.885 Y87.654 F10800
M204 S800
;TYPE:External perimeter
G1 F1200
G1 X122.628 Y87.449 E.01031
G1 X122.201 Y86.946 E.02069
G1 X121.873 Y86.359 E.02108
G1 X121.667 Y85.715 E.02119
G1 X121.591 Y85.02 E.02194
G1 X121.651 Y84.364 E.02065
G1 X121.836 Y83.73 E.0207
G1 X122.141 Y83.141 E.0208
G1 X122.551 Y82.628 E.02059
G1 X123.054 Y82.201 E.02069
G1 X123.639 Y81.874 E.021
G1 X124.282 Y81.667 E.02118
G1 X124.926 Y81.594 E.02034
G1 X125.634 Y81.65 E.02226
G1 X126.27 Y81.836 E.02077
G1 X126.856 Y82.14 E.02069
G1 X127.372 Y82.551 E.02069
G1 X127.799 Y83.054 E.02069
G1 X128.127 Y83.641 E.02108
G1 X128.333 Y84.285 E.02119
G1 X128.409 Y84.977 E.02185
G1 X128.349 Y85.636 E.02074
G1 X128.164 Y86.27 E.0207
G1 X127.86 Y86.856 E.02069
G1 X127.445 Y87.375 E.02085
G1 X126.944 Y87.801 E.02062
G1 X126.359 Y88.127 E.021
G1 X125.715 Y88.333 E.02118
G1 X125.023 Y88.409 E.02185
G1 X124.364 Y88.349 E.02074
G1 X123.73 Y88.164 E.0207
M73 Q0 S229
G1 X123.144 Y87.86 E.02069
G1 X122.932 Y87.691 E.00851
M204 S1000
G1 X122.585 Y87.787 F10800
;WIPE_START
G1 F8640
G1 X122.628 Y87.449 E-.08975
G1 X122.201 Y86.946 E-.15238
G1 X121.873 Y86.359 E-.15526
G1 X121.667 Y85.715 E-.15602
G1 X121.591 Y85.02 E-.16157
G1 X121.609 Y84.826 E-.04502
;WIPE_END
G1 E-.04 F2100
G1 Z.6 F720
G1 X85.269 Y88.708 F10800
G1 Z.2 F720
G1 E.8 F2100
M204 S800
;TYPE:Perimeter
G1 F1200
G1 X84.622 Y88.525 E.02107
G1 X83.969 Y88.194 E.02297
G1 X83.388 Y87.739 E.02314
G1 X82.91 Y87.186 E.0229
G1 X82.544 Y86.543 E.02321
G1 X82.308 Y85.832 E.0235
G1 X82.216 Y85.059 E.0244
G1 X82.275 Y84.328 E.023
G1 X82.477 Y83.617 E.02314
G1 X82.808 Y82.966 E.0229
G1 X83.259 Y82.389 E.02297
G1 X83.814 Y81.91 E.02297
G1 X84.457 Y81.544 E.02322
G1 X85.168 Y81.308 E.0235
G1 X85.886 Y81.219 E.02267
G1 X86.666 Y81.275 E.02453
G1 X87.383 Y81.477 E.02334
G1 X88.034 Y81.808 E.02291
G1 X88.609 Y82.257 E.02288
G1 X89.089 Y82.813 E.02305
G1 X89.457 Y83.459 E.0233
G1 X89.693 Y84.171 E.02351
G1 X89.784 Y84.938 E.02422
G1 X89.725 Y85.672 E.02308
G1 X89.525 Y86.378 E.02298
G1 X89.192 Y87.033 E.02306
G1 X88.743 Y87.609 E.02289
G1 X88.187 Y88.089 E.02305
G1 X87.541 Y88.457 E.0233
G1 X86.829 Y88.693 E.02351
G1 X86.062 Y88.784 E.02422
G1 X85.327 Y88.725 E.02311
M204 S1000
G1 X85.257 Y88.318 F10800
M204 S800
;TYPE:External perimeter
G1 F1200
G1 X84.73 Y88.164 E.01721
G1 X84.144 Y87.86 E.02069
G1 X83.625 Y87.445 E.02085
G1 X83.199 Y86.944 E.02062
G1 X82.874 Y86.361 E.02092
G1 X82.667 Y85.718 E.02118
G1 X82.591 Y85.02 E.02202
G1 X82.651 Y84.364 E.02065
G1 X82.838 Y83.726 E.02086
G1 X83.141 Y83.142 E.02062
G1 X83.553 Y82.626 E.02069
G1 X84.056 Y82.199 E.02069
G1 X84.639 Y81.874 E.02092
G1 X85.282 Y81.667 E.02118
G1 X85.926 Y81.594 E.02034
G1 X86.634 Y81.65 E.02226
G1 X87.274 Y81.838 E.02092
G1 X87.858 Y82.141 E.02062
G1 X88.372 Y82.551 E.02061
G1 X88.801 Y83.056 E.02077
G1 X89.127 Y83.641 E.02101
G1 X89.333 Y84.285 E.02119
G1 X89.409 Y84.977 E.02185
G1 X89.349 Y85.636 E.02074
G1 X89.164 Y86.27 E.0207
G1 X88.859 Y86.858 E.02077
G1 X88.449 Y87.372 E.02062
G1 X87.944 Y87.801 E.02077
G1 X87.359 Y88.127 E.02101
G1 X86.715 Y88.333 E.02118
G1 X86.023 Y88.409 E.02185
G1 X85.315 Y88.335 E.02232
M204 S1000
G1 X84.994 Y88.62 F10800
;WIPE_START
G1 F8640
G1 X84.73 Y88.164 E-.14058
G1 X84.144 Y87.86 E-.15239
G1 X83.625 Y87.445 E-.15354
G1 X83.199 Y86.944 E-.15185
G1 X82.874 Y86.361 E-.15407
G1 X82.864 Y86.33 E-.00757
;WIPE_END
G1 E-.04 F2100
G1 Z.6 F720
G1 X87.482 Y68.477 F10800
G1 Z.2 F720
G1 E.8 F2100
M204 S800
;TYPE:Perimeter
G1 F1200
G1 X86.829 Y68.693 E.02156
G1 X86.062 Y68.784 E.02422
G1 X85.328 Y68.725 E.02308
G1 X84.617 Y68.523 E.02315
G1 X83.966 Y68.192 E.02291
G1 X83.392 Y67.743 E.02288
G1 X82.911 Y67.187 E.02305
G1 X82.544 Y66.543 E.02322
G1 X82.308 Y65.832 E.0235
G1 X82.216 Y65.059 E.0244
G1 X82.275 Y64.328 E.023
G1 X82.477 Y63.617 E.02314
G1 X82.809 Y62.964 E.02299
G1 X83.336 Y62.311 E.0263
G1 X83.814 Y61.91 E.01955
G1 X84.457 Y61.544 E.02322
G1 X85.168 Y61.308 E.0235
G1 X85.886 Y61.219 E.02267
G1 X86.666 Y61.275 E.02453
G1 X87.378 Y61.475 E.02318
G1 X88.031 Y61.806 E.02297
G1 X88.608 Y62.257 E.02297
G1 X89.088 Y62.811 E.02297
G1 X89.456 Y63.457 E.0233
G1 X89.692 Y64.168 E.02351
G1 X89.784 Y64.938 E.02431
G1 X89.725 Y65.672 E.02309
G1 X89.524 Y66.38 E.02307
G1 X89.191 Y67.036 E.02306
G1 X88.74 Y67.611 E.0229
G1 X88.189 Y68.088 E.02288
G1 X87.539 Y68.458 E.02345
M204 S1000
G1 X87.53 Y68.031 F10800
M204 S800
;TYPE:External perimeter
G1 F1200
G1 X87.359 Y68.127 E.00615
G1 X86.715 Y68.333 E.02119
G1 X86.023 Y68.409 E.02185
G1 X85.364 Y68.349 E.02074
G1 X84.726 Y68.162 E.02086
G1 X84.142 Y67.859 E.02062
G1 X83.628 Y67.449 E.02061
G1 X83.199 Y66.944 E.02077
G1 X82.874 Y66.361 E.02093
G1 X82.667 Y65.718 E.02118
G1 X82.591 Y65.02 E.02202
G1 X82.651 Y64.364 E.02065
G1 X82.838 Y63.726 E.02086
G1 X83.143 Y63.14 E.0207
G1 X83.553 Y62.626 E.02062
G1 X84.056 Y62.199 E.02069
G1 X84.639 Y61.874 E.02092
G1 X85.282 Y61.667 E.02118
G1 X85.926 Y61.594 E.02034
G1 X86.634 Y61.65 E.02226
G1 X87.27 Y61.836 E.02077
G1 X87.856 Y62.14 E.02069
G1 X88.372 Y62.551 E.02069
G1 X88.799 Y63.054 E.02069
G1 X89.126 Y63.639 E.021
G1 X89.333 Y64.282 E.02118
G1 X89.409 Y64.977 E.02193
G1 X89.349 Y65.636 E.02074
G1 X89.163 Y66.272 E.02078
G1 X88.857 Y66.86 E.02077
G1 X88.447 Y67.374 E.02062
G1 X87.946 Y67.799 E.02061
G1 X87.582 Y68.002 E.01305
M204 S1000
G1 X87.534 Y68.227 F10800
;WIPE_START
G1 F8640
G1 X87.359 Y68.127 E-.05911
G1 X86.715 Y68.333 E-.15602
G1 X86.023 Y68.409 E-.16094
G1 X85.364 Y68.349 E-.15271
G1 X84.726 Y68.162 E-.15362
G1 X84.427 Y68.007 E-.0776
;WIPE_END
G1 E-.04 F2100
G1 Z.6 F720
G1 X174.1 Y56.665 F10800
G1 Z.2 F720
G1 E.8 F2100
M204 S800
;TYPE:Solid infill
;WIDTH:0.421098
G1 F1200
G1 X173.505 Y56.07 E.02646
G1 X172.97 Y56.07 E.01682
G1 X173.93 Y57.03 E.04269
G1 X173.93 Y57.565 E.01682
G1 X172.435 Y56.07 E.06648
G1 X171.9 Y56.07 E.01682
G1 X173.93 Y58.1 E.09026
G1 X173.93 Y58.634 E.01682
G1 X171.366 Y56.07 E.11405
G1 X170.831 Y56.07 E.01682
G1 X173.93 Y59.169 E.13783
G1 X173.93 Y59.704 E.01682
G1 X170.296 Y56.07 E.16161
G1 X169.761 Y56.07 E.01682
G1 X173.93 Y60.239 E.1854
G1 X173.93 Y60.774 E.01682
G1 X169.226 Y56.07 E.20918
G1 X168.691 Y56.07 E.01682
G1 X173.93 Y61.309 E.23297
G1 X173.93 Y61.843 E.01682
G1 X168.157 Y56.07 E.25675
G1 X167.622 Y56.07 E.01682
G1 X173.93 Y62.378 E.28054
G1 X173.93 Y62.913 E.01682
G1 X167.087 Y56.07 E.30432
G1 X166.552 Y56.07 E.01682
G1 X173.93 Y63.448 E.3281
G1 X173.93 Y63.983 E.01682
G1 X166.017 Y56.07 E.35189
G1 X165.483 Y56.07 E.01682
G1 X173.93 Y64.517 E.37567
G1 X173.93 Y65.052 E.01682
G1 X164.948 Y56.07 E.39946
G1 X164.413 Y56.07 E.01682
G1 X173.93 Y65.587 E.42324
G1 X173.93 Y66.122 E.01682
G1 X163.878 Y56.07 E.44702
G1 X163.343 Y56.07 E.01682
G1 X173.93 Y66.657 E.47081
G1 X173.93 Y67.192 E.01682
G1 X162.808 Y56.07 E.49459
G1 X162.274 Y56.07 E.01682
G1 X173.93 Y67.726 E.51838
G1 X173.93 Y68.261 E.01682
G1 X161.739 Y56.07 E.54216
G1 X161.204 Y56.07 E.01682
G1 X173.93 Y68.796 E.56594
G1 X173.93 Y69.331 E.01682
G1 X160.669 Y56.07 E.58973
G1 X160.134 Y56.07 E.01682
G1 X173.93 Y69.866 E.61351
G1 X173.93 Y70.401 E.01682
G1 X159.599 Y56.07 E.6373
G1 X159.065 Y56.07 E.01682
G1 X173.93 Y70.935 E.66108
G1 X173.93 Y71.47 E.01682
G1 X158.53 Y56.07 E.68486
G1 X157.995 Y56.07 E.01682
G1 X173.93 Y72.005 E.70865
G1 X173.93 Y72.54 E.01682
G1 X157.46 Y56.07 E.73243
G1 X156.925 Y56.07 E.01682
G1 X173.93 Y73.075 E.75622
G1 X173.93 Y73.609 E.01682
G1 X156.391 Y56.07 E.78
