; generated by PrusaSlicer 2.5.0+win64 on 2022-10-03 at 18:53:04 UTC


;
;
; 

; external perimeters extrusion width = 0.45mm
; perimeters extrusion width = 0.45mm
; infill extrusion width = 0.45mm
; solid infill extrusion width = 0.45mm
; top infill extrusion width = 0.40mm
; first layer extrusion width = 0.42mm

M73 P0 R226
M73 Q0 S231
M201 X1000 Y1000 Z200 E5000 ; sets maximum accelerations, mm/sec^2
M203 X200 Y200 Z12 E120 ; sets maximum feedrates, mm / sec
M204 P1250 R1250 T1250 ; sets acceleration (P, T) and retract acceleration (R), mm/sec^2
M205 X8.00 Y8.00 Z0.40 E4.50 ; sets the jerk limits, mm/sec
M205 S0 T0 ; sets the minimum extruding and travel feed rate, mm/sec
M107
;TYPE:Custom
M862.3 P "MK3S" ; printer model check
M862.1 P0.4 ; nozzle diameter check
M115 U3.11.0 ; tell printer latest fw version
G90 ; use absolute coordinates
M83 ; extruder relative mode
M104 S215 ; set extruder temp
M140 S60 ; set bed temp
M190 S60 ; wait for bed temp
M109 S215 ; wait for extruder temp
G28 W ; home all without mesh bed level
G80 ; mesh bed leveling

G1 Z0.2 F720
G1 Y-3 F1000 ; go outside print area
G92 E0
G1 X60 E9 F1000 ; intro line
G1 X100 E12.5 F1000 ; intro line

G92 E0
M221 S95

; Don't change E values below. Excessive value can damage the printer.

M907 E538 ; set extruder motor current
G21 ; set units to millimeters
G90 ; use absolute coordinates
M83 ; use relative distances for extrusion
M900 K0.05 ; Filament gcode LA 1.5
M900 K30 ; Filament gcode LA 1.0
M107
;LAYER_CHANGE
;Z:0.2
;HEIGHT:0.2
;BEFORE_LAYER_CHANGE
G92 E0.0
;0.2


M73 Q0 S230
G1 E-.8 F2100
G1 Z.4 F720
;AFTER_LAYER_CHANGE
;0.2
G1 X67.926 Y60.521 F10800
G1 Z.2 F720
G1 E.8 F2100
M204 S800
;TYPE:Skirt/Brim
;WIDTH:0.42
G1 F1200
G1 X68.972 Y59.644 E.04278
G1 X69.911 Y59.451 E.03008
G1 X169.912 Y59.451 E3.13543
G1 X171.219 Y59.842 E.04278
G1 X172.095 Y60.888 E.04278
G1 X172.289 Y61.828 E.03008
G1 X172.289 Y101.828 E1.25417
G1 X171.897 Y103.135 E.04278
M73 P0 R225
G1 X171.338 Y103.73 E.02559
G1 X91.338 Y163.73 E3.13543
G1 X89.911 Y164.205 E.04714
G1 X69.911 Y164.205 E.62709
G1 X68.604 Y163.813 E.04278
G1 X67.728 Y162.768 E.04278
G1 X67.534 Y161.828 E.03008
G1 X67.534 Y61.828 E3.13543
G1 X67.909 Y60.578 E.0409
M204 S1000
; printing object napinacz_lewy_X1.stl id:0 copy 0
;WIPE_START
G1 F8640
G1 X68.972 Y59.644 E-.32671
G1 X69.911 Y59.451 E-.22155
G1 X70.829 Y59.451 E-.21174
;WIPE_END
G1 E-.04 F2100
G1 Z.6 F720
G1 X70.699 Y161.041 F10800
G1 Z.2 F720
G1 E.8 F2100
M204 S800
;TYPE:Perimeter
;WIDTH:0.419999
G1 F1200
G1 X70.699 Y62.615 E3.08607
G1 X169.124 Y62.615 E3.08607
G1 X169.124 Y101.434 E1.21715
G1 X89.649 Y161.041 E3.11486
G1 X70.759 Y161.041 E.5923
M204 S1000
G1 X70.321 Y161.418 F10800
M204 S800
;TYPE:External perimeter
G1 F1200
G1 X70.321 Y62.238 E3.10971
G1 X169.502 Y62.238 E3.10971
G1 X169.502 Y101.623 E1.23489
G1 X89.775 Y161.418 E3.12471
G1 X70.381 Y161.418 E.60806
M204 S1000
G1 X70.456 Y161.041 F10800
;WIPE_START
M73 Q0 S229
G1 F8640
G1 X70.38 Y158.126 E-.76
;WIPE_END
G1 E-.04 F2100
G1 Z.6 F720
G1 X157.422 Y75.303 F10800
G1 Z.2 F720
G1 E.8 F2100
M204 S800
;TYPE:Perimeter
G1 F1200
G1 X156.816 Y74.98 E.02154
G1 X156.246 Y74.515 E.02308
G1 X155.779 Y73.953 E.0229
G1 X155.456 Y73.362 E.0211
G1 X155.208 Y72.608 E.0249
G1 X155.127 Y71.879 E.023
G1 X155.195 Y71.111 E.02419
G1 X155.41 Y70.39 E.02358
G1 X155.76 Y69.732 E.02335
G1 X156.221 Y69.166 E.02291
G1 X156.784 Y68.697 E.02297
G1 X157.43 Y68.345 E.02306
G1 X158.131 Y68.124 E.02307
G1 X158.83 Y68.044 E.02205
G1 X159.626 Y68.112 E.02503
G1 X160.349 Y68.327 E.02367
G1 X161.007 Y68.676 E.02335
G1 X161.577 Y69.141 E.02308
G1 X162.044 Y69.703 E.0229
G1 X162.393 Y70.344 E.02288
G1 X162.615 Y71.048 E.02314
G1 X162.699 Y71.828 E.02462
G1 X162.628 Y72.545 E.02258
G1 X162.413 Y73.266 E.02358
G1 X162.063 Y73.923 E.02335
G1 X161.602 Y74.49 E.02291
G1 X161.039 Y74.958 E.02297
G1 X160.393 Y75.311 E.02306
G1 X159.584 Y75.553 E.02649
G1 X158.957 Y75.613 E.01975
G1 X158.263 Y75.551 E.02184
G1 X157.478 Y75.324 E.02561
M204 S1000
G1 X157.463 Y74.906 F10800
M204 S800
;TYPE:External perimeter
G1 F1200
G1 X156.998 Y74.649 E.01666
G1 X156.488 Y74.226 E.02078
G1 X156.073 Y73.716 E.02062
G1 X155.79 Y73.187 E.01883
G1 X155.569 Y72.5 E.02261
G1 X155.502 Y71.843 E.02071
G1 X155.571 Y71.15 E.02184
G1 X155.77 Y70.503 E.02121
G1 X156.09 Y69.914 E.02102
G1 X156.51 Y69.408 E.02062
G1 X157.021 Y68.991 E.02069
G1 X157.605 Y68.679 E.02077
G1 X158.24 Y68.485 E.02078
G1 X158.868 Y68.419 E.01981
G1 X159.589 Y68.487 E.02271
G1 X160.236 Y68.686 E.02124
G1 X160.825 Y69.006 E.02102
G1 X161.335 Y69.43 E.02078
G1 X161.75 Y69.94 E.02062
G1 X162.06 Y70.52 E.02061
G1 X162.254 Y71.156 E.02086
G1 X162.322 Y71.828 E.02119
G1 X162.253 Y72.506 E.02136
G1 X162.053 Y73.152 E.02121
G1 X161.733 Y73.742 E.02102
G1 X161.313 Y74.248 E.02062
G1 X160.802 Y74.665 E.02069
G1 X160.218 Y74.977 E.02077
G1 X159.548 Y75.177 E.02192
G1 X158.925 Y75.237 E.01963
G1 X158.302 Y75.176 E.01962
G1 X157.739 Y75.017 E.01833
G1 X157.516 Y74.934 E.00747
M204 S1000
G1 X157.135 Y75.134 F10800
;WIPE_START
G1 F8640
G1 X156.998 Y74.649 E-.13653
G1 X156.488 Y74.226 E-.15302
G1 X156.073 Y73.716 E-.15183
G1 X155.79 Y73.187 E-.13865
G1 X155.569 Y72.5 E-.16652
G1 X155.563 Y72.442 E-.01345
;WIPE_END
G1 E-.04 F2100
G1 Z.6 F720
G1 X158.9 Y95.607 F10800
G1 Z.2 F720
G1 E.8 F2100
M204 S800
;TYPE:Perimeter
G1 F1200
G1 X158.194 Y95.544 E.02223
G1 X157.474 Y95.329 E.02358
G1 X156.816 Y94.98 E.02335
G1 X156.246 Y94.515 E.02308
G1 X155.779 Y93.953 E.0229
G1 X155.43 Y93.312 E.02288
G1 X155.208 Y92.608 E.02314
G1 X155.127 Y91.766 E.02651
G1 X155.195 Y91.111 E.02067
G1 X155.41 Y90.39 E.02358
G1 X155.76 Y89.732 E.02335
G1 X156.221 Y89.166 E.02291
G1 X156.784 Y88.697 E.02297
G1 X157.531 Y88.304 E.02648
G1 X158.131 Y88.124 E.01964
G1 X158.825 Y88.045 E.02188
G1 X159.569 Y88.106 E.02341
G1 X160.197 Y88.279 E.02043
G1 X160.452 Y88.371 E.0085
G1 X161.007 Y88.676 E.01986
G1 X161.577 Y89.141 E.02308
G1 X162.044 Y89.703 E.0229
G1 X162.394 Y90.346 E.02296
G1 X162.615 Y91.048 E.02306
G1 X162.699 Y91.828 E.02461
G1 X162.628 Y92.545 E.02258
G1 X162.413 Y93.266 E.02358
G1 X162.063 Y93.923 E.02335
G1 X161.602 Y94.49 E.02291
G1 X161.039 Y94.958 E.02297
G1 X160.393 Y95.311 E.02306
G1 X159.692 Y95.532 E.02307
G1 X158.96 Y95.612 E.02307
M204 S1000
G1 X159.004 Y95.229 F10800
M204 S800
;TYPE:External perimeter
G1 F1200
G1 X158.926 Y95.237 E.00246
G1 X158.233 Y95.169 E.02184
G1 X157.587 Y94.969 E.02121
G1 X156.998 Y94.649 E.02102
G1 X156.488 Y94.226 E.02078
G1 X156.073 Y93.716 E.02062
G1 X155.763 Y93.136 E.02061
G1 X155.569 Y92.5 E.02086
G1 X155.514 Y91.965 E.01685
G1 X155.554 Y91.308 E.02064
G1 X155.679 Y90.794 E.0166
G1 X155.785 Y90.469 E.01071
G1 X156.09 Y89.914 E.01986
G1 X156.51 Y89.408 E.02062
G1 X157.021 Y88.991 E.02069
G1 X157.605 Y88.679 E.02077
G1 X158.098 Y88.528 E.01616
G1 X158.862 Y88.42 E.02418
G1 X159.532 Y88.481 E.02109
G1 X160.27 Y88.701 E.02416
G1 X160.825 Y89.006 E.01986
G1 X161.335 Y89.43 E.02078
G1 X161.75 Y89.94 E.02062
G1 X162.061 Y90.522 E.02069
G1 X162.254 Y91.156 E.02078
G1 X162.322 Y91.828 E.02119
G1 X162.253 Y92.506 E.02136
G1 X162.053 Y93.152 E.02121
G1 X161.733 Y93.742 E.02102
G1 X161.313 Y94.248 E.02062
G1 X160.802 Y94.665 E.02069
G1 X160.218 Y94.977 E.02077
G1 X159.584 Y95.17 E.02078
G1 X159.064 Y95.223 E.01637
M204 S1000
G1 X158.975 Y95.302 F10800
;WIPE_START
G1 F8640
G1 X158.926 Y95.237 E-.03194
G1 X158.233 Y95.169 E-.16085
G1 X157.587 Y94.969 E-.15617
G1 X156.998 Y94.649 E-.15479
G1 X156.488 Y94.226 E-.15302
G1 X156.206 Y93.879 E-.10323
;WIPE_END
G1 E-.04 F2100
G1 Z.6 F720
G1 X123.364 Y93.357 F10800
G1 Z.2 F720
G1 E.8 F2100
M204 S800
;TYPE:Perimeter
G1 F1200
G1 X123.062 Y93.926 E.02019
G1 X122.598 Y94.494 E.023
G1 X122.036 Y94.96 E.02289
G1 X121.396 Y95.31 E.02288
G1 X120.692 Y95.532 E.02314
G1 X119.963 Y95.613 E.023
G1 X119.194 Y95.544 E.02419
G1 X118.474 Y95.329 E.02358
G1 X117.816 Y94.98 E.02335
G1 X117.231 Y94.502 E.0237
G1 X116.778 Y93.951 E.02236
G1 X116.427 Y93.307 E.02299
G1 X116.208 Y92.608 E.02298
G1 X116.127 Y91.879 E.02299
G1 X116.196 Y91.108 E.02427
G1 X116.412 Y90.387 E.02359
G1 X116.76 Y89.732 E.02326
G1 X117.225 Y89.162 E.02307
G1 X117.787 Y88.696 E.0229
G1 X118.427 Y88.346 E.02288
G1 X119.131 Y88.124 E.02314
G1 X119.83 Y88.044 E.02206
G1 X120.626 Y88.112 E.02503
G1 X121.352 Y88.328 E.02375
G1 X122.007 Y88.676 E.02326
G1 X122.576 Y89.139 E.02299
G1 X123.045 Y89.705 E.02305
G1 X123.436 Y90.448 E.02631
G1 X123.615 Y91.048 E.01964
G1 X123.696 Y91.887 E.02642
G1 X123.627 Y92.547 E.02083
G1 X123.393 Y93.304 E.02484
M204 S1000
G1 X122.868 Y93.496 F10800
M204 S800
;TYPE:External perimeter
G1 F1200
G1 X122.732 Y93.744 E.00886
G1 X122.309 Y94.251 E.0207
G1 X121.8 Y94.667 E.02062
G1 X121.22 Y94.976 E.02061
G1 X120.584 Y95.17 E.02086
G1 X119.926 Y95.237 E.02071
G1 X119.233 Y95.169 E.02184
G1 X118.587 Y94.969 E.02121
G1 X117.998 Y94.649 E.02102
G1 X117.485 Y94.224 E.02088
G1 X117.072 Y93.714 E.02059
G1 X116.761 Y93.132 E.0207
G1 X116.569 Y92.5 E.0207
G1 X116.502 Y91.843 E.0207
G1 X116.571 Y91.147 E.02192
G1 X116.771 Y90.501 E.02121
G1 X117.09 Y89.914 E.02094
G1 X117.513 Y89.405 E.02078
G1 X118.023 Y88.989 E.02062
G1 X118.603 Y88.68 E.02061
G1 X119.239 Y88.485 E.02086
G1 X119.868 Y88.419 E.01981
G1 X120.589 Y88.487 E.02271
G1 X121.238 Y88.688 E.02132
G1 X121.825 Y89.006 E.02094
G1 X122.333 Y89.428 E.0207
G1 X122.751 Y89.942 E.02077
G1 X122.993 Y90.393 E.01605
G1 X123.17 Y90.876 E.01612
G1 X123.261 Y91.192 E.01031
G1 X123.321 Y91.812 E.01953
G1 X123.269 Y92.346 E.01682
G1 X123.147 Y92.853 E.01634
G1 X123.037 Y93.189 E.0111
G1 X122.897 Y93.444 E.00912
M204 S1000
G1 X123.022 Y93.733 F10800
;WIPE_START
G1 F8640
G1 X122.732 Y93.744 E-.07908
G1 X122.309 Y94.251 E-.15245
G1 X121.8 Y94.667 E-.15182
G1 X121.22 Y94.976 E-.15178
G1 X120.584 Y95.17 E-.1536
G1 X120.277 Y95.202 E-.07127
;WIPE_END
G1 E-.04 F2100
G1 Z.6 F720
G1 X83.625 Y121.562 F10800
G1 Z.2 F720
G1 E.8 F2100
M204 S800
;TYPE:Perimeter
G1 F1200
G1 X83.411 Y122.268 E.02315
G1 X83.063 Y122.923 E.02326
G1 X82.598 Y123.494 E.02307
G1 X82.036 Y123.96 E.0229
G1 X81.396 Y124.31 E.02288
G1 X80.584 Y124.553 E.02657
G1 X79.963 Y124.613 E.01957
G1 X79.192 Y124.543 E.02427
G1 X78.471 Y124.328 E.02359
G1 X77.816 Y123.98 E.02326
G1 X77.249 Y123.518 E.02291
G1 X76.778 Y122.951 E.02313
G1 X76.429 Y122.309 E.02291
G1 X76.208 Y121.608 E.02306
G1 X76.127 Y120.879 E.02299
G1 X76.195 Y120.111 E.02419
G1 X76.412 Y119.388 E.02366
G1 X76.761 Y118.73 E.02335
G1 X77.225 Y118.162 E.023
G1 X77.787 Y117.696 E.02289
G1 X78.427 Y117.346 E.02288
G1 X79.131 Y117.124 E.02314
G1 X79.83 Y117.044 E.02206
G1 X80.626 Y117.112 E.02503
G1 X81.349 Y117.327 E.02367
G1 X82.007 Y117.676 E.02335
G1 X82.576 Y118.139 E.023
G1 X83.045 Y118.705 E.02305
G1 X83.394 Y119.346 E.0229
G1 X83.615 Y120.048 E.02306
G1 X83.696 Y120.774 E.02291
G1 X83.631 Y121.502 E.02292
M204 S1000
G1 X83.193 Y121.706 F10800
M204 S800
;TYPE:External perimeter
G1 F1200
G1 X83.052 Y122.155 E.01475
G1 X82.733 Y122.742 E.02094
G1 X82.31 Y123.251 E.02078
G1 X81.8 Y123.667 E.02062
G1 X81.22 Y123.976 E.02061
G1 X80.584 Y124.17 E.02086
G1 X79.926 Y124.237 E.02071
G1 X79.231 Y124.168 E.02192
G1 X78.585 Y123.968 E.02121
G1 X77.998 Y123.649 E.02094
G1 X77.492 Y123.23 E.02062
G1 X77.072 Y122.714 E.02085
G1 X76.762 Y122.134 E.02062
G1 X76.569 Y121.5 E.02078
G1 X76.502 Y120.843 E.02071
G1 X76.571 Y120.15 E.02184
G1 X76.771 Y119.501 E.02129
G1 X77.091 Y118.912 E.02102
M73 P0 R224
G1 X77.513 Y118.404 E.0207
G1 X78.023 Y117.989 E.02062
G1 X78.603 Y117.68 E.02061
G1 X79.239 Y117.485 E.02086
G1 X79.868 Y117.419 E.01981
G1 X80.589 Y117.487 E.02271
G1 X81.236 Y117.686 E.02124
G1 X81.825 Y118.006 E.02102
G1 X82.333 Y118.428 E.0207
G1 X82.751 Y118.942 E.02077
G1 X83.061 Y119.522 E.02062
G1 X83.254 Y120.156 E.02078
G1 X83.321 Y120.81 E.02062
G1 X83.252 Y121.509 E.022
G1 X83.211 Y121.649 E.00458
M204 S1000
G1 X83.479 Y121.986 F10800
;WIPE_START
G1 F8640
G1 X83.052 Y122.155 E-.12247
G1 X82.733 Y122.742 E-.15419
G1 X82.31 Y123.251 E-.153
G1 X81.8 Y123.667 E-.15184
G1 X81.22 Y123.976 E-.15178
G1 X81.109 Y124.01 E-.02672
;WIPE_END
G1 E-.04 F2100
G1 Z.6 F720
G1 X79.134 Y154.526 F10800
G1 Z.2 F720
G1 E.8 F2100
M204 S800
;TYPE:Perimeter
G1 F1200
G1 X78.471 Y154.328 E.02168
G1 X77.816 Y153.98 E.02326
G1 X77.249 Y153.518 E.02291
G1 X76.779 Y152.953 E.02305
G1 X76.43 Y152.312 E.02289
G1 X76.208 Y151.608 E.02314
G1 X76.127 Y150.879 E.023
G1 X76.195 Y150.111 E.02419
G1 X76.41 Y149.39 E.02358
G1 X76.761 Y148.73 E.02343
G1 X77.223 Y148.164 E.02292
G1 X77.787 Y147.696 E.02296
G1 X78.427 Y147.346 E.02289
G1 X79.131 Y147.124 E.02314
G1 X79.83 Y147.044 E.02206
G1 X80.626 Y147.112 E.02503
G1 X81.454 Y147.372 E.02723
G1 X82.007 Y147.676 E.01978
G1 X82.574 Y148.137 E.02291
G1 X83.044 Y148.703 E.02305
G1 X83.393 Y149.344 E.02289
G1 X83.615 Y150.048 E.02314
G1 X83.696 Y150.774 E.02291
G1 X83.628 Y151.545 E.02427
G1 X83.411 Y152.268 E.02367
G1 X83.062 Y152.926 E.02335
G1 X82.598 Y153.494 E.02298
G1 X82.036 Y153.96 E.0229
G1 X81.396 Y154.31 E.02288
G1 X80.692 Y154.532 E.02314
G1 X79.963 Y154.613 E.023
G1 X79.191 Y154.543 E.02428
M204 S1000
G1 X79.327 Y154.178 F10800
M204 S800
;TYPE:External perimeter
G1 F1200
G1 X79.233 Y154.169 E.00297
G1 X78.585 Y153.968 E.02129
G1 X77.998 Y153.649 E.02094
G1 X77.492 Y153.23 E.02062
G1 X77.073 Y152.716 E.02077
G1 X76.763 Y152.136 E.02062
G1 X76.569 Y151.5 E.02086
G1 X76.502 Y150.843 E.02071
G1 X76.571 Y150.15 E.02184
G1 X76.77 Y149.503 E.02121
G1 X77.091 Y148.912 E.0211
G1 X77.512 Y148.406 E.02063
G1 X78.023 Y147.989 E.02069
G1 X78.603 Y147.68 E.02061
G1 X79.239 Y147.485 E.02086
G1 X79.868 Y147.419 E.01981
G1 X80.589 Y147.487 E.02271
G1 X81.238 Y147.688 E.02132
G1 X81.825 Y148.006 E.02094
G1 X82.331 Y148.426 E.02062
G1 X82.75 Y148.94 E.02077
G1 X83.06 Y149.52 E.02062
G1 X83.254 Y150.156 E.02086
G1 X83.321 Y150.81 E.02062
G1 X83.253 Y151.506 E.02192
G1 X83.052 Y152.155 E.02129
G1 X82.732 Y152.742 E.02097
G1 X82.31 Y153.251 E.02075
G1 X81.8 Y153.667 E.02062
G1 X81.22 Y153.976 E.02061
G1 X80.584 Y154.17 E.02086
G1 X79.926 Y154.237 E.02071
G1 X79.387 Y154.184 E.01699
M204 S1000
G1 X79.275 Y154.257 F10800
;WIPE_START
G1 F8640
G1 X79.233 Y154.169 E-.0357
G1 X78.585 Y153.968 E-.15676
G1 X77.998 Y153.649 E-.15421
G1 X77.492 Y153.23 E-.15185
G1 X77.073 Y152.716 E-.15295
G1 X76.852 Y152.302 E-.10852
;WIPE_END
G1 E-.04 F2100
G1 Z.6 F720
G1 X168.248 Y62.728 F10800
G1 Z.2 F720
G1 E.8 F2100
M204 S800
;TYPE:Solid infill
;WIDTH:0.420443
G1 F1200
G1 X168.842 Y63.322 E.02635
G1 X168.842 Y63.856 E.01676
G1 X167.884 Y62.898 E.04252
G1 X167.35 Y62.898 E.01676
G1 X168.842 Y64.389 E.06622
G1 X168.842 Y64.923 E.01676
G1 X166.816 Y62.898 E.08992
G1 X166.282 Y62.898 E.01676
G1 X168.842 Y65.457 E.11362
G1 X168.842 Y65.991 E.01676
G1 X165.748 Y62.898 E.13732
G1 X165.214 Y62.898 E.01676
G1 X168.842 Y66.525 E.16103
G1 X168.842 Y67.059 E.01676
G1 X164.68 Y62.898 E.18473
G1 X164.147 Y62.898 E.01676
G1 X168.842 Y67.593 E.20843
G1 X168.842 Y68.127 E.01676
G1 X163.613 Y62.898 E.23213
G1 X163.079 Y62.898 E.01676
G1 X168.842 Y68.661 E.25583
G1 X168.842 Y69.194 E.01676
G1 X162.545 Y62.898 E.27954
G1 X162.011 Y62.898 E.01676
G1 X168.842 Y69.728 E.30324
G1 X168.842 Y70.262 E.01676
G1 X161.477 Y62.898 E.32694
G1 X160.943 Y62.898 E.01676
G1 X168.842 Y70.796 E.35064
G1 X168.842 Y71.33 E.01676
G1 X160.409 Y62.898 E.37434
G1 X159.875 Y62.898 E.01676
G1 X168.842 Y71.864 E.39804
G1 X168.842 Y72.398 E.01676
G1 X159.342 Y62.898 E.42175
G1 X158.808 Y62.898 E.01676
G1 X168.842 Y72.932 E.44545
G1 X168.842 Y73.466 E.01676
G1 X158.274 Y62.898 E.46915
G1 X157.74 Y62.898 E.01676
G1 X168.842 Y74 E.49285
G1 X168.842 Y74.533 E.01676
G1 X157.206 Y62.898 E.51655
G1 X156.672 Y62.898 E.01676
G1 X168.842 Y75.067 E.54025
G1 X168.842 Y75.601 E.01676
G1 X156.138 Y62.898 E.56396
G1 X155.604 Y62.898 E.01676
G1 X168.842 Y76.135 E.58766
G1 X168.842 Y76.669 E.01676
G1 X162.767 Y70.595 E.26966
G1 X162.888 Y70.974 E.0125
G1 X162.922 Y71.284 E.00978
G1 X168.842 Y77.203 E.26278
G1 X168.842 Y77.737 E.01676
G1 X162.977 Y71.873 E.26033
G1 X162.929 Y72.358 E.0153
