; generated by PrusaSlicer 2.5.0+win64 on 2022-10-03 at 18:54:49 UTC


;
;
; 

; external perimeters extrusion width = 0.45mm
; perimeters extrusion width = 0.45mm
; infill extrusion width = 0.45mm
; solid infill extrusion width = 0.45mm
; top infill extrusion width = 0.40mm
; first layer extrusion width = 0.42mm

M73 P0 R225
M73 Q0 S230
M201 X1000 Y1000 Z200 E5000 ; sets maximum accelerations, mm/sec^2
M203 X200 Y200 Z12 E120 ; sets maximum feedrates, mm / sec
M204 P1250 R1250 T1250 ; sets acceleration (P, T) and retract acceleration (R), mm/sec^2
M205 X8.00 Y8.00 Z0.40 E4.50 ; sets the jerk limits, mm/sec
M205 S0 T0 ; sets the minimum extruding and travel feed rate, mm/sec
M107
;TYPE:Custom
M862.3 P "MK3S" ; printer model check
M862.1 P0.4 ; nozzle diameter check
M115 U3.11.0 ; tell printer latest fw version
G90 ; use absolute coordinates
M83 ; extruder relative mode
M104 S215 ; set extruder temp
M140 S60 ; set bed temp
M190 S60 ; wait for bed temp
M109 S215 ; wait for extruder temp
G28 W ; home all without mesh bed level
G80 ; mesh bed leveling

G1 Z0.2 F720
G1 Y-3 F1000 ; go outside print area
G92 E0
G1 X60 E9 F1000 ; intro line
G1 X100 E12.5 F1000 ; intro line

G92 E0
M221 S95

; Don't change E values below. Excessive value can damage the printer.

M907 E538 ; set extruder motor current
G21 ; set units to millimeters
G90 ; use absolute coordinates
M83 ; use relative distances for extrusion
M900 K0.05 ; Filament gcode LA 1.5
M900 K30 ; Filament gcode LA 1.0
M107
;LAYER_CHANGE
;Z:0.2
;HEIGHT:0.2
;BEFORE_LAYER_CHANGE
G92 E0.0
;0.2


G1 E-.8 F2100
G1 Z.4 F720
;AFTER_LAYER_CHANGE
;0.2
G1 X73.015 Y53.693 F10800
G1 Z.2 F720
G1 E.8 F2100
M204 S800
;TYPE:Skirt/Brim
;WIDTH:0.42
G1 F1200
G1 X74.06 Y52.817 E.04278
G1 X75 Y52.623 E.03008
G1 X95 Y52.623 E.62709
G1 X96.426 Y53.098 E.04714
G1 X176.426 Y113.098 E3.13543
G1 X177.237 Y114.196 E.04278
G1 X177.377 Y115 E.02559
G1 X177.377 Y155 E1.25417
G1 X176.985 Y156.307 E.04278
G1 X175.94 Y157.183 E.04278
G1 X175 Y157.377 E.03008
G1 X75 Y157.377 E3.13543
G1 X73.693 Y156.985 E.04278
G1 X72.817 Y155.94 E.04278
G1 X72.623 Y155 E.03008
G1 X72.623 Y55 E3.13543
G1 X72.997 Y53.75 E.0409
M204 S1000
; printing object silnik_lewy_X1.stl id:0 copy 0
;WIPE_START
G1 F8640
G1 X74.06 Y52.817 E-.32671
G1 X75 Y52.623 E-.22155
G1 X75.917 Y52.623 E-.21174
;WIPE_END
G1 E-.04 F2100
G1 Z.6 F720
G1 X174.213 Y154.213 F10800
G1 Z.2 F720
G1 E.8 F2100
M204 S800
;TYPE:Perimeter
;WIDTH:0.419999
G1 F1200
G1 X75.787 Y154.213 E3.08607
G1 X75.787 Y55.787 E3.08607
G1 X94.738 Y55.787 E.59418
G1 X174.213 Y115.394 E3.11486
G1 X174.213 Y154.153 E1.21527
M204 S1000
M73 Q0 S229
G1 X174.59 Y154.59 F10800
M204 S800
;TYPE:External perimeter
G1 F1200
G1 X75.41 Y154.59 E3.10971
G1 X75.41 Y55.41 E3.10971
G1 X94.863 Y55.41 E.60994
M73 P0 R224
G1 X174.59 Y115.205 E3.12471
G1 X174.59 Y154.53 E1.23301
M204 S1000
G1 X174.208 Y154.473 F10800
;WIPE_START
G1 F8640
G1 X171.299 Y154.532 E-.76
;WIPE_END
G1 E-.04 F2100
G1 Z.6 F720
G1 X163.947 Y121.223 F10800
G1 Z.2 F720
G1 E.8 F2100
M204 S800
;TYPE:Perimeter
G1 F1200
G1 X164.666 Y121.275 E.02262
G1 X165.383 Y121.477 E.02334
G1 X166.034 Y121.808 E.02291
G1 X166.609 Y122.257 E.02288
G1 X167.089 Y122.813 E.02305
G1 X167.457 Y123.459 E.02331
G1 X167.693 Y124.171 E.02351
G1 X167.787 Y125 E.02614
G1 X167.725 Y125.672 E.02119
G1 X167.523 Y126.383 E.02314
G1 X167.191 Y127.036 E.02299
G1 X166.74 Y127.611 E.02289
G1 X166.189 Y128.088 E.02288
G1 X165.541 Y128.457 E.02338
G1 X164.829 Y128.693 E.02352
G1 X164.062 Y128.784 E.02422
G1 X163.328 Y128.725 E.02308
G1 X162.617 Y128.523 E.02315
G1 X161.966 Y128.192 E.02291
G1 X161.391 Y127.743 E.02288
G1 X160.911 Y127.187 E.02305
G1 X160.543 Y126.541 E.0233
G1 X160.307 Y125.829 E.02351
G1 X160.216 Y125.062 E.02422
G1 X160.275 Y124.328 E.02308
G1 X160.477 Y123.617 E.02315
G1 X160.809 Y122.964 E.02299
G1 X161.261 Y122.387 E.02297
G1 X161.814 Y121.91 E.02289
G1 X162.459 Y121.543 E.02329
G1 X163.171 Y121.307 E.02351
G1 X163.887 Y121.219 E.0226
M204 S1000
G1 X163.869 Y121.6 F10800
M204 S800
;TYPE:External perimeter
G1 F1200
G1 X164.634 Y121.65 E.02403
G1 X165.274 Y121.838 E.02092
G1 X165.858 Y122.141 E.02062
G1 X166.372 Y122.551 E.02061
G1 X166.801 Y123.056 E.02077
G1 X167.127 Y123.641 E.02101
G1 X167.333 Y124.285 E.02119
G1 X167.41 Y125 E.02255
G1 X167.349 Y125.636 E.02005
G1 X167.162 Y126.274 E.02086
G1 X166.857 Y126.86 E.0207
G1 X166.447 Y127.374 E.02062
G1 X165.946 Y127.799 E.02061
G1 X165.359 Y128.127 E.02108
G1 X164.715 Y128.333 E.02119
G1 X164.023 Y128.409 E.02185
G1 X163.364 Y128.349 E.02074
G1 X162.726 Y128.162 E.02086
G1 X162.142 Y127.859 E.02062
G1 X161.628 Y127.449 E.02061
G1 X161.199 Y126.944 E.02077
G1 X160.873 Y126.359 E.021
G1 X160.667 Y125.715 E.02118
G1 X160.591 Y125.023 E.02185
G1 X160.651 Y124.364 E.02074
G1 X160.838 Y123.726 E.02086
G1 X161.143 Y123.14 E.0207
G1 X161.555 Y122.624 E.02069
G1 X162.056 Y122.199 E.02062
G1 X162.641 Y121.873 E.021
G1 X163.285 Y121.667 E.02119
G1 X163.81 Y121.607 E.01657
M204 S1000
G1 X164.059 Y121.248 F10800
;WIPE_START
G1 F8640
G1 X164.634 Y121.65 E-.1906
G1 X165.274 Y121.838 E-.15408
G1 X165.858 Y122.141 E-.15185
G1 X166.372 Y122.551 E-.15179
G1 X166.685 Y122.92 E-.11167
;WIPE_END
G1 E-.04 F2100
G1 Z.6 F720
G1 X164.729 Y141.292 F10800
G1 Z.2 F720
G1 E.8 F2100
M204 S800
;TYPE:Perimeter
G1 F1200
G1 X165.383 Y141.477 E.0213
G1 X166.034 Y141.808 E.02291
G1 X166.609 Y142.257 E.02288
G1 X167.089 Y142.813 E.02305
G1 X167.457 Y143.459 E.02331
G1 X167.693 Y144.171 E.02351
G1 X167.787 Y145 E.02614
G1 X167.725 Y145.672 E.02119
G1 X167.523 Y146.383 E.02314
G1 X167.191 Y147.036 E.02299
G1 X166.664 Y147.688 E.02629
G1 X166.189 Y148.088 E.01948
G1 X165.541 Y148.457 E.02338
G1 X164.829 Y148.693 E.02352
G1 X164.062 Y148.784 E.02422
G1 X163.328 Y148.725 E.02308
G1 X162.617 Y148.523 E.02315
G1 X161.966 Y148.192 E.02291
G1 X161.391 Y147.743 E.02288
G1 X160.911 Y147.187 E.02305
G1 X160.543 Y146.541 E.02331
G1 X160.307 Y145.829 E.02351
G1 X160.216 Y145.062 E.02422
G1 X160.275 Y144.328 E.02308
G1 X160.477 Y143.617 E.02315
G1 X160.808 Y142.966 E.02291
G1 X161.257 Y142.392 E.02288
G1 X161.813 Y141.911 E.02305
G1 X162.459 Y141.543 E.0233
G1 X163.171 Y141.307 E.02351
G1 X163.886 Y141.219 E.02258
G1 X164.671 Y141.276 E.02468
M204 S1000
G1 X164.179 Y141.614 F10800
M204 S800
;TYPE:External perimeter
G1 F1200
G1 X164.634 Y141.65 E.01431
G1 X165.274 Y141.838 E.02092
G1 X165.858 Y142.141 E.02062
G1 X166.372 Y142.551 E.02061
G1 X166.801 Y143.056 E.02077
G1 X167.127 Y143.641 E.02101
G1 X167.333 Y144.285 E.02119
G1 X167.41 Y145 E.02255
G1 X167.349 Y145.636 E.02005
G1 X167.162 Y146.274 E.02086
G1 X166.857 Y146.86 E.0207
G1 X166.447 Y147.374 E.02062
G1 X165.946 Y147.799 E.02061
G1 X165.359 Y148.127 E.02108
G1 X164.715 Y148.333 E.02119
G1 X164.023 Y148.409 E.02185
G1 X163.364 Y148.349 E.02074
G1 X162.726 Y148.162 E.02086
G1 X162.142 Y147.859 E.02062
G1 X161.628 Y147.449 E.02061
G1 X161.199 Y146.944 E.02077
G1 X160.873 Y146.359 E.02101
G1 X160.667 Y145.715 E.02118
G1 X160.591 Y145.023 E.02185
G1 X160.651 Y144.364 E.02074
G1 X160.838 Y143.726 E.02086
G1 X161.141 Y143.142 E.02062
G1 X161.551 Y142.628 E.02061
G1 X162.056 Y142.199 E.02077
G1 X162.641 Y141.873 E.02101
G1 X163.285 Y141.667 E.02119
G1 X163.926 Y141.594 E.02026
G1 X164.119 Y141.609 E.00607
M204 S1000
G1 X164.391 Y141.274 F10800
;WIPE_START
G1 F8640
G1 X164.634 Y141.65 E-.11924
G1 X165.274 Y141.838 E-.15409
G1 X165.858 Y142.141 E-.15185
G1 X166.372 Y142.551 E-.15179
G1 X166.801 Y143.056 E-.15295
G1 X166.864 Y143.17 E-.03009
;WIPE_END
G1 E-.04 F2100
G1 Z.6 F720
G1 X128.7 Y124.234 F10800
G1 Z.2 F720
G1 E.8 F2100
M204 S800
;TYPE:Perimeter
G1 F1200
G1 X128.784 Y124.941 E.02232
G1 X128.725 Y125.672 E.023
G1 X128.523 Y126.383 E.02314
G1 X128.191 Y127.036 E.02299
G1 X127.74 Y127.611 E.02289
G1 X127.189 Y128.088 E.02288
G1 X126.541 Y128.457 E.02338
G1 X125.829 Y128.693 E.02352
G1 X125.062 Y128.784 E.02422
G1 X124.328 Y128.725 E.02308
G1 X123.617 Y128.523 E.02315
G1 X122.966 Y128.192 E.02291
G1 X122.391 Y127.743 E.02288
G1 X121.911 Y127.187 E.02305
G1 X121.543 Y126.541 E.0233
G1 X121.307 Y125.829 E.02351
G1 X121.216 Y125.062 E.02422
G1 X121.275 Y124.328 E.02308
G1 X121.477 Y123.617 E.02315
G1 X121.809 Y122.964 E.02299
G1 X122.259 Y122.389 E.02289
G1 X122.811 Y121.912 E.02288
G1 X123.459 Y121.543 E.02338
G1 X124.171 Y121.307 E.02352
G1 X124.886 Y121.219 E.02258
G1 X125.666 Y121.275 E.02452
G1 X126.383 Y121.477 E.02334
G1 X127.034 Y121.808 E.02291
G1 X127.609 Y122.257 E.02288
G1 X128.089 Y122.813 E.02305
G1 X128.456 Y123.457 E.02322
G1 X128.693 Y124.175 E.02371
M204 S1000
G1 X128.265 Y124.072 F10800
M204 S800
;TYPE:External perimeter
G1 F1200
G1 X128.333 Y124.284 E.007
G1 X128.409 Y124.98 E.02194
G1 X128.349 Y125.638 E.02071
G1 X128.162 Y126.274 E.0208
G1 X127.857 Y126.86 E.0207
G1 X127.447 Y127.374 E.02062
G1 X126.946 Y127.799 E.02061
G1 X126.359 Y128.127 E.02108
G1 X125.715 Y128.333 E.02119
G1 X125.023 Y128.409 E.02185
G1 X124.364 Y128.349 E.02074
G1 X123.726 Y128.162 E.02086
G1 X123.142 Y127.859 E.02062
G1 X122.628 Y127.449 E.02061
G1 X122.199 Y126.944 E.02077
G1 X121.873 Y126.359 E.021
G1 X121.667 Y125.715 E.02118
G1 X121.591 Y125.023 E.02185
G1 X121.651 Y124.364 E.02074
G1 X121.838 Y123.726 E.02086
G1 X122.143 Y123.14 E.0207
G1 X122.553 Y122.626 E.02062
G1 X123.054 Y122.201 E.02061
G1 X123.641 Y121.873 E.02108
G1 X124.285 Y121.667 E.02119
G1 X124.926 Y121.594 E.02026
G1 X125.634 Y121.65 E.02226
G1 X126.274 Y121.838 E.02092
G1 X126.858 Y122.141 E.02062
G1 X127.372 Y122.551 E.02061
G1 X127.801 Y123.056 E.02077
G1 X128.126 Y123.639 E.02093
G1 X128.247 Y124.015 E.01238
M204 S1000
G1 X128.485 Y124.11 F10800
;WIPE_START
G1 F8640
G1 X128.333 Y124.284 E-.06541
G1 X128.409 Y124.98 E-.16157
G1 X128.349 Y125.638 E-.15253
G1 X128.162 Y126.274 E-.15319
G1 X127.857 Y126.86 E-.15242
G1 X127.655 Y127.113 E-.07488
;WIPE_END
G1 E-.04 F2100
G1 Z.6 F720
G1 X81.524 Y97.484 F10800
G1 Z.2 F720
G1 E.8 F2100
M204 S800
;TYPE:Perimeter
G1 F1200
G1 X81.308 Y96.832 E.02157
G1 X81.216 Y96.062 E.02431
G1 X81.275 Y95.328 E.02309
G1 X81.477 Y94.617 E.02315
G1 X81.809 Y93.964 E.02299
G1 X82.259 Y93.389 E.02289
G1 X82.811 Y92.912 E.02288
G1 X83.459 Y92.543 E.02338
G1 X84.171 Y92.307 E.02352
G1 X84.886 Y92.219 E.02258
G1 X85.666 Y92.275 E.02452
G1 X86.383 Y92.477 E.02334
G1 X87.034 Y92.808 E.02291
G1 X87.687 Y93.334 E.0263
G1 X88.089 Y93.813 E.01963
G1 X88.456 Y94.457 E.02322
G1 X88.692 Y95.168 E.0235
G1 X88.784 Y95.941 E.0244
G1 X88.725 Y96.672 E.023
G1 X88.523 Y97.383 E.02314
G1 X88.191 Y98.036 E.02299
G1 X87.74 Y98.611 E.02289
G1 X87.189 Y99.088 E.02288
G1 X86.541 Y99.457 E.02338
G1 X85.829 Y99.693 E.02352
G1 X85.062 Y99.784 E.02422
G1 X84.328 Y99.725 E.02308
G1 X83.617 Y99.523 E.02315
G1 X82.966 Y99.192 E.02291
G1 X82.391 Y98.743 E.02288
G1 X81.912 Y98.189 E.02297
G1 X81.543 Y97.541 E.02336
M204 S1000
G1 X81.99 Y97.568 F10800
M204 S800
;TYPE:External perimeter
G1 F1200
G1 X81.874 Y97.361 E.00742
G1 X81.667 Y96.718 E.02118
G1 X81.591 Y96.023 E.02194
G1 X81.651 Y95.364 E.02074
G1 X81.838 Y94.726 E.02086
G1 X82.143 Y94.14 E.0207
G1 X82.553 Y93.626 E.02062
G1 X83.054 Y93.201 E.02061
G1 X83.641 Y92.873 E.02108
G1 X84.285 Y92.667 E.02119
G1 X84.926 Y92.594 E.02026
G1 X85.634 Y92.65 E.02226
G1 X86.274 Y92.838 E.02092
G1 X86.858 Y93.141 E.02062
G1 X87.372 Y93.551 E.02061
G1 X87.801 Y94.056 E.02077
G1 X88.126 Y94.639 E.02093
G1 X88.333 Y95.282 E.02118
G1 X88.409 Y95.98 E.02202
G1 X88.349 Y96.636 E.02066
G1 X88.162 Y97.274 E.02086
G1 X87.857 Y97.86 E.0207
G1 X87.447 Y98.374 E.02062
G1 X86.946 Y98.799 E.02061
G1 X86.359 Y99.127 E.02108
G1 X85.715 Y99.333 E.02119
G1 X85.023 Y99.409 E.02185
G1 X84.364 Y99.349 E.02074
G1 X83.726 Y99.162 E.02086
G1 X83.142 Y98.859 E.02062
G1 X82.628 Y98.449 E.02061
G1 X82.201 Y97.946 E.02069
G1 X82.019 Y97.62 E.0117
M204 S1000
G1 X81.753 Y97.574 F10800
;WIPE_START
G1 F8640
G1 X81.874 Y97.361 E-.0685
G1 X81.667 Y96.718 E-.156
G1 X81.591 Y96.023 E-.16154
G1 X81.651 Y95.364 E-.15272
G1 X81.838 Y94.726 E-.15362
G1 X81.973 Y94.466 E-.06763
;WIPE_END
G1 E-.04 F2100
G1 Z.6 F720
G1 X82.352 Y68.697 F10800
G1 Z.2 F720
G1 E.8 F2100
M204 S800
;TYPE:Perimeter
G1 F1200
G1 X81.912 Y68.189 E.02106
G1 X81.544 Y67.543 E.0233
G1 X81.308 Y66.832 E.02351
G1 X81.216 Y66.062 E.02431
G1 X81.275 Y65.328 E.02309
G1 X81.477 Y64.617 E.02315
G1 X81.809 Y63.964 E.02299
G1 X82.259 Y63.389 E.02289
G1 X82.811 Y62.912 E.02288
G1 X83.459 Y62.543 E.02338
G1 X84.171 Y62.307 E.02352
G1 X84.886 Y62.219 E.02258
G1 X85.666 Y62.275 E.02452
G1 X86.383 Y62.477 E.02334
G1 X87.034 Y62.808 E.02291
G1 X87.609 Y63.257 E.02288
G1 X88.089 Y63.813 E.02305
G1 X88.456 Y64.457 E.02322
G1 X88.692 Y65.168 E.0235
G1 X88.784 Y65.941 E.0244
G1 X88.725 Y66.672 E.023
G1 X88.523 Y67.383 E.02314
G1 X88.191 Y68.036 E.02299
G1 X87.74 Y68.611 E.02289
G1 X87.16 Y69.11 E.02402
G1 X86.541 Y69.457 E.02226
G1 X85.829 Y69.693 E.02352
G1 X85.062 Y69.784 E.02422
G1 X84.328 Y69.725 E.02308
G1 X83.617 Y69.523 E.02315
G1 X82.966 Y69.192 E.02291
G1 X82.391 Y68.742 E.0229
M204 S1000
G1 X82.709 Y68.513 F10800
M204 S800
;TYPE:External perimeter
G1 F1200
G1 X82.628 Y68.449 E.00323
G1 X82.201 Y67.946 E.02069
G1 X81.874 Y67.361 E.021
G1 X81.667 Y66.718 E.02118
G1 X81.591 Y66.023 E.02194
G1 X81.651 Y65.364 E.02074
G1 X81.838 Y64.726 E.02086
G1 X82.143 Y64.14 E.0207
G1 X82.553 Y63.626 E.02062
G1 X83.054 Y63.201 E.02061
G1 X83.641 Y62.873 E.02108
G1 X84.285 Y62.667 E.02119
G1 X84.926 Y62.594 E.02026
G1 X85.634 Y62.65 E.02226
G1 X86.274 Y62.838 E.02092
G1 X86.858 Y63.141 E.02062
G1 X87.372 Y63.551 E.02061
G1 X87.801 Y64.056 E.02077
G1 X88.126 Y64.639 E.02093
G1 X88.333 Y65.282 E.02118
G1 X88.409 Y65.98 E.02202
G1 X88.349 Y66.636 E.02066
G1 X88.162 Y67.274 E.02086
G1 X87.857 Y67.86 E.0207
G1 X87.447 Y68.374 E.02062
G1 X86.936 Y68.807 E.02099
G1 X86.359 Y69.127 E.02071
G1 X85.715 Y69.333 E.02119
G1 X85.023 Y69.409 E.02185
G1 X84.364 Y69.349 E.02074
G1 X83.726 Y69.162 E.02086
G1 X83.142 Y68.859 E.02062
G1 X82.755 Y68.55 E.0155
M204 S1000
G1 X82.614 Y68.554 F10800
;WIPE_START
G1 F8640
G1 X82.628 Y68.449 E-.03762
G1 X82.201 Y67.946 E-.15238
G1 X81.874 Y67.361 E-.15466
G1 X81.667 Y66.718 E-.156
G1 X81.591 Y66.023 E-.16154
G1 X81.629 Y65.601 E-.09779
;WIPE_END
G1 E-.04 F2100
G1 Z.6 F720
G1 X174.1 Y116.224 F10800
G1 Z.2 F720
G1 E.8 F2100
M204 S800
;TYPE:Solid infill
;WIDTH:0.421098
G1 F1200
G1 X171.852 Y113.976 E.09996
G1 X169.713 Y112.372 E.08409
G1 X173.93 Y116.589 E.18755
G1 X173.93 Y117.124 E.01682
G1 X167.574 Y110.768 E.28268
G1 X165.434 Y109.163 E.08409
G1 X173.93 Y117.659 E.37782
G1 X173.93 Y118.194 E.01682
G1 X163.295 Y107.559 E.47296
G1 X161.156 Y105.954 E.08409
G1 X173.93 Y118.729 E.56809
G1 X173.93 Y119.263 E.01682
G1 X159.016 Y104.35 E.66323
G1 X156.877 Y102.745 E.08409
G1 X173.93 Y119.798 E.75836
G1 X173.93 Y120.333 E.01682
G1 X154.738 Y101.141 E.8535
G1 X152.598 Y99.536 E.08409
G1 X173.93 Y120.868 E.94864
G1 X173.93 Y121.403 E.01682
G1 X150.459 Y97.932 E1.04377
G1 X148.32 Y96.327 E.08409
G1 X173.93 Y121.938 E1.13891
G1 X173.93 Y122.472 E.01682
G1 X146.181 Y94.723 E1.23405
G1 X144.041 Y93.118 E.08409
G1 X173.93 Y123.007 E1.32918
G1 X173.93 Y123.542 E.01682
G1 X141.902 Y91.514 E1.42432
G1 X139.763 Y89.909 E.08409
G1 X173.93 Y124.077 E1.51946
G1 X173.93 Y124.612 E.01682
M73 Q0 S228
G1 X137.623 Y88.305 E1.61459
G1 X135.484 Y86.7 E.08409
G1 X173.93 Y125.146 E1.70973
G1 X173.93 Y125.681 E.01682
G1 X133.345 Y85.096 E1.80486
G1 X131.205 Y83.491 E.08409
G1 X173.93 Y126.216 E1.9
G1 X173.93 Y126.751 E.01682
G1 X129.066 Y81.887 E1.99514
G1 X126.927 Y80.283 E.08409
M73 P0 R223
G1 X173.93 Y127.286 E2.09027
G1 X173.93 Y127.821 E.01682
G1 X124.788 Y78.678 E2.18541
G1 X122.648 Y77.074 E.08409
G1 X173.93 Y128.355 E2.28055
G1 X173.93 Y128.89 E.01682
G1 X120.509 Y75.469 E2.37568
G1 X118.37 Y73.865 E.08409
G1 X165.958 Y121.453 E2.11631
G1 X166.172 Y121.561 E.00753
G1 X166.792 Y122.042 E.02466
G1 X167.311 Y122.637 E.02484
G1 X167.539 Y123.033 E.01437
G1 X173.93 Y129.425 E.28424
G1 X173.93 Y129.96 E.01682
G1 X167.915 Y123.945 E.26749
G1 X167.997 Y124.249 E.00991
