; generated by PrusaSlicer 2.5.0+win64 on 2022-10-03 at 18:55:03 UTC


;
;
; 

; external perimeters extrusion width = 0.45mm
; perimeters extrusion width = 0.45mm
; infill extrusion width = 0.45mm
; solid infill extrusion width = 0.45mm
; top infill extrusion width = 0.40mm
; first layer extrusion width = 0.42mm

M73 P0 R226
M73 Q0 S231
M201 X1000 Y1000 Z200 E5000 ; sets maximum accelerations, mm/sec^2
M203 X200 Y200 Z12 E120 ; sets maximum feedrates, mm / sec
M204 P1250 R1250 T1250 ; sets acceleration (P, T) and retract acceleration (R), mm/sec^2
M205 X8.00 Y8.00 Z0.40 E4.50 ; sets the jerk limits, mm/sec
M205 S0 T0 ; sets the minimum extruding and travel feed rate, mm/sec
M107
;TYPE:Custom
M862.3 P "MK3S" ; printer model check
M862.1 P0.4 ; nozzle diameter check
M115 U3.11.0 ; tell printer latest fw version
G90 ; use absolute coordinates
M83 ; extruder relative mode
M104 S215 ; set extruder temp
M140 S60 ; set bed temp
M190 S60 ; wait for bed temp
M109 S215 ; wait for extruder temp
G28 W ; home all without mesh bed level
G80 ; mesh bed leveling

G1 Z0.2 F720
G1 Y-3 F1000 ; go outside print area
G92 E0
G1 X60 E9 F1000 ; intro line
G1 X100 E12.5 F1000 ; intro line

G92 E0
M221 S95

; Don't change E values below. Excessive value can damage the printer.

M907 E538 ; set extruder motor current
G21 ; set units to millimeters
G90 ; use absolute coordinates
M83 ; use relative distances for extrusion
M900 K0.05 ; Filament gcode LA 1.5
M900 K30 ; Filament gcode LA 1.0
M107
;LAYER_CHANGE
;Z:0.2
;HEIGHT:0.2
;BEFORE_LAYER_CHANGE
G92 E0.0
;0.2


G1 E-.8 F2100
G1 Z.4 F720
;AFTER_LAYER_CHANGE
;0.2
G1 X80.774 Y107.698 F10800
G1 Z.2 F720
G1 E.8 F2100
M204 S800
;TYPE:Skirt/Brim
;WIDTH:0.42
G1 F1200
G1 X153.574 Y53.098 E2.85324
G1 X155 Y52.623 E.04714
G1 X175 Y52.623 E.62709
G1 X176.307 Y53.015 E.04278
G1 X177.183 Y54.06 E.04278
G1 X177.377 Y55 E.03008
G1 X177.377 Y155 E3.13543
G1 X176.985 Y156.307 E.04278
G1 X175.94 Y157.183 E.04278
G1 X175 Y157.377 E.03008
G1 X75 Y157.377 E3.13543
G1 X73.693 Y156.985 E.04278
M73 Q0 S230
G1 X72.817 Y155.94 E.04278
G1 X72.623 Y155 E.03008
G1 X72.623 Y115 E1.25417
G1 X73.015 Y113.693 E.04278
G1 X73.574 Y113.098 E.02559
G1 X80.726 Y107.734 E.28031
M204 S1000
; printing object silnik_prawy_x1.stl id:0 copy 0
;WIPE_START
G1 F8640
G1 X83.359 Y105.759 E-.76
;WIPE_END
G1 E-.04 F2100
G1 Z.6 F720
G1 X174.213 Y154.213 F10800
G1 Z.2 F720
G1 E.8 F2100
M204 S800
;TYPE:Perimeter
;WIDTH:0.419999
G1 F1200
G1 X75.787 Y154.213 E3.08607
G1 X75.787 Y115.394 E1.21715
M73 P0 R225
G1 X155.262 Y55.787 E3.11486
G1 X174.213 Y55.787 E.59418
G1 X174.213 Y154.153 E3.08419
M204 S1000
G1 X174.59 Y154.59 F10800
M204 S800
;TYPE:External perimeter
G1 F1200
G1 X75.41 Y154.59 E3.10971
G1 X75.41 Y115.205 E1.23489
G1 X155.137 Y55.41 E3.12471
G1 X174.59 Y55.41 E.60994
G1 X174.59 Y154.53 E3.10783
M204 S1000
G1 X174.231 Y154.413 F10800
;WIPE_START
G1 F8640
G1 X171.299 Y154.532 E-.76
;WIPE_END
G1 E-.04 F2100
G1 Z.6 F720
G1 X168.472 Y67.492 F10800
G1 Z.2 F720
G1 E.8 F2100
M204 S800
;TYPE:Perimeter
G1 F1200
G1 X168.152 Y68.095 E.02141
G1 X167.691 Y68.662 E.02291
G1 X167.127 Y69.131 E.02297
G1 X166.482 Y69.483 E.02306
G1 X165.78 Y69.704 E.02307
G1 X165.051 Y69.785 E.02299
G1 X164.283 Y69.716 E.02419
G1 X163.459 Y69.457 E.02706
G1 X162.905 Y69.152 E.01986
G1 X162.334 Y68.687 E.02308
G1 X161.868 Y68.125 E.0229
G1 X161.516 Y67.479 E.02304
G1 X161.296 Y66.78 E.02299
G1 X161.215 Y66.054 E.0229
G1 X161.292 Y65.228 E.02602
G1 X161.499 Y64.562 E.02185
G1 X161.848 Y63.905 E.02335
G1 X162.309 Y63.338 E.02291
G1 X162.873 Y62.869 E.02297
G1 X163.518 Y62.517 E.02306
G1 X164.22 Y62.296 E.02307
G1 X164.919 Y62.216 E.02205
G1 X165.714 Y62.284 E.02503
G1 X166.438 Y62.499 E.02367
G1 X167.095 Y62.848 E.02335
G1 X167.666 Y63.313 E.02308
G1 X168.132 Y63.875 E.0229
G1 X168.482 Y64.516 E.02288
G1 X168.704 Y65.22 E.02314
G1 X168.785 Y65.949 E.023
G1 X168.716 Y66.717 E.02419
G1 X168.5 Y67.439 E.02363
M204 S1000
G1 X167.893 Y67.782 F10800
M204 S800
;TYPE:External perimeter
G1 F1200
G1 X167.822 Y67.914 E.0047
G1 X167.402 Y68.42 E.02062
G1 X166.89 Y68.837 E.02069
G1 X166.306 Y69.149 E.02077
G1 X165.672 Y69.342 E.02078
G1 X165.015 Y69.409 E.02071
G1 X164.322 Y69.341 E.02184
G1 X163.675 Y69.141 E.02121
G1 X163.086 Y68.821 E.02102
G1 X162.577 Y68.398 E.02078
G1 X162.161 Y67.888 E.02062
G1 X161.85 Y67.304 E.02077
G1 X161.658 Y66.672 E.02071
G1 X161.591 Y66.018 E.02062
G1 X161.662 Y65.303 E.02251
G1 X161.859 Y64.675 E.02063
G1 X162.179 Y64.086 E.02102
G1 X162.598 Y63.58 E.02062
G1 X163.11 Y63.163 E.02069
G1 X163.694 Y62.851 E.02077
G1 X164.328 Y62.658 E.02078
G1 X164.956 Y62.591 E.01981
G1 X165.677 Y62.659 E.02271
G1 X166.325 Y62.859 E.02124
G1 X166.914 Y63.179 E.02102
G1 X167.423 Y63.602 E.02078
G1 X167.839 Y64.112 E.02062
G1 X168.148 Y64.692 E.02061
G1 X168.342 Y65.328 E.02086
G1 X168.409 Y65.985 E.02071
G1 X168.341 Y66.678 E.02184
G1 X168.141 Y67.325 E.02121
G1 X167.922 Y67.729 E.01444
M204 S1000
G1 X167.976 Y67.907 F10800
;WIPE_START
G1 F8640
G1 X167.822 Y67.914 E-.04844
G1 X167.402 Y68.42 E-.15187
G1 X166.89 Y68.837 E-.15237
G1 X166.306 Y69.149 E-.15297
G1 X165.672 Y69.342 E-.15304
G1 X165.236 Y69.387 E-.10131
;WIPE_END
G1 E-.04 F2100
G1 Z.6 F720
G1 X168.113 Y98.143 F10800
G1 Z.2 F720
G1 E.8 F2100
M204 S800
;TYPE:Perimeter
G1 F1200
G1 X167.691 Y98.662 E.02099
G1 X167.127 Y99.131 E.02297
G1 X166.482 Y99.483 E.02306
G1 X165.78 Y99.704 E.02307
G1 X165.051 Y99.785 E.02299
G1 X164.283 Y99.716 E.02419
G1 X163.562 Y99.501 E.02358
G1 X162.905 Y99.152 E.02335
G1 X162.334 Y98.687 E.02308
G1 X161.868 Y98.125 E.0229
G1 X161.518 Y97.484 E.02288
G1 X161.296 Y96.78 E.02314
G1 X161.215 Y96.054 E.02291
G1 X161.284 Y95.283 E.02427
G1 X161.499 Y94.562 E.02358
G1 X161.848 Y93.905 E.02335
G1 X162.309 Y93.338 E.02291
G1 X162.873 Y92.869 E.02297
G1 X163.518 Y92.517 E.02306
G1 X164.326 Y92.275 E.02643
G1 X164.919 Y92.216 E.01868
G1 X165.714 Y92.284 E.02503
G1 X166.438 Y92.499 E.02367
G1 X167.095 Y92.848 E.02335
G1 X167.666 Y93.313 E.02308
G1 X168.132 Y93.875 E.0229
G1 X168.482 Y94.516 E.02288
G1 X168.704 Y95.22 E.02314
G1 X168.787 Y96.003 E.0247
G1 X168.716 Y96.717 E.0225
G1 X168.5 Y97.44 E.02366
G1 X168.151 Y98.096 E.0233
M204 S1000
G1 X167.581 Y98.203 F10800
M204 S800
;TYPE:External perimeter
G1 F1200
G1 X167.402 Y98.42 E.00883
G1 X166.89 Y98.837 E.02069
G1 X166.306 Y99.149 E.02077
G1 X165.672 Y99.342 E.02078
G1 X165.015 Y99.409 E.02071
G1 X164.322 Y99.341 E.02184
G1 X163.675 Y99.141 E.02121
G1 X163.086 Y98.821 E.02102
G1 X162.577 Y98.398 E.02078
G1 X162.161 Y97.888 E.02062
G1 X161.852 Y97.308 E.02061
G1 X161.658 Y96.672 E.02086
G1 X161.591 Y96.018 E.02062
G1 X161.659 Y95.322 E.02192
G1 X161.859 Y94.675 E.02121
G1 X162.179 Y94.086 E.02102
G1 X162.598 Y93.58 E.02062
G1 X163.11 Y93.163 E.02069
G1 X163.694 Y92.851 E.02077
G1 X164.328 Y92.658 E.02078
G1 X164.956 Y92.591 E.01981
G1 X165.677 Y92.659 E.02271
G1 X166.325 Y92.859 E.02124
G1 X166.914 Y93.179 E.02102
G1 X167.423 Y93.602 E.02078
G1 X167.839 Y94.112 E.02062
G1 X168.148 Y94.692 E.02061
G1 X168.342 Y95.328 E.02086
G1 X168.41 Y96.003 E.02128
G1 X168.341 Y96.678 E.02128
G1 X168.14 Y97.327 E.02129
G1 X167.821 Y97.914 E.02094
G1 X167.62 Y98.157 E.00991
M204 S1000
G1 X167.69 Y98.463 F10800
;WIPE_START
G1 F8640
G1 X167.402 Y98.42 E-.07887
G1 X166.89 Y98.837 E-.15237
G1 X166.306 Y99.149 E-.15297
G1 X165.672 Y99.342 E-.15305
G1 X165.015 Y99.409 E-.1525
G1 X164.712 Y99.379 E-.07024
;WIPE_END
G1 E-.04 F2100
G1 Z.6 F720
G1 X121.547 Y123.471 F10800
G1 Z.2 F720
G1 E.8 F2100
M204 S800
;TYPE:Perimeter
G1 F1200
G1 X121.85 Y122.902 E.02019
G1 X122.313 Y122.334 E.023
G1 X122.875 Y121.868 E.02289
G1 X123.516 Y121.518 E.02288
G1 X124.22 Y121.296 E.02314
G1 X124.919 Y121.216 E.02206
G1 X125.714 Y121.284 E.02503
G1 X126.44 Y121.5 E.02375
G1 X127.096 Y121.848 E.02327
G1 X127.662 Y122.309 E.02291
G1 X128.132 Y122.875 E.02305
G1 X128.482 Y123.516 E.02289
G1 X128.704 Y124.22 E.02314
G1 X128.785 Y124.949 E.023
G1 X128.716 Y125.717 E.02419
G1 X128.5 Y126.44 E.02366
G1 X128.15 Y127.098 E.02335
G1 X127.687 Y127.666 E.023
G1 X127.125 Y128.132 E.02289
G1 X126.484 Y128.482 E.02288
G1 X125.78 Y128.704 E.02314
G1 X125.051 Y128.785 E.023
G1 X124.28 Y128.716 E.02427
G1 X123.559 Y128.5 E.02359
G1 X122.902 Y128.15 E.02334
G1 X122.334 Y127.687 E.023
G1 X121.868 Y127.125 E.02289
G1 X121.577 Y126.596 E.01893
G1 X121.384 Y126.074 E.01742
G1 X121.275 Y125.672 E.01306
G1 X121.215 Y125.049 E.01964
G1 X121.308 Y124.168 E.02776
G1 X121.519 Y123.524 E.02127
M204 S1000
G1 X122.04 Y123.339 F10800
M204 S800
;TYPE:External perimeter
G1 F1200
G1 X122.18 Y123.084 E.00911
G1 X122.602 Y122.577 E.0207
G1 X123.112 Y122.161 E.02062
G1 X123.692 Y121.852 E.02061
G1 X124.328 Y121.658 E.02086
G1 X124.956 Y121.591 E.01981
G1 X125.677 Y121.659 E.02271
G1 X126.327 Y121.86 E.02132
G1 X126.914 Y122.179 E.02094
G1 X127.42 Y122.598 E.02062
G1 X127.839 Y123.112 E.02077
G1 X128.148 Y123.692 E.02062
G1 X128.342 Y124.328 E.02086
G1 X128.409 Y124.985 E.02071
G1 X128.341 Y125.678 E.02184
G1 X128.14 Y126.327 E.02129
G1 X127.82 Y126.916 E.02102
G1 X127.398 Y127.423 E.0207
G1 X126.888 Y127.839 E.02062
G1 X126.308 Y128.148 E.02061
G1 X125.672 Y128.342 E.02086
G1 X125.015 Y128.409 E.02071
G1 X124.319 Y128.341 E.02192
G1 X123.673 Y128.14 E.02121
G1 X123.084 Y127.82 E.02101
G1 X122.577 Y127.398 E.0207
G1 X122.161 Y126.888 E.02062
G1 X121.91 Y126.42 E.01666
G1 X121.658 Y125.672 E.02475
G1 X121.603 Y125.143 E.01666
G1 X121.643 Y124.482 E.02079
G1 X121.764 Y123.975 E.01634
G1 X121.874 Y123.639 E.01109
G1 X122.011 Y123.391 E.00886
M204 S1000
G1 X121.882 Y123.095 F10800
;WIPE_START
G1 F8640
G1 X122.18 Y123.084 E-.08093
G1 X122.602 Y122.577 E-.15245
G1 X123.112 Y122.161 E-.15182
G1 X123.692 Y121.852 E-.15178
G1 X124.328 Y121.658 E-.1536
G1 X124.627 Y121.626 E-.06941
;WIPE_END
G1 E-.04 F2100
G1 Z.6 F720
G1 X82.302 Y124.222 F10800
G1 Z.2 F720
G1 E.8 F2100
M204 S800
;TYPE:Perimeter
G1 F1200
G1 X82.5 Y123.56 E.02169
G1 X82.848 Y122.904 E.02327
G1 X83.309 Y122.338 E.02291
G1 X83.875 Y121.868 E.02305
G1 X84.516 Y121.518 E.02289
G1 X85.22 Y121.296 E.02314
G1 X85.919 Y121.216 E.02206
G1 X86.717 Y121.284 E.02512
G1 X87.441 Y121.5 E.02368
G1 X88.096 Y121.848 E.02326
G1 X88.662 Y122.309 E.02291
G1 X89.131 Y122.873 E.02297
G1 X89.496 Y123.545 E.024
G1 X89.704 Y124.22 E.02214
G1 X89.784 Y125.062 E.02652
G1 X89.716 Y125.72 E.02075
G1 X89.5 Y126.441 E.02359
G1 X89.152 Y127.096 E.02326
G1 X88.687 Y127.666 E.02307
G1 X88.125 Y128.132 E.0229
G1 X87.383 Y128.523 E.0263
G1 X86.78 Y128.704 E.01972
G1 X86.051 Y128.785 E.023
G1 X85.351 Y128.723 E.02203
G1 X84.716 Y128.55 E.02063
G1 X84.457 Y128.456 E.00864
G1 X83.904 Y128.152 E.01978
G1 X83.338 Y127.691 E.02291
G1 X82.869 Y127.127 E.02297
G1 X82.518 Y126.484 E.02297
G1 X82.296 Y125.78 E.02315
G1 X82.215 Y125.054 E.02291
G1 X82.285 Y124.28 E.02437
M204 S1000
G1 X82.621 Y124.711 F10800
M204 S800
;TYPE:External perimeter
G1 F1200
G1 X82.659 Y124.322 E.01225
G1 X82.86 Y123.673 E.02129
G1 X83.179 Y123.086 E.02094
G1 X83.598 Y122.58 E.02062
G1 X84.112 Y122.161 E.02077
G1 X84.692 Y121.852 E.02062
G1 X85.328 Y121.658 E.02086
G1 X85.956 Y121.591 E.01981
G1 X86.68 Y121.659 E.02279
G1 X87.327 Y121.86 E.02124
G1 X87.914 Y122.179 E.02094
G1 X88.42 Y122.598 E.02062
G1 X88.837 Y123.11 E.02069
G1 X89.153 Y123.701 E.02103
G1 X89.342 Y124.328 E.02052
G1 X89.397 Y124.863 E.01686
G1 X89.358 Y125.515 E.02049
G1 X89.236 Y126.025 E.01644
G1 X89.126 Y126.361 E.01109
G1 X88.821 Y126.914 E.01978
G1 X88.398 Y127.423 E.02078
G1 X87.888 Y127.839 E.02062
G1 X87.308 Y128.148 E.02061
G1 X86.636 Y128.349 E.022
G1 X86.013 Y128.409 E.01963
G1 X85.39 Y128.348 E.01962
G1 X84.639 Y128.126 E.02457
G1 X84.086 Y127.821 E.01978
G1 X83.58 Y127.402 E.02062
G1 X83.163 Y126.89 E.02069
G1 X82.852 Y126.308 E.02069
G1 X82.658 Y125.672 E.02086
G1 X82.591 Y125.018 E.02062
G1 X82.615 Y124.771 E.00779
M204 S1000
G1 X82.293 Y124.498 F10800
;WIPE_START
G1 F8640
G1 X82.659 Y124.322 E-.1041
G1 X82.86 Y123.673 E-.15679
G1 X83.179 Y123.086 E-.15421
G1 X83.598 Y122.58 E-.15185
G1 X84.112 Y122.161 E-.15295
G1 X84.265 Y122.08 E-.0401
;WIPE_END
G1 E-.04 F2100
G1 Z.6 F720
G1 X89.71 Y144.28 F10800
G1 Z.2 F720
G1 E.8 F2100
M204 S800
;TYPE:Perimeter
G1 F1200
G1 X89.785 Y144.949 E.02112
G1 X89.716 Y145.72 E.02427
G1 X89.5 Y146.441 E.02359
G1 X89.152 Y147.096 E.02326
G1 X88.687 Y147.666 E.02307
G1 X88.125 Y148.132 E.0229
G1 X87.484 Y148.482 E.02288
G1 X86.78 Y148.704 E.02314
G1 X86.051 Y148.785 E.023
G1 X85.28 Y148.716 E.02427
G1 X84.559 Y148.5 E.02359
G1 X83.904 Y148.152 E.02326
G1 X83.338 Y147.691 E.02291
G1 X82.869 Y147.127 E.02297
G1 X82.518 Y146.484 E.02297
G1 X82.296 Y145.78 E.02315
G1 X82.215 Y145.054 E.02291
G1 X82.284 Y144.283 E.02427
G1 X82.5 Y143.56 E.02367
G1 X82.848 Y142.904 E.02327
G1 X83.309 Y142.338 E.02291
G1 X83.875 Y141.868 E.02305
G1 X84.516 Y141.518 E.02289
G1 X85.326 Y141.275 E.02651
G1 X85.916 Y141.216 E.01861
G1 X86.658 Y141.278 E.02333
G1 X87.284 Y141.45 E.02034
G1 X87.543 Y141.544 E.00865
G1 X88.096 Y141.848 E.01978
G1 X88.666 Y142.313 E.02307
G1 X89.132 Y142.875 E.0229
G1 X89.455 Y143.465 E.02109
G1 X89.704 Y144.22 E.02491
M204 S1000
G1 X89.29 Y144.165 F10800
M204 S800
;TYPE:External perimeter
G1 F1200
G1 X89.342 Y144.328 E.00535
G1 X89.409 Y144.985 E.02071
G1 X89.341 Y145.681 E.02192
G1 X89.14 Y146.327 E.02121
G1 X88.821 Y146.914 E.02094
G1 X88.398 Y147.423 E.02078
G1 X87.888 Y147.839 E.02062
G1 X87.308 Y148.148 E.02061
G1 X86.672 Y148.342 E.02086
G1 X86.015 Y148.409 E.02071
G1 X85.319 Y148.341 E.02192
G1 X84.673 Y148.14 E.02121
G1 X84.086 Y147.821 E.02094
G1 X83.58 Y147.402 E.02062
G1 X83.163 Y146.89 E.02069
G1 X82.852 Y146.308 E.02069
G1 X82.658 Y145.672 E.02086
G1 X82.591 Y145.018 E.02062
G1 X82.659 Y144.322 E.02192
G1 X82.86 Y143.673 E.02129
G1 X83.179 Y143.086 E.02094
G1 X83.598 Y142.58 E.02062
G1 X84.112 Y142.161 E.02077
G1 X84.692 Y141.852 E.02062
G1 X85.363 Y141.651 E.02198
G1 X85.957 Y141.591 E.0187
G1 X86.621 Y141.654 E.02092
G1 X87.361 Y141.874 E.02422
G1 X87.914 Y142.179 E.01978
G1 X88.423 Y142.602 E.02078
G1 X88.839 Y143.112 E.02062
G1 X89.122 Y143.641 E.01882
G1 X89.272 Y144.108 E.01538
M204 S1000
G1 X89.458 Y144.196 F10800
;WIPE_START
G1 F8640
G1 X89.342 Y144.328 E-.05327
G1 X89.409 Y144.985 E-.15251
G1 X89.341 Y145.681 E-.16143
G1 X89.14 Y146.327 E-.1562
G1 X88.821 Y146.914 E-.15419
G1 X88.593 Y147.188 E-.08239
;WIPE_END
G1 E-.04 F2100
G1 Z.6 F720
G1 X174.1 Y56.663 F10800
G1 Z.2 F720
G1 E.8 F2100
M204 S800
;TYPE:Solid infill
;WIDTH:0.420443
G1 F1200
G1 X173.506 Y56.07 E.02635
G1 X172.972 Y56.07 E.01676
G1 X173.93 Y57.028 E.04252
G1 X173.93 Y57.562 E.01676
G1 X172.438 Y56.07 E.06622
G1 X171.905 Y56.07 E.01676
G1 X173.93 Y58.095 E.08992
G1 X173.93 Y58.629 E.01676
M73 Q0 S229
G1 X171.371 Y56.07 E.11362
G1 X170.837 Y56.07 E.01676
G1 X173.93 Y59.163 E.13732
G1 X173.93 Y59.697 E.01676
G1 X170.303 Y56.07 E.16103
G1 X169.769 Y56.07 E.01676
G1 X173.93 Y60.231 E.18473
G1 X173.93 Y60.765 E.01676
G1 X169.235 Y56.07 E.20843
G1 X168.701 Y56.07 E.01676
G1 X173.93 Y61.299 E.23213
G1 X173.93 Y61.833 E.01676
G1 X168.167 Y56.07 E.25583
G1 X167.633 Y56.07 E.01676
G1 X173.93 Y62.367 E.27954
G1 X173.93 Y62.9 E.01676
G1 X167.1 Y56.07 E.30324
G1 X166.566 Y56.07 E.01676
G1 X173.93 Y63.434 E.32694
G1 X173.93 Y63.968 E.01676
G1 X166.032 Y56.07 E.35064
G1 X165.498 Y56.07 E.01676
G1 X173.93 Y64.502 E.37434
G1 X173.93 Y65.036 E.01676
G1 X164.964 Y56.07 E.39804
G1 X164.43 Y56.07 E.01676
G1 X173.93 Y65.57 E.42175
G1 X173.93 Y66.104 E.01676
G1 X163.896 Y56.07 E.44545
G1 X163.362 Y56.07 E.01676
G1 X173.93 Y66.638 E.46915
G1 X173.93 Y67.172 E.01676
G1 X162.828 Y56.07 E.49285
G1 X162.294 Y56.07 E.01676
G1 X173.93 Y67.706 E.51655
G1 X173.93 Y68.239 E.01676
G1 X161.761 Y56.07 E.54025
G1 X161.227 Y56.07 E.01676
M73 P0 R224
G1 X173.93 Y68.773 E.56396
G1 X173.93 Y69.307 E.01676
G1 X160.693 Y56.07 E.58766
G1 X160.159 Y56.07 E.01676
G1 X166.224 Y62.135 E.26926
G1 X165.909 Y62.036 E.01037
G1 X165.541 Y61.986 E.01166
G1 X159.625 Y56.07 E.26264
G1 X159.091 Y56.07 E.01676
G1 X164.96 Y61.939 E.26055
G1 X164.466 Y61.979 E.01556
