; generated by PrusaSlicer 2.5.0+win64 on 2022-10-03 at 18:56:17 UTC


;
;
; 

; external perimeters extrusion width = 0.45mm
; perimeters extrusion width = 0.45mm
; infill extrusion width = 0.45mm
; solid infill extrusion width = 0.45mm
; top infill extrusion width = 0.40mm
; first layer extrusion width = 0.42mm

M73 P0 R188
M73 Q0 S193
M201 X1000 Y1000 Z200 E5000 ; sets maximum accelerations, mm/sec^2
M203 X200 Y200 Z12 E120 ; sets maximum feedrates, mm / sec
M204 P1250 R1250 T1250 ; sets acceleration (P, T) and retract acceleration (R), mm/sec^2
M205 X8.00 Y8.00 Z0.40 E4.50 ; sets the jerk limits, mm/sec
M205 S0 T0 ; sets the minimum extruding and travel feed rate, mm/sec
M107
;TYPE:Custom
M862.3 P "MK3S" ; printer model check
M862.1 P0.4 ; nozzle diameter check
M115 U3.11.0 ; tell printer latest fw version
G90 ; use absolute coordinates
M83 ; extruder relative mode
M104 S215 ; set extruder temp
M140 S60 ; set bed temp
M190 S60 ; wait for bed temp
M109 S215 ; wait for extruder temp
G28 W ; home all without mesh bed level
G80 ; mesh bed leveling

G1 Z0.2 F720
G1 Y-3 F1000 ; go outside print area
G92 E0
G1 X60 E9 F1000 ; intro line
G1 X100 E12.5 F1000 ; intro line

G92 E0
M221 S95

; Don't change E values below. Excessive value can damage the printer.

M907 E538 ; set extruder motor current
G21 ; set units to millimeters
G90 ; use absolute coordinates
M83 ; use relative distances for extrusion
M900 K0.05 ; Filament gcode LA 1.5
M900 K30 ; Filament gcode LA 1.0
M107
;LAYER_CHANGE
;Z:0.2
;HEIGHT:0.2
;BEFORE_LAYER_CHANGE
G92 E0.0
;0.2


G1 E-.8 F2100
G1 Z.4 F720
;AFTER_LAYER_CHANGE
;0.2
G1 X95.982 Y33.744 F10800
G1 Z.2 F720
G1 E.8 F2100
M204 S800
;TYPE:Skirt/Brim
;WIDTH:0.42
G1 F1200
G1 X110.366 Y10.629 E.85363
G1 X111.312 Y9.297 E.05123
G1 X112.068 Y8.395 E.0369
G1 X113.245 Y7.202 E.05254
G1 X114.61 Y6.072 E.05555
G1 X116.071 Y5.093 E.05514
G1 X117.646 Y4.257 E.05592
G1 X119.363 Y3.564 E.05804
G1 X121.531 Y2.974 E.07047
G1 X123.28 Y2.708 E.05545
G1 X125.092 Y2.624 E.05686
G1 X127.131 Y2.755 E.06408
G1 X128.802 Y3.045 E.05318
G1 X130.493 Y3.514 E.055
G1 X132.078 Y4.13 E.05332
G1 X133.674 Y4.943 E.05616
G1 X135.149 Y5.895 E.05505
G1 X136.531 Y7.001 E.0555
G1 X137.798 Y8.245 E.05568
G1 X138.892 Y9.561 E.05366
G1 X139.808 Y10.91 E.05113
G1 X154.018 Y33.744 E.84326
G1 X154.377 Y35 E.04095
G1 X154.377 Y175 E4.3896
G1 X154.018 Y176.256 E.04095
G1 X139.808 Y199.09 E.84326
G1 X138.892 Y200.439 E.05113
G1 X137.798 Y201.755 E.05366
G1 X136.531 Y202.999 E.05567
G1 X135.149 Y204.105 E.0555
G1 X133.674 Y205.057 E.05505
G1 X132.078 Y205.87 E.05616
G1 X130.493 Y206.486 E.05332
G1 X128.802 Y206.955 E.055
G1 X127.131 Y207.245 E.05318
G1 X125.021 Y207.377 E.06628
G1 X123.161 Y207.278 E.05841
G1 X121.007 Y206.911 E.06852
G1 X119.242 Y206.395 E.05765
G1 X117.646 Y205.743 E.05407
G1 X116.071 Y204.907 E.05592
G1 X114.609 Y203.928 E.05514
G1 X113.245 Y202.798 E.05555
G1 X112.068 Y201.605 E.05254
G1 X111.312 Y200.703 E.0369
G1 X110.366 Y199.371 E.05123
G1 X95.982 Y176.256 E.85363
G1 X95.623 Y175 E.04095
G1 X95.623 Y35 E4.3896
G1 X95.965 Y33.802 E.03907
M204 S1000
; printing object wozek_X2.stl id:0 copy 0
;WIPE_START
G1 F8640
G1 X97.703 Y31.006 E-.76
;WIPE_END
G1 E-.04 F2100
G1 Z.6 F720
G1 X139.234 Y189.832 F10800
G1 Z.2 F720
G1 E.8 F2100
M204 S800
;TYPE:Perimeter
;WIDTH:0.419999
G1 F1200
G1 X139.214 Y189.908 E.00245
G1 X139.196 Y190.691 E.02457
G1 X139.145 Y191.386 E.02183
G1 X139.065 Y192.047 E.02088
G1 X138.951 Y192.715 E.02126
G1 X138.803 Y193.387 E.02157
G1 X138.62 Y194.06 E.02187
G1 X138.402 Y194.732 E.02215
G1 X138.153 Y195.385 E.0219
G1 X137.849 Y196.074 E.02362
G1 X137.532 Y196.704 E.0221
G1 X137.172 Y197.338 E.02287
G1 X136.795 Y197.93 E.02202
G1 X136.377 Y198.518 E.02262
G1 X135.929 Y199.086 E.02266
M73 Q0 S192
G1 X135.46 Y199.622 E.02233
G1 X134.944 Y200.155 E.02328
G1 X134.413 Y200.649 E.02273
G1 X133.858 Y201.115 E.02274
G1 X133.281 Y201.551 E.02267
G1 X132.685 Y201.956 E.02258
G1 X132.073 Y202.328 E.02245
G1 X131.447 Y202.666 E.02231
G1 X130.811 Y202.971 E.02213
G1 X130.166 Y203.241 E.02193
G1 X129.515 Y203.477 E.0217
G1 X128.861 Y203.678 E.02145
G1 X128.192 Y203.85 E.02166
G1 X127.555 Y203.981 E.02039
G1 X126.852 Y204.091 E.02229
G1 X126.173 Y204.164 E.02143
G1 X124.748 Y204.207 E.04471
G1 X124.143 Y204.184 E.01895
G1 X123.419 Y204.121 E.0228
G1 X122.839 Y204.045 E.01836
G1 X122.184 Y203.928 E.02084
G1 X121.509 Y203.775 E.02171
G1 X120.75 Y203.559 E.02475
G1 X120.151 Y203.357 E.01981
G1 X119.462 Y203.086 E.02322
G1 X118.74 Y202.755 E.02491
G1 X118.186 Y202.47 E.01955
G1 X117.569 Y202.112 E.02237
G1 X116.965 Y201.721 E.02254
G1 X116.38 Y201.297 E.02264
G1 X115.816 Y200.843 E.02272
G1 X115.159 Y200.248 E.02779
G1 X114.756 Y199.848 E.01781
G1 X114.267 Y199.312 E.02273
G1 X113.806 Y198.753 E.02272
G1 X113.365 Y198.156 E.02328
G1 X112.918 Y197.478 E.02546
G1 X112.61 Y196.958 E.01894
G1 X112.277 Y196.329 E.02231
G1 X111.978 Y195.688 E.02217
G1 X111.705 Y195.015 E.02278
G1 X111.486 Y194.392 E.02071
G1 X111.29 Y193.736 E.02145
G1 X111.128 Y193.081 E.02116
G1 X110.998 Y192.42 E.02113
G1 X110.896 Y191.735 E.02173
G1 X110.829 Y191.052 E.02151
G1 X110.777 Y189.82 E.03865
G1 X110.664 Y189.57 E.00862
G1 X98.787 Y174.724 E.5961
G1 X98.787 Y35.276 E4.37228
G1 X110.707 Y20.368 E.59848
G1 X110.785 Y20.09 E.00905
G1 X110.796 Y19.49 E.01881
G1 X110.836 Y18.818 E.02111
G1 X110.91 Y18.134 E.02157
G1 X111.019 Y17.445 E.02186
G1 X111.154 Y16.794 E.02086
G1 X111.322 Y16.139 E.02119
G1 X111.523 Y15.485 E.02146
G1 X111.754 Y14.849 E.02123
G1 X112.029 Y14.189 E.02241
G1 X112.334 Y13.553 E.02212
G1 X112.672 Y12.927 E.02231
G1 X113.036 Y12.328 E.02196
G1 X113.458 Y11.706 E.02357
G1 X113.885 Y11.142 E.02217
G1 X114.351 Y10.587 E.02274
G1 X114.845 Y10.056 E.02273
G1 X115.368 Y9.549 E.02286
G1 X115.913 Y9.071 E.02272
G1 X116.482 Y8.623 E.0227
G1 X117.07 Y8.205 E.02262
G1 X117.676 Y7.82 E.02251
G1 X118.296 Y7.468 E.02237
G1 X118.939 Y7.144 E.02256
G1 X119.602 Y6.852 E.02271
G1 X120.268 Y6.598 E.02236
G1 X120.939 Y6.38 E.02214
G1 X121.627 Y6.193 E.02234
G1 X122.299 Y6.046 E.02157
G1 X122.953 Y5.935 E.0208
G1 X123.601 Y5.856 E.02046
G1 X124.309 Y5.804 E.02226
G1 X125.006 Y5.787 E.02187
G1 X126.011 Y5.829 E.03155
G1 X126.636 Y5.886 E.01968
G1 X127.673 Y6.043 E.03286
G1 X128.348 Y6.19 E.02168
G1 X129.144 Y6.409 E.02587
G1 X129.63 Y6.565 E.01601
G1 X130.279 Y6.806 E.0217
G1 X130.923 Y7.083 E.02197
G1 X131.571 Y7.401 E.02266
G1 X132.181 Y7.738 E.02184
G1 X132.957 Y8.229 E.02878
G1 X133.384 Y8.527 E.01632
G1 X133.957 Y8.968 E.02269
G1 X134.508 Y9.44 E.02275
G1 X135.072 Y9.978 E.02444
G1 X135.631 Y10.573 E.0256
G1 X136.01 Y11.016 E.01827
G1 X136.453 Y11.589 E.02273
G1 X136.865 Y12.181 E.0226
G1 X137.246 Y12.792 E.02259
G1 X137.593 Y13.416 E.02237
G1 X137.903 Y14.049 E.02212
G1 X138.201 Y14.741 E.02362
G1 X138.443 Y15.394 E.02182
G1 X138.655 Y16.067 E.02214
G1 X138.85 Y16.826 E.02458
G1 X138.998 Y17.56 E.02346
G1 X139.08 Y18.081 E.01652
G1 X139.155 Y18.744 E.02094
G1 X139.225 Y20.191 E.04541
G1 X139.338 Y20.432 E.00836
G1 X151.213 Y35.276 E.59602
G1 X151.213 Y174.724 E4.37228
G1 X139.786 Y189.008 E.57355
G1 X139.279 Y189.658 E.02583
G1 X139.249 Y189.774 E.00378
M204 S1000
G1 X139.59 Y189.958 F10800
M204 S800
;TYPE:External perimeter
G1 F1200
G1 X139.573 Y190.71 E.02357
G1 X139.52 Y191.422 E.02241
G1 X139.438 Y192.101 E.02144
G1 X139.321 Y192.787 E.02183
G1 X139.17 Y193.477 E.02214
G1 X138.982 Y194.168 E.02245
G1 X138.757 Y194.858 E.02274
G1 X138.502 Y195.528 E.02249
G1 X138.19 Y196.235 E.02423
G1 X137.865 Y196.882 E.0227
G1 X137.495 Y197.532 E.02346
G1 X137.108 Y198.14 E.02261
G1 X136.679 Y198.744 E.02322
G1 X136.219 Y199.327 E.02326
G1 X135.738 Y199.877 E.02293
G1 X135.208 Y200.424 E.02389
G1 X134.663 Y200.931 E.02333
G1 X134.093 Y201.41 E.02334
G1 X133.501 Y201.858 E.02327
G1 X132.889 Y202.273 E.02318
G1 X132.261 Y202.655 E.02305
G1 X131.619 Y203.002 E.0229
G1 X130.965 Y203.315 E.02272
G1 X130.303 Y203.592 E.02251
G1 X129.635 Y203.834 E.02228
G1 X128.963 Y204.041 E.02203
G1 X128.277 Y204.217 E.02222
G1 X127.622 Y204.352 E.02095
G1 X126.902 Y204.465 E.02287
G1 X126.201 Y204.54 E.0221
G1 X124.738 Y204.584 E.04587
G1 X124.116 Y204.56 E.01954
G1 X123.373 Y204.496 E.02336
G1 X122.227 Y204.324 E.03633
G1 X121.538 Y204.173 E.02214
G1 X120.832 Y203.982 E.02293
G1 X120.142 Y203.757 E.02273
G1 X119.458 Y203.496 E.02295
G1 X118.778 Y203.197 E.02331
G1 X118.118 Y202.865 E.02316
G1 X117.481 Y202.503 E.02296
M73 P0 R187
G1 X116.86 Y202.108 E.02311
G1 X116.256 Y201.679 E.02322
G1 X115.672 Y201.219 E.0233
G1 X115.113 Y200.729 E.02332
G1 X114.576 Y200.208 E.02346
G1 X114.069 Y199.663 E.02334
G1 X113.59 Y199.093 E.02334
G1 X113.152 Y198.514 E.02277
G1 X112.719 Y197.876 E.02417
G1 X112.345 Y197.261 E.02255
G1 X111.998 Y196.619 E.0229
G1 X111.685 Y195.965 E.02271
G1 X111.402 Y195.288 E.023
G1 X111.166 Y194.635 E.0218
G1 X110.959 Y193.963 E.02203
G1 X110.786 Y193.291 E.02175
G1 X110.648 Y192.622 E.02142
G1 X110.536 Y191.915 E.02243
G1 X110.461 Y191.214 E.02214
G1 X110.419 Y190.525 E.02163
G1 X110.408 Y189.917 E.01906
G1 X110.368 Y189.803 E.00378
G1 X98.41 Y174.856 E.60018
G1 X98.41 Y35.144 E4.38058
G1 X110.367 Y20.197 E.60015
G1 X110.408 Y20.083 E.00381
G1 X110.419 Y19.475 E.01906
G1 X110.461 Y18.786 E.02163
G1 X110.536 Y18.085 E.02214
G1 X110.648 Y17.378 E.02243
G1 X110.786 Y16.709 E.02142
G1 X110.959 Y16.037 E.02175
G1 X111.166 Y15.365 E.02203
G1 X111.402 Y14.712 E.0218
G1 X111.685 Y14.035 E.023
G1 X111.998 Y13.381 E.02271
G1 X112.345 Y12.739 E.0229
G1 X112.719 Y12.124 E.02255
G1 X113.152 Y11.486 E.02418
G1 X113.59 Y10.907 E.02277
G1 X114.069 Y10.337 E.02334
G1 X114.576 Y9.792 E.02334
G1 X115.113 Y9.271 E.02346
G1 X115.672 Y8.781 E.02332
G1 X116.256 Y8.321 E.0233
G1 X116.86 Y7.892 E.02322
G1 X117.481 Y7.497 E.02311
G1 X118.118 Y7.135 E.02296
G1 X118.778 Y6.803 E.02316
G1 X119.458 Y6.504 E.02331
G1 X120.142 Y6.243 E.02295
G1 X120.832 Y6.018 E.02273
G1 X121.538 Y5.827 E.02293
G1 X122.227 Y5.676 E.02214
G1 X122.899 Y5.562 E.02135
G1 X123.564 Y5.481 E.02101
G1 X124.291 Y5.427 E.02284
G1 X125.009 Y5.41 E.02255
G1 X126.201 Y5.46 E.03738
G1 X126.902 Y5.535 E.02211
G1 X127.622 Y5.648 E.02287
G1 X128.277 Y5.783 E.02095
G1 X128.963 Y5.959 E.02222
G1 X129.635 Y6.166 E.02203
G1 X130.303 Y6.408 E.02228
G1 X130.965 Y6.685 E.02251
G1 X131.619 Y6.998 E.02272
G1 X132.261 Y7.345 E.0229
G1 X132.889 Y7.727 E.02305
G1 X133.501 Y8.142 E.02318
G1 X134.093 Y8.59 E.02327
G1 X134.663 Y9.069 E.02334
G1 X135.208 Y9.576 E.02333
G1 X135.739 Y10.124 E.02393
G1 X136.219 Y10.672 E.02286
G1 X136.679 Y11.256 E.0233
G1 X137.108 Y11.859 E.02322
G1 X137.495 Y12.468 E.02261
G1 X137.865 Y13.118 E.02346
G1 X138.19 Y13.765 E.0227
G1 X138.502 Y14.472 E.02423
G1 X138.757 Y15.142 E.02249
G1 X138.982 Y15.832 E.02274
G1 X139.17 Y16.523 E.02245
G1 X139.321 Y17.213 E.02214
G1 X139.438 Y17.899 E.02183
G1 X139.52 Y18.578 E.02144
G1 X139.573 Y19.29 E.02241
G1 X139.591 Y20.083 E.02487
G1 X139.632 Y20.197 E.00378
G1 X151.59 Y35.144 E.60017
G1 X151.59 Y174.856 E4.38058
G1 X139.632 Y189.803 E.60017
G1 X139.597 Y189.899 E.0032
M204 S1000
G1 X139.206 Y190.07 F10800
;WIPE_START
G1 F8640
G1 X139.573 Y190.71 E-.18721
G1 X139.52 Y191.422 E-.16501
G1 X139.438 Y192.101 E-.1579
G1 X139.321 Y192.787 E-.16073
G1 X139.238 Y193.165 E-.08916
;WIPE_END
G1 E-.04 F2100
G1 Z.6 F720
G1 X127.749 Y192.766 F10800
G1 Z.2 F720
G1 E.8 F2100
M204 S800
;TYPE:Perimeter
G1 F1200
G1 X127.385 Y193.259 E.01922
G1 X126.88 Y193.694 E.02088
G1 X126.229 Y194.048 E.02324
G1 X125.682 Y194.213 E.01792
G1 X125.058 Y194.285 E.0197
G1 X124.528 Y194.247 E.01664
G1 X123.857 Y194.08 E.02168
G1 X123.359 Y193.838 E.01737
G1 X122.741 Y193.385 E.02402
G1 X122.306 Y192.88 E.02089
G1 X122.029 Y192.386 E.01775
G1 X121.791 Y191.697 E.02286
G1 X121.716 Y191.064 E.01999
G1 X121.759 Y190.463 E.01889
G1 X121.92 Y189.857 E.01966
G1 X122.099 Y189.459 E.01368
G1 X122.398 Y188.995 E.01731
G1 X122.854 Y188.513 E.0208
G1 X123.403 Y188.13 E.021
G1 X124.007 Y187.869 E.02065
G1 X124.705 Y187.746 E.02219
G1 X124.995 Y187.717 E.00916
G1 X125.531 Y187.758 E.01684
G1 X126.143 Y187.92 E.01985
G1 X126.729 Y188.207 E.02045
G1 X127.259 Y188.615 E.02099
G1 X127.694 Y189.12 E.02089
G1 X128.015 Y189.697 E.02071
G1 X128.213 Y190.318 E.02045
G1 X128.285 Y190.945 E.01979
G1 X128.241 Y191.537 E.01861
G1 X128.08 Y192.143 E.01965
G1 X127.784 Y192.718 E.02027
M204 S1000
G1 X127.486 Y192.5 F10800
M204 S800
;TYPE:External perimeter
G1 F1200
G1 X127.09 Y193.024 E.0206
G1 X126.639 Y193.404 E.01849
G1 X126.101 Y193.694 E.01918
G1 X125.574 Y193.852 E.01725
G1 X125.021 Y193.909 E.01742
G1 X124.497 Y193.866 E.0165
G1 X123.96 Y193.717 E.01746
G1 X123.445 Y193.459 E.01806
G1 X122.976 Y193.09 E.0187
G1 X122.596 Y192.639 E.01849
G1 X122.317 Y192.125 E.01833
G1 X122.152 Y191.589 E.01759
G1 X122.091 Y191.028 E.0177
G1 X122.134 Y190.497 E.0167
G1 X122.283 Y189.96 E.01746
G1 X122.416 Y189.663 E.01019
G1 X122.714 Y189.201 E.01724
G1 X123.123 Y188.777 E.01848
G1 X123.613 Y188.443 E.0186
G1 X124.151 Y188.218 E.01827
G1 X124.762 Y188.119 E.0194
G1 X125.176 Y188.109 E.01299
G1 X125.538 Y188.141 E.01141
G1 X126.04 Y188.283 E.01635
G1 X126.557 Y188.543 E.01815
G1 X127.024 Y188.91 E.01862
G1 X127.404 Y189.361 E.01849
G1 X127.683 Y189.875 E.01833
G1 X127.852 Y190.426 E.01809
G1 X127.909 Y190.981 E.0175
G1 X127.866 Y191.503 E.01642
G1 X127.717 Y192.04 E.01746
G1 X127.513 Y192.446 E.01424
M204 S1000
G1 X127.676 Y192.852 F10800
;WIPE_START
G1 F8640
G1 X127.09 Y193.024 E-.16538
G1 X126.639 Y193.404 E-.13614
G1 X126.101 Y193.694 E-.14124
G1 X125.574 Y193.852 E-.12704
G1 X125.021 Y193.909 E-.12826
G1 X124.754 Y193.887 E-.06193
;WIPE_END
G1 E-.04 F2100
G1 Z.6 F720
G1 X129.13 Y167.495 F10800
G1 Z.2 F720
G1 E.8 F2100
M204 S800
;TYPE:Perimeter
G1 F1200
G1 X129.068 Y168.242 E.02353
G1 X128.848 Y169.013 E.02511
G1 X128.485 Y169.726 E.0251
G1 X127.991 Y170.356 E.0251
G1 X127.438 Y170.834 E.02293
G1 X126.681 Y171.278 E.0275
G1 X125.9 Y171.536 E.02577
G1 X124.949 Y171.635 E.03
G1 X124.258 Y171.568 E.02177
G1 X123.487 Y171.348 E.02512
G1 X122.774 Y170.985 E.0251
G1 X122.157 Y170.501 E.02459
G1 X121.66 Y169.93 E.02372
G1 X121.296 Y169.315 E.02242
G1 X121.178 Y169.078 E.00828
G1 X120.964 Y168.401 E.02229
G1 X120.866 Y167.561 E.02649
G1 X120.932 Y166.758 E.02528
G1 X121.152 Y165.987 E.02512
G1 X121.515 Y165.274 E.0251
G1 X122.009 Y164.644 E.0251
G1 X122.615 Y164.122 E.0251
G1 X123.319 Y163.722 E.02537
G1 X123.896 Y163.529 E.01908
G1 X124.386 Y163.423 E.01571
G1 X124.943 Y163.365 E.01756
G1 X125.742 Y163.432 E.02516
G1 X126.513 Y163.652 E.02512
G1 X127.226 Y164.015 E.0251
G1 X127.856 Y164.509 E.0251
G1 X128.378 Y165.115 E.0251
G1 X128.754 Y165.775 E.02379
G1 X129.002 Y166.487 E.02365
G1 X129.106 Y167.187 E.02217
G1 X129.125 Y167.435 E.0078
M204 S1000
G1 X128.754 Y167.466 F10800
M204 S800
;TYPE:External perimeter
G1 F1200
G1 X128.693 Y168.206 E.0233
G1 X128.487 Y168.905 E.02283
G1 X128.151 Y169.55 E.02282
G1 X127.697 Y170.119 E.02282
G1 X127.195 Y170.545 E.02065
G1 X126.499 Y170.948 E.02521
G1 X125.787 Y171.176 E.02345
G1 X124.985 Y171.259 E.02528
G1 X124.294 Y171.193 E.02177
G1 X123.595 Y170.987 E.02283
G1 X122.95 Y170.651 E.02282
G1 X122.394 Y170.207 E.02231
G1 X121.949 Y169.688 E.02144
G1 X121.626 Y169.133 E.02012
G1 X121.426 Y168.61 E.01755
G1 X121.3 Y168.095 E.01663
G1 X121.241 Y167.523 E.01805
G1 X121.307 Y166.794 E.02294
G1 X121.513 Y166.095 E.02283
G1 X121.849 Y165.45 E.02282
G1 X122.303 Y164.881 E.02282
G1 X122.858 Y164.411 E.02282
G1 X123.501 Y164.052 E.02307
G1 X124.009 Y163.888 E.01675
G1 X124.424 Y163.798 E.01332
G1 X124.98 Y163.741 E.01753
G1 X125.706 Y163.807 E.02284
G1 X126.405 Y164.013 E.02283
G1 X127.05 Y164.349 E.02282
G1 X127.619 Y164.803 E.02282
G1 X128.089 Y165.358 E.02282
G1 X128.423 Y165.957 E.0215
G1 X128.642 Y166.602 E.02135
G1 X128.749 Y167.406 E.02543
M204 S1000
G1 X129.104 Y167.66 F10800
;WIPE_START
G1 F8640
G1 X128.693 Y168.206 E-.18523
G1 X128.487 Y168.905 E-.16813
G1 X128.151 Y169.55 E-.16804
G1 X127.697 Y170.119 E-.16804
G1 X127.464 Y170.317 E-.07057
;WIPE_END
G1 E-.04 F2100
G1 Z.6 F720
